%
(1001)
(wood-bottom)
(T1  D=3.175 CR=0 - ZMIN=-11.938 - flat end mill)
G90
G17
G21
G28 G91 Z0
G90

(2D Adaptive3)
M9
T1 M6
S16000 M3
G54
M7
G0 X-261.397 Y-52.191
Z15.24
Z5.08
Z2.908
G1 Z2.591 F4064
G3 X-259.249 Y-52.117 Z2.501 I1.051 J0.713
X-261.443 Y-50.839 Z2.362 I-1.097 J0.639
X-261.532 Y-51.933 Z2.322 I1.097 J-0.639
X-259.16 Y-51.023 Z2.183 I1.186 J0.455
X-259.958 Y-50.269 Z2.143 I-1.186 J-0.455
X-261.604 Y-51.65 Z2.054 I-0.388 J-1.209
X-259.088 Y-51.306 Z1.915 I1.258 J0.172
X-261.604 Y-51.65 Z1.775 I-1.258 J-0.172
X-259.088 Y-51.306 Z1.636 I1.258 J0.172
X-261.604 Y-51.65 Z1.497 I-1.258 J-0.172
X-259.088 Y-51.306 Z1.357 I1.258 J0.172
X-261.604 Y-51.65 Z1.218 I-1.258 J-0.172
X-260.047 Y-52.712 Z1.144 I1.258 J0.172
X-259.148 Y-51.056 Z1.07 I-0.299 J1.234
X-261.244 Y-50.58 Z0.98 I-1.198 J-0.422
X-259.447 Y-52.376 Z0.841 I0.898 J-0.898
X-261.244 Y-50.58 Z0.701 I-0.898 J0.898
X-261.029 Y-52.548 Z0.622 I0.899 J-0.898
X-259.085 Y-51.632 Z0.533 I0.683 J1.07
X-260.752 Y-50.275 Z0.443 I-1.261 J0.154
X-259.94 Y-52.681 Z0.304 I0.406 J-1.203
X-259.154 Y-51.915 Z0.264 I-0.406 J1.203
X-261.538 Y-51.041 Z0.125 I-1.192 J0.437
X-261.434 Y-52.133 Z0.085 I1.192 J-0.437
X-259.285 Y-52.176 Z-0.004 I1.088 J0.655
X-261.407 Y-50.78 Z-0.143 I-1.061 J0.698
X-259.285 Y-52.176 Z-0.283 I1.061 J-0.698
X-259.892 Y-50.292 Z-0.362 I-1.061 J0.698
X-261.612 Y-51.582 Z-0.452 I-0.454 J-1.186
X-259.706 Y-52.575 Z-0.541 I1.266 J0.104
X-260.986 Y-50.381 Z-0.68 I-0.64 J1.097
X-259.706 Y-52.575 Z-0.82 I0.64 J-1.097
X-260.986 Y-50.381 Z-0.959 I-0.64 J1.097
X-259.706 Y-52.575 Z-1.098 I0.64 J-1.097
X-259.241 Y-50.853 Z-1.167 I-0.64 J1.097
X-261.388 Y-50.751 Z-1.257 I-1.105 J-0.625
X-259.304 Y-52.205 Z-1.396 I1.042 J-0.727
X-259.127 Y-51.121 Z-1.436 I-1.042 J0.727
X-261.565 Y-51.835 Z-1.575 I-1.219 J-0.357
X-259.127 Y-51.121 Z-1.715 I1.219 J0.357
X-261.565 Y-51.835 Z-1.854 I-1.219 J-0.357
X-259.127 Y-51.121 Z-1.993 I1.219 J0.357
X-261.565 Y-51.835 Z-2.133 I-1.219 J-0.357
X-259.127 Y-51.121 Z-2.272 I1.219 J0.357
X-261.565 Y-51.835 Z-2.411 I-1.219 J-0.357
X-259.127 Y-51.121 Z-2.55 I1.219 J0.357
X-261.565 Y-51.835 Z-2.69 I-1.219 J-0.357
X-259.127 Y-51.121 Z-2.829 I1.219 J0.357
X-261.565 Y-51.835 Z-2.968 I-1.219 J-0.357
X-259.127 Y-51.121 Z-3.108 I1.219 J0.357
X-259.578 Y-50.467 Z-3.136 I-1.219 J-0.357
X-261.59 Y-51.222 Z-3.226 I-0.768 J-1.011
X-259.102 Y-51.734 Z-3.365 I1.244 J-0.256
X-259.367 Y-50.669 Z-3.404 I-1.244 J0.256
X-261.499 Y-50.945 Z-3.494 I-0.979 J-0.809
X-260.329 Y-52.748 Z-3.583 I1.153 J-0.533
X-260.363 Y-50.208 Z-3.723 I-0.017 J1.27
X-260.619 Y-52.718 Z-3.852 I0.017 J-1.27
X-259.109 Y-51.188 Z-3.941 I0.273 J1.24
X-261.142 Y-50.488 Z-4.031 I-1.237 J-0.29
X-260.895 Y-52.623 Z-4.12 I0.796 J-0.99
X-259.076 Y-51.478 Z-4.21 I0.549 J1.145
X-260.662 Y-50.248 I-1.27 J0
X-261.527 Y-51.945 I0.316 J-1.23
X-259.735 Y-52.591 I1.181 J0.467
X-259.076 Y-51.478 I-0.611 J1.113
G1 X-259.05 Y-50.831
X-259.033 Y-50.752
X-259.02 Y-50.6
X-259.038 Y-50.449
X-259.082 Y-50.303
X-259.147 Y-50.165
X-259.23 Y-50.038
X-259.328 Y-49.921
X-259.439 Y-49.816
X-259.561 Y-49.724
X-259.691 Y-49.645
X-259.828 Y-49.579
X-259.971 Y-49.527
X-260.119 Y-49.487
X-260.269 Y-49.461
X-260.421 Y-49.449
X-260.573
X-260.725 Y-49.461
X-260.875 Y-49.486
X-261.024 Y-49.524
X-261.172 Y-49.574
X-261.316 Y-49.636
X-261.457 Y-49.71
X-261.592 Y-49.796
X-261.72 Y-49.893
X-261.842 Y-50.001
X-261.955 Y-50.119
X-262.058 Y-50.247
X-262.152 Y-50.383
X-262.234 Y-50.527
X-262.305 Y-50.677
X-262.364 Y-50.833
X-262.411 Y-50.994
X-262.444 Y-51.159
X-262.464 Y-51.326
X-262.471 Y-51.494
X-262.464 Y-51.663
X-262.443 Y-51.831
X-262.41 Y-51.997
X-262.362 Y-52.16
X-262.302 Y-52.319
X-262.229 Y-52.473
X-262.144 Y-52.621
X-262.048 Y-52.761
X-261.94 Y-52.893
X-261.822 Y-53.016
X-261.694 Y-53.13
X-261.558 Y-53.233
X-261.414 Y-53.324
X-261.262 Y-53.404
X-261.105 Y-53.472
X-260.943 Y-53.526
X-260.777 Y-53.568
X-260.608 Y-53.596
X-260.438 Y-53.61
X-260.266
X-260.096 Y-53.597
X-259.927 Y-53.571
X-259.76 Y-53.53
X-259.597 Y-53.477
X-259.439 Y-53.41
X-259.287 Y-53.331
X-259.142 Y-53.24
X-259.004 Y-53.138
X-258.876 Y-53.025
X-258.756 Y-52.902
X-258.647 Y-52.77
X-258.546 Y-52.626
X-258.437 Y-52.44
X-258.303 Y-52.163
X-258.186 Y-51.859
X-258.111 Y-51.608
X-258.064 Y-51.385
X-258.036 Y-51.168
X-258.026 Y-50.959
X-258.033 Y-50.764
X-258.054 Y-50.572
X-258.092 Y-50.381
X-258.143 Y-50.199
X-258.207 Y-50.025
X-258.287 Y-49.854
X-258.381 Y-49.687
X-258.488 Y-49.529
X-258.607 Y-49.38
X-258.739 Y-49.24
X-258.884 Y-49.109
X-259.042 Y-48.987
X-259.212 Y-48.878
X-259.392 Y-48.781
X-259.581 Y-48.698
X-259.778 Y-48.63
X-259.983 Y-48.577
X-260.193 Y-48.54
X-260.409 Y-48.52
X-260.627 Y-48.518
X-260.848 Y-48.533
X-261.069 Y-48.566
X-261.289 Y-48.618
X-261.507 Y-48.687
X-261.72 Y-48.775
X-261.927 Y-48.88
X-262.126 Y-49.002
X-262.316 Y-49.141
X-262.495 Y-49.296
X-262.545 Y-49.346
X-262.661 Y-49.499
X-262.734 Y-49.676
X-262.758 Y-49.866
Y-52.507
X-262.751 Y-52.659
X-262.728 Y-52.81
X-262.69 Y-52.957
X-262.64 Y-53.101
X-262.576 Y-53.241
X-262.497 Y-53.385
X-262.403 Y-53.527
X-262.294 Y-53.665
X-262.256 Y-53.707
X-262.099 Y-53.836
X-261.913 Y-53.917
X-261.711 Y-53.945
G3 X-261.591 Y-53.917 I-0.011 J0.317
X-261.456 Y-53.455 I-0.132 J0.289
G1 X-262.175 Y-52.345
G3 X-262.73 Y-52.386 I-0.267 J-0.173
X-262.758 Y-52.507 I0.289 J-0.132
G1 Y-53.536
Y-53.609
X-262.757 Y-53.646
X-262.752 Y-53.683
X-262.742 Y-53.719
X-262.726 Y-53.756
X-262.705 Y-53.793
X-262.677 Y-53.83
X-262.655 Y-53.852
X-262.618 Y-53.881
X-262.582 Y-53.904
X-262.545 Y-53.922
X-262.508 Y-53.934
X-262.471 Y-53.942
X-262.435 Y-53.945
X-259.42
X-259.24 Y-53.936
X-259.089 Y-53.916
X-258.941 Y-53.882
X-258.796 Y-53.835
X-258.653 Y-53.775
X-258.501 Y-53.697
X-258.349 Y-53.602
X-258.187 Y-53.481
X-258.05 Y-53.322
X-257.963 Y-53.131
X-257.933 Y-52.923
G3 X-257.962 Y-52.803 I-0.317 J-0.011
X-258.414 Y-52.662 I-0.289 J-0.132
G1 X-259.572 Y-53.356
G3 X-259.541 Y-53.917 I0.163 J-0.272
X-259.42 Y-53.945 I0.132 J0.289
G1 X-258.31
X-258.244 Y-53.944
X-258.207 Y-53.939
X-258.17 Y-53.93
X-258.134 Y-53.915
X-258.097 Y-53.895
X-258.056 Y-53.868
X-258.036 Y-53.85
X-258.015 Y-53.83
X-257.993 Y-53.802
X-257.975 Y-53.774
X-257.961 Y-53.746
X-257.95 Y-53.718
X-257.94 Y-53.683
X-257.935 Y-53.646
X-257.933 Y-53.609
Y-49.633
X-257.941 Y-49.481
X-257.964 Y-49.331
X-258.003 Y-49.183
X-258.055 Y-49.04
X-258.12 Y-48.902
X-258.2 Y-48.762
X-258.3 Y-48.617
X-258.415 Y-48.475
X-258.547 Y-48.336
X-258.7 Y-48.199
X-258.873 Y-48.068
X-259.062 Y-47.947
X-259.266 Y-47.839
X-259.488 Y-47.743
X-259.726 Y-47.662
X-259.979 Y-47.599
X-260.244 Y-47.554
X-260.517 Y-47.53
X-260.797 Y-47.529
X-261.081 Y-47.55
X-261.367 Y-47.594
X-261.653 Y-47.663
X-261.938 Y-47.756
X-262.211 Y-47.87
X-262.357 Y-47.945
X-262.522 Y-48.061
X-262.65 Y-48.218
X-262.731 Y-48.403
X-262.758 Y-48.603
Y-49.866
G3 X-262.73 Y-49.987 I0.317 J0.011
X-262.424 Y-50.172 I0.289 J0.132
G1 X-258.233 Y-49.939
G3 X-257.962 Y-49.754 I-0.018 J0.317
X-257.933 Y-49.633 I-0.289 J0.132
G1 Y-48.538
X-257.941 Y-48.386
X-257.97 Y-48.237
X-258.015 Y-48.091
X-258.075 Y-47.951
X-258.147 Y-47.817
X-258.238 Y-47.678
X-258.342 Y-47.543
X-258.469 Y-47.404
X-258.619 Y-47.264
X-258.785 Y-47.132
X-258.977 Y-47.003
X-259.196 Y-46.88
X-259.432 Y-46.772
X-259.687 Y-46.679
X-259.966 Y-46.602
X-260.266 Y-46.545
X-260.584 Y-46.51
X-260.913 Y-46.501
X-261.248 Y-46.518
X-261.581 Y-46.562
X-261.863 Y-46.623
X-262.111 Y-46.698
X-262.308 Y-46.775
X-262.342 Y-46.792
X-262.513 Y-46.907
X-262.646 Y-47.065
X-262.73 Y-47.254
X-262.758 Y-47.458
Y-48.603
G3 X-262.73 Y-48.724 I0.317 J0.011
X-262.436 Y-48.91 I0.289 J0.132
G1 X-258.246 Y-48.845
G3 X-257.962 Y-48.659 I-0.005 J0.317
X-257.933 Y-48.538 I-0.289 J0.132
G1 Y-47.51
X-257.941 Y-47.357
X-257.974 Y-47.209
X-258.023 Y-47.064
X-258.086 Y-46.926
X-258.163 Y-46.791
X-258.254 Y-46.657
X-258.37 Y-46.513
X-258.501 Y-46.375
X-258.66 Y-46.232
X-258.844 Y-46.091
X-259.047 Y-45.961
X-259.285 Y-45.834
X-259.551 Y-45.718
X-259.832 Y-45.622
X-260.144 Y-45.542
X-260.481 Y-45.484
X-260.829 Y-45.453
X-261.178 Y-45.45
X-261.511 Y-45.474
X-261.772 Y-45.514
X-262.021 Y-45.573
X-262.213 Y-45.635
X-262.301 Y-45.671
X-262.488 Y-45.783
X-262.634 Y-45.944
X-262.727 Y-46.141
X-262.758 Y-46.356
Y-47.458
G3 X-262.73 Y-47.578 I0.317 J0.011
X-262.445 Y-47.764 I0.289 J0.132
G1 X-258.255 Y-47.816
G3 X-257.962 Y-47.63 I0.004 J0.317
X-257.933 Y-47.51 I-0.289 J0.132
G1 Y-46.547
X-257.941 Y-46.395
X-257.969 Y-46.245
X-258.014 Y-46.099
X-258.074 Y-45.959
X-258.146 Y-45.825
X-258.238 Y-45.683
X-258.345 Y-45.543
X-258.481 Y-45.393
X-258.633 Y-45.25
X-258.816 Y-45.103
X-259.03 Y-44.959
X-259.262 Y-44.827
X-259.534 Y-44.701
X-259.837 Y-44.589
X-260.157 Y-44.5
X-260.496 Y-44.434
X-260.841 Y-44.395
X-261.183 Y-44.384
X-261.488 Y-44.398
X-261.754 Y-44.433
X-261.989 Y-44.483
X-262.179 Y-44.539
X-262.285 Y-44.58
X-262.478 Y-44.69
X-262.629 Y-44.853
X-262.725 Y-45.052
X-262.758 Y-45.271
Y-46.356
G3 X-262.73 Y-46.476 I0.317 J0.011
X-262.456 Y-46.662 I0.289 J0.132
G1 X-258.265 Y-46.853
G3 X-257.962 Y-46.667 I0.014 J0.317
X-257.933 Y-46.547 I-0.289 J0.132
G1 Y-45.518
X-257.941 Y-45.366
X-257.972 Y-45.216
X-258.018 Y-45.071
X-258.079 Y-44.932
X-258.152 Y-44.798
X-258.248 Y-44.65
X-258.359 Y-44.507
X-258.5 Y-44.352
X-258.662 Y-44.201
X-258.851 Y-44.05
X-259.077 Y-43.899
X-259.321 Y-43.762
X-259.482 Y-43.688
X-259.582 Y-43.651
X-259.685 Y-43.628
X-259.791 Y-43.62
G3 X-260.008 Y-44.159 I0.011 J-0.317
G1 X-258.478 Y-45.729
G3 X-257.962 Y-45.639 I0.227 J0.222
X-257.933 Y-45.518 I-0.289 J0.132
G1 Y-44.489
X-257.941 Y-44.337
X-257.972 Y-44.188
X-257.989 Y-44.133
X-258.094 Y-43.926
X-258.258 Y-43.762
X-258.465 Y-43.657
X-258.694 Y-43.62
G3 X-258.931 Y-44.136 I0.011 J-0.317
G1 X-258.499 Y-44.676
G3 X-257.962 Y-44.61 I0.248 J0.198
X-257.933 Y-44.489 I-0.289 J0.132
G1 Y-43.982
X-257.935 Y-43.917
X-257.941 Y-43.884
X-257.95 Y-43.851
X-257.956 Y-43.835
X-257.973 Y-43.798
X-257.997 Y-43.762
X-258.014 Y-43.74
X-258.035 Y-43.719
X-258.072 Y-43.688
X-258.097 Y-43.671
X-258.134 Y-43.65
X-258.17 Y-43.636
X-258.207 Y-43.626
X-258.244 Y-43.621
X-258.538 Y-43.62
X-261.773
X-261.964 Y-43.63
X-262.115 Y-43.65
X-262.178 Y-43.664
X-262.365 Y-43.733
X-262.527 Y-43.849
X-262.653 Y-44.005
X-262.732 Y-44.189
X-262.758 Y-44.387
G3 X-262.73 Y-44.507 I0.317 J0.011
X-262.265 Y-44.64 I0.289 J0.132
G1 X-261.608 Y-44.202
G3 X-261.652 Y-43.649 I-0.176 J0.264
X-261.773 Y-43.62 I-0.132 J-0.289
G1 X-262.435
X-262.471 Y-43.624
X-262.508 Y-43.631
X-262.537 Y-43.64
X-262.565 Y-43.652
X-262.594 Y-43.668
X-262.622 Y-43.688
X-262.655 Y-43.717
X-262.683 Y-43.747
X-262.706 Y-43.776
X-262.723 Y-43.806
X-262.736 Y-43.835
X-262.748 Y-43.872
X-262.756 Y-43.909
X-262.758 Y-43.982
Y-45.271
G3 X-262.73 Y-45.392 I0.317 J0.011
G1 X-262.701 Y-45.456 Z-4.202
X-262.673 Y-45.517 Z-4.178
X-262.648 Y-45.572 Z-4.141
X-262.627 Y-45.618 Z-4.09
X-262.611 Y-45.652 Z-4.03
X-262.602 Y-45.673 Z-3.963
X-262.598 Y-45.681 Z-3.892
G0 Z15.24

(2D Pocket1)
M7
X-266.257 Y-108.327
Z15.24
Z5.08
G1 Z-2.858 F1524
X-266.261 Y-108.32 Z-2.928
X-266.275 Y-108.302 Z-2.995
X-266.298 Y-108.271 Z-3.055
X-266.328 Y-108.231 Z-3.106
X-266.364 Y-108.183 Z-3.144
X-266.404 Y-108.129 Z-3.167
X-266.446 Y-108.072 Z-3.175
X-269.379 Y-104.136
G2 X-270.71 Y-100.122 I5.388 J4.014
X-270.687 Y-99.049 I25.189 J0
G3 X-270.664 Y-97.976 I-25.166 J1.073
X-270.989 Y-97.652 I-0.324 J0
G1 X-272.233
G3 X-272.558 Y-97.976 I0 J-0.324
X-272.535 Y-99.085 I26.889 J0
G2 X-272.512 Y-100.193 I-26.866 J-1.109
X-273.82 Y-104.136 I-6.599 J0
G3 X-273.659 Y-104.461 I0.163 J-0.121
G1 X-264.956 Y-104.547
G3 X-264.909 Y-104.146 I0.002 J0.203
G2 X-268.118 Y-100.122 I0.918 J4.024
G1 Y-95.106
X-275.103
Y-100.122
G2 X-278.308 Y-104.145 I-4.128 J0
G3 X-278.273 Y-104.546 I0.045 J-0.198
G1 X-269.157 Y-104.99
G3 X-268.985 Y-104.666 I0.01 J0.203
G1 X-269.027 Y-104.609 Z-3.183
X-269.067 Y-104.555 Z-3.206
X-269.103 Y-104.507 Z-3.244
X-269.133 Y-104.467 Z-3.295
X-269.156 Y-104.436 Z-3.355
X-269.17 Y-104.417 Z-3.422
X-269.174 Y-104.411 Z-3.493
Z-6.032
X-269.179 Y-104.405 Z-6.103
X-269.193 Y-104.386 Z-6.17
X-269.216 Y-104.355 Z-6.23
X-269.246 Y-104.315 Z-6.281
X-269.282 Y-104.267 Z-6.319
X-269.322 Y-104.213 Z-6.342
X-269.364 Y-104.156 Z-6.35
X-269.379 Y-104.136
G2 X-270.71 Y-100.122 I5.388 J4.014
X-270.687 Y-99.049 I25.189 J0
G3 X-270.664 Y-97.976 I-25.166 J1.073
X-270.989 Y-97.652 I-0.324 J0
G1 X-272.233
G3 X-272.558 Y-97.976 I0 J-0.324
X-272.535 Y-99.085 I26.889 J0
G2 X-272.512 Y-100.193 I-26.866 J-1.109
X-273.82 Y-104.136 I-6.599 J0
G3 X-273.659 Y-104.461 I0.163 J-0.121
G1 X-264.956 Y-104.547
G3 X-264.909 Y-104.146 I0.002 J0.203
G2 X-268.118 Y-100.122 I0.918 J4.024
G1 Y-95.106
X-275.103
Y-100.122
G2 X-278.308 Y-104.145 I-4.128 J0
G3 X-278.273 Y-104.546 I0.045 J-0.198
G1 X-269.157 Y-104.99
G3 X-268.985 Y-104.666 I0.01 J0.203
G1 X-269.027 Y-104.609 Z-6.358
X-269.067 Y-104.555 Z-6.381
X-269.103 Y-104.507 Z-6.419
X-269.133 Y-104.467 Z-6.47
X-269.156 Y-104.436 Z-6.53
X-269.17 Y-104.417 Z-6.597
X-269.174 Y-104.411 Z-6.668
Z-9.208
X-269.179 Y-104.405 Z-9.278
X-269.193 Y-104.386 Z-9.345
X-269.216 Y-104.355 Z-9.405
X-269.246 Y-104.315 Z-9.456
X-269.282 Y-104.267 Z-9.494
X-269.322 Y-104.213 Z-9.517
X-269.364 Y-104.156 Z-9.525
X-269.379 Y-104.136
G2 X-270.71 Y-100.122 I5.388 J4.014
X-270.687 Y-99.049 I25.189 J0
G3 X-270.664 Y-97.976 I-25.166 J1.073
X-270.989 Y-97.652 I-0.324 J0
G1 X-272.233
G3 X-272.558 Y-97.976 I0 J-0.324
X-272.535 Y-99.085 I26.889 J0
G2 X-272.512 Y-100.193 I-26.866 J-1.109
X-273.82 Y-104.136 I-6.599 J0
G3 X-273.659 Y-104.461 I0.163 J-0.121
G1 X-264.956 Y-104.547
G3 X-264.909 Y-104.146 I0.002 J0.203
G2 X-268.118 Y-100.122 I0.918 J4.024
G1 Y-95.106
X-275.103
Y-100.122
G2 X-278.308 Y-104.145 I-4.128 J0
G3 X-278.273 Y-104.546 I0.045 J-0.198
G1 X-269.157 Y-104.99
G3 X-268.985 Y-104.666 I0.01 J0.203
G1 X-269.027 Y-104.609 Z-9.533
X-269.067 Y-104.555 Z-9.556
X-269.103 Y-104.507 Z-9.594
X-269.133 Y-104.467 Z-9.645
X-269.156 Y-104.436 Z-9.705
X-269.17 Y-104.417 Z-9.772
X-269.174 Y-104.411 Z-9.842
Z-11.62
X-269.179 Y-104.405 Z-11.691
X-269.193 Y-104.386 Z-11.758
X-269.216 Y-104.355 Z-11.818
X-269.246 Y-104.315 Z-11.869
X-269.282 Y-104.267 Z-11.907
X-269.322 Y-104.213 Z-11.93
X-269.364 Y-104.156 Z-11.938
X-269.379 Y-104.136
G2 X-270.71 Y-100.122 I5.388 J4.014
X-270.687 Y-99.049 I25.189 J0
G3 X-270.664 Y-97.976 I-25.166 J1.073
X-270.989 Y-97.652 I-0.324 J0
G1 X-272.233
G3 X-272.558 Y-97.976 I0 J-0.324
X-272.535 Y-99.085 I26.889 J0
G2 X-272.512 Y-100.193 I-26.866 J-1.109
X-273.82 Y-104.136 I-6.599 J0
G3 X-273.659 Y-104.461 I0.163 J-0.121
G1 X-264.956 Y-104.547
G3 X-264.909 Y-104.146 I0.002 J0.203
G2 X-268.118 Y-100.122 I0.918 J4.024
G1 Y-95.106
X-275.103
Y-100.122
G2 X-278.308 Y-104.145 I-4.128 J0
G1 X-279.856 Y-104.5
X-279.925 Y-104.516 Z-11.93
X-279.99 Y-104.531 Z-11.907
X-280.049 Y-104.544 Z-11.869
X-280.098 Y-104.555 Z-11.818
X-280.135 Y-104.564 Z-11.758
X-280.158 Y-104.569 Z-11.691
X-280.165 Y-104.571 Z-11.62
G0 Z15.24
M9
G28 G91 Z0
G28 X0 Y0
M30
%
