%
(1001)
(sixty-wood-top)
(T1  D=3.175 CR=0 - ZMIN=-15.732 - flat end mill)
G90
G17
G21
G28 G91 Z0
G90

(2D Adaptive4)
M9
T1 M6
S16000 M3
G54
M7
G0 X-60.399 Y-64.772
Z15.24
Z5.08
Z2.858
G1 Z2.54 F4064
G3 X-62.02 Y-62.228 Z2.375 I-0.811 J1.272
X-60.399 Y-64.772 Z2.209 I0.811 J-1.272
X-62.02 Y-62.228 Z2.044 I-0.811 J1.272
X-60.399 Y-64.772 Z1.878 I0.811 J-1.272
X-62.02 Y-62.228 Z1.713 I-0.811 J1.272
X-60.399 Y-64.772 Z1.547 I0.811 J-1.272
X-62.02 Y-62.228 Z1.382 I-0.811 J1.272
X-60.399 Y-64.772 Z1.216 I0.811 J-1.272
X-62.02 Y-62.228 Z1.051 I-0.811 J1.272
X-60.399 Y-64.772 Z0.885 I0.811 J-1.272
X-62.02 Y-62.228 Z0.72 I-0.811 J1.272
X-60.399 Y-64.772 Z0.555 I0.811 J-1.272
X-62.02 Y-62.228 Z0.389 I-0.811 J1.272
X-60.399 Y-64.772 Z0.224 I0.811 J-1.272
X-62.02 Y-62.228 Z0.058 I-0.811 J1.272
X-60.399 Y-64.772 Z-0.107 I0.811 J-1.272
X-62.02 Y-62.228 Z-0.273 I-0.811 J1.272
X-60.399 Y-64.772 Z-0.438 I0.811 J-1.272
X-62.02 Y-62.228 Z-0.604 I-0.811 J1.272
X-60.399 Y-64.772 Z-0.769 I0.811 J-1.272
X-62.02 Y-62.228 Z-0.934 I-0.811 J1.272
X-60.399 Y-64.772 Z-1.1 I0.811 J-1.272
X-62.02 Y-62.228 Z-1.265 I-0.811 J1.272
X-60.399 Y-64.772 Z-1.431 I0.811 J-1.272
X-62.02 Y-62.228 Z-1.596 I-0.811 J1.272
X-60.399 Y-64.772 Z-1.762 I0.811 J-1.272
X-62.02 Y-62.228 Z-1.927 I-0.811 J1.272
X-60.399 Y-64.772 Z-2.093 I0.811 J-1.272
X-62.02 Y-62.228 Z-2.258 I-0.811 J1.272
X-60.399 Y-64.772 Z-2.424 I0.811 J-1.272
X-62.02 Y-62.228 Z-2.589 I-0.811 J1.272
X-60.399 Y-64.772 Z-2.754 I0.811 J-1.272
X-62.02 Y-62.228 Z-2.92 I-0.811 J1.272
X-60.399 Y-64.772 Z-3.085 I0.811 J-1.272
X-62.02 Y-62.228 Z-3.251 I-0.811 J1.272
X-60.399 Y-64.772 Z-3.416 I0.811 J-1.272
X-62.02 Y-62.228 Z-3.582 I-0.811 J1.272
X-60.399 Y-64.772 Z-3.747 I0.811 J-1.272
X-59.701 Y-63.5 Z-3.8 I-0.811 J1.272
X-62.718 I-1.508 J0
X-59.701 I1.508 J0
G1 X-59.685 Y-62.853
X-59.656 Y-62.777
X-59.622 Y-62.629
X-59.62 Y-62.476
X-59.643 Y-62.326
X-59.688 Y-62.18
X-59.751 Y-62.041
X-59.83 Y-61.911
X-59.922 Y-61.79
X-60.027 Y-61.678
X-60.141 Y-61.578
X-60.264 Y-61.488
X-60.395 Y-61.409
X-60.531 Y-61.342
X-60.675 Y-61.285
X-60.826 Y-61.238
X-60.984 Y-61.204
X-61.147 Y-61.181
X-61.315 Y-61.172
X-61.486 Y-61.176
X-61.659 Y-61.194
X-61.831 Y-61.226
X-62.003 Y-61.273
X-62.172 Y-61.334
X-62.337 Y-61.409
X-62.497 Y-61.498
X-62.65 Y-61.599
X-62.796 Y-61.714
X-62.932 Y-61.841
X-63.059 Y-61.979
X-63.175 Y-62.127
X-63.278 Y-62.285
X-63.37 Y-62.451
X-63.447 Y-62.624
X-63.511 Y-62.804
X-63.56 Y-62.988
X-63.595 Y-63.176
X-63.614 Y-63.367
X-63.618 Y-63.559
X-63.606 Y-63.751
X-63.579 Y-63.941
X-63.537 Y-64.129
X-63.48 Y-64.313
X-63.408 Y-64.492
X-63.322 Y-64.665
X-63.222 Y-64.831
X-63.109 Y-64.988
X-62.984 Y-65.135
X-62.848 Y-65.272
X-62.701 Y-65.398
X-62.544 Y-65.511
X-62.378 Y-65.612
X-62.205 Y-65.699
X-62.026 Y-65.772
X-61.841 Y-65.83
X-61.652 Y-65.873
X-61.46 Y-65.901
X-61.267 Y-65.914
X-61.073 Y-65.911
X-60.88 Y-65.892
X-60.689 Y-65.858
X-60.502 Y-65.808
X-60.319 Y-65.744
X-60.142 Y-65.666
X-59.971 Y-65.573
X-59.809 Y-65.467
X-59.655 Y-65.348
X-59.512 Y-65.218
X-59.38 Y-65.076
X-59.259 Y-64.924
X-59.151 Y-64.763
X-59.045 Y-64.573
X-58.884 Y-64.221
X-58.752 Y-63.861
X-58.674 Y-63.577
X-58.625 Y-63.321
X-58.599 Y-63.08
X-58.592 Y-62.852
X-58.604 Y-62.636
X-58.632 Y-62.428
X-58.676 Y-62.224
X-58.736 Y-62.024
X-58.812 Y-61.83
X-58.904 Y-61.642
X-59.01 Y-61.462
X-59.132 Y-61.29
X-59.268 Y-61.127
X-59.418 Y-60.973
X-59.583 Y-60.83
X-59.76 Y-60.7
X-59.951 Y-60.582
X-60.153 Y-60.478
X-60.367 Y-60.389
X-60.59 Y-60.317
X-60.821 Y-60.262
X-61.058 Y-60.225
X-61.301 Y-60.208
X-61.547 Y-60.21
X-61.795 Y-60.232
X-62.043 Y-60.274
X-62.288 Y-60.336
X-62.529 Y-60.419
X-62.765 Y-60.521
X-62.994 Y-60.643
X-63.213 Y-60.783
X-63.421 Y-60.942
X-63.617 Y-61.118
X-63.799 Y-61.31
X-63.966 Y-61.516
X-64.117 Y-61.737
X-64.249 Y-61.969
X-64.363 Y-62.213
X-64.458 Y-62.465
X-64.532 Y-62.725
X-64.585 Y-62.99
X-64.616 Y-63.26
X-64.626 Y-63.531
X-64.614 Y-63.803
X-64.58 Y-64.074
X-64.525 Y-64.341
X-64.448 Y-64.603
X-64.35 Y-64.858
X-64.232 Y-65.105
X-64.095 Y-65.342
X-63.939 Y-65.567
X-63.765 Y-65.779
X-63.574 Y-65.977
X-63.369 Y-66.159
X-63.149 Y-66.323
X-62.917 Y-66.47
X-62.673 Y-66.597
X-62.42 Y-66.705
X-62.159 Y-66.792
X-61.892 Y-66.857
X-61.621 Y-66.902
X-61.347 Y-66.924
X-61.072
X-60.798 Y-66.902
X-60.526 Y-66.858
X-60.259 Y-66.792
X-59.998 Y-66.705
X-59.744 Y-66.598
X-59.501 Y-66.47
X-59.268 Y-66.324
X-59.047 Y-66.159
X-58.837 Y-65.974
X-58.617 Y-65.746
X-58.403 Y-65.485
X-58.204 Y-65.198
X-58.024 Y-64.889
X-57.872 Y-64.57
X-57.748 Y-64.247
X-57.653 Y-63.925
X-57.587 Y-63.605
X-57.547 Y-63.289
X-57.533 Y-62.976
X-57.544 Y-62.667
X-57.58 Y-62.363
X-57.639 Y-62.066
X-57.721 Y-61.776
X-57.826 Y-61.494
X-57.953 Y-61.223
X-58.102 Y-60.962
X-58.271 Y-60.713
X-58.461 Y-60.478
X-58.67 Y-60.258
X-58.897 Y-60.053
X-59.143 Y-59.866
X-59.404 Y-59.698
X-59.68 Y-59.551
X-59.97 Y-59.425
X-60.272 Y-59.321
X-60.584 Y-59.242
X-60.904 Y-59.187
X-61.23 Y-59.158
X-61.559 Y-59.155
X-61.89 Y-59.179
X-62.22 Y-59.23
X-62.547 Y-59.307
X-62.869 Y-59.411
X-63.183 Y-59.542
X-63.488 Y-59.698
X-63.781 Y-59.879
X-64.059 Y-60.084
X-64.322 Y-60.311
X-64.566 Y-60.56
X-64.79 Y-60.829
X-64.993 Y-61.116
X-65.173 Y-61.42
X-65.328 Y-61.737
X-65.458 Y-62.067
X-65.561 Y-62.408
X-65.636 Y-62.756
X-65.684 Y-63.11
X-65.702 Y-63.467
X-65.693 Y-63.825
X-65.654 Y-64.181
X-65.587 Y-64.534
X-65.491 Y-64.88
X-65.369 Y-65.218
X-65.219 Y-65.545
X-65.043 Y-65.86
X-64.843 Y-66.159
X-64.618 Y-66.442
X-64.372 Y-66.706
X-64.106 Y-66.949
X-63.82 Y-67.17
X-63.518 Y-67.368
X-63.201 Y-67.541
X-62.871 Y-67.688
X-62.53 Y-67.808
X-62.18 Y-67.9
X-61.824 Y-67.964
X-61.464 Y-67.999
X-61.102 Y-68.005
X-60.741 Y-67.982
X-60.383 Y-67.93
X-60.031 Y-67.85
X-59.685 Y-67.741
X-59.35 Y-67.605
X-59.026 Y-67.442
X-58.707 Y-67.249
X-58.395 Y-67.023
X-58.092 Y-66.765
X-57.803 Y-66.475
X-57.533 Y-66.156
X-57.286 Y-65.814
X-57.068 Y-65.452
X-56.88 Y-65.076
X-56.724 Y-64.688
X-56.601 Y-64.293
X-56.511 Y-63.893
X-56.454 Y-63.49
X-56.429 Y-63.088
X-56.437 Y-62.688
X-56.476 Y-62.293
X-56.547 Y-61.905
X-56.648 Y-61.525
X-56.779 Y-61.155
X-56.939 Y-60.797
X-57.128 Y-60.454
X-57.343 Y-60.126
X-57.585 Y-59.816
X-57.852 Y-59.525
X-58.142 Y-59.255
X-58.455 Y-59.009
X-58.788 Y-58.787
X-59.14 Y-58.591
X-59.509 Y-58.424
X-59.893 Y-58.285
X-60.289 Y-58.177
X-60.694 Y-58.101
X-61.107 Y-58.058
X-61.525 Y-58.047
X-61.944 Y-58.07
X-62.362 Y-58.127
X-62.777 Y-58.218
X-63.185 Y-58.343
X-63.584 Y-58.501
X-63.971 Y-58.691
X-64.342 Y-58.912
X-64.696 Y-59.164
X-65.031 Y-59.444
X-65.342 Y-59.752
X-65.629 Y-60.084
X-65.889 Y-60.44
X-66.12 Y-60.816
X-66.321 Y-61.21
X-66.49 Y-61.621
X-66.626 Y-62.044
X-66.728 Y-62.478
X-66.794 Y-62.92
X-66.825 Y-63.366
X-66.82 Y-63.813
X-66.779 Y-64.26
X-66.703 Y-64.702
X-66.591 Y-65.137
X-66.444 Y-65.562
X-66.263 Y-65.974
X-66.05 Y-66.371
X-65.806 Y-66.75
X-65.531 Y-67.108
X-65.229 Y-67.442
X-64.901 Y-67.752
X-64.549 Y-68.035
X-64.175 Y-68.288
X-63.782 Y-68.51
X-63.372 Y-68.701
X-62.948 Y-68.858
X-62.513 Y-68.98
X-62.07 Y-69.067
X-61.62 Y-69.119
X-61.168 Y-69.134
X-60.717 Y-69.112
X-60.268 Y-69.055
X-59.825 Y-68.961
X-59.39 Y-68.832
X-58.962 Y-68.667
X-58.544 Y-68.466
X-58.138 Y-68.229
X-57.746 Y-67.955
X-57.369 Y-67.644
X-57.013 Y-67.298
X-56.682 Y-66.921
X-56.38 Y-66.516
X-56.112 Y-66.086
X-55.878 Y-65.637
X-55.682 Y-65.172
X-55.524 Y-64.694
X-55.406 Y-64.208
X-55.328 Y-63.716
X-55.29 Y-63.223
X-55.291 Y-62.73
X-55.332 Y-62.242
X-55.411 Y-61.76
X-55.529 Y-61.288
X-55.683 Y-60.828
X-55.874 Y-60.382
X-56.1 Y-59.953
X-56.36 Y-59.543
X-56.653 Y-59.155
X-56.976 Y-58.791
X-57.329 Y-58.453
X-57.709 Y-58.143
X-58.114 Y-57.863
X-58.543 Y-57.616
X-58.992 Y-57.403
X-59.459 Y-57.225
X-59.941 Y-57.085
X-60.435 Y-56.984
X-60.937 Y-56.923
X-61.446 Y-56.902
X-61.957 Y-56.922
X-62.467 Y-56.983
X-62.973 Y-57.085
X-63.471 Y-57.228
X-63.958 Y-57.412
X-64.43 Y-57.634
X-64.885 Y-57.895
X-65.319 Y-58.193
X-65.729 Y-58.525
X-66.112 Y-58.891
X-66.465 Y-59.287
X-66.787 Y-59.711
X-67.073 Y-60.161
X-67.324 Y-60.634
X-67.536 Y-61.126
X-67.708 Y-61.634
X-67.84 Y-62.156
X-67.929 Y-62.687
X-67.975 Y-63.224
X-67.978 Y-63.765
X-67.937 Y-64.304
X-67.853 Y-64.838
X-67.727 Y-65.365
X-67.559 Y-65.88
X-67.349 Y-66.381
X-67.1 Y-66.863
X-66.813 Y-67.324
X-66.489 Y-67.761
X-66.132 Y-68.171
X-65.742 Y-68.551
X-65.323 Y-68.898
X-64.878 Y-69.211
X-64.409 Y-69.487
X-63.919 Y-69.724
X-63.411 Y-69.922
X-62.889 Y-70.078
X-62.356 Y-70.192
X-61.816 Y-70.262
X-61.272 Y-70.289
X-60.727 Y-70.273
X-60.184 Y-70.212
X-59.647 Y-70.108
X-59.117 Y-69.96
X-58.596 Y-69.769
X-58.088 Y-69.534
X-57.594 Y-69.256
X-57.118 Y-68.936
X-56.665 Y-68.574
X-56.237 Y-68.172
X-55.84 Y-67.735
X-55.478 Y-67.264
X-55.153 Y-66.765
X-54.87 Y-66.241
X-54.63 Y-65.696
X-54.434 Y-65.135
X-54.285 Y-64.561
X-54.183 Y-63.979
X-54.127 Y-63.394
X-54.119 Y-62.807
X-54.158 Y-62.224
X-54.244 Y-61.647
X-54.375 Y-61.081
X-54.551 Y-60.528
X-54.77 Y-59.991
X-55.032 Y-59.473
X-55.335 Y-58.978
X-55.677 Y-58.508
X-56.056 Y-58.067
X-56.47 Y-57.656
X-56.917 Y-57.279
X-57.395 Y-56.938
X-57.9 Y-56.636
X-58.429 Y-56.373
X-58.98 Y-56.154
X-59.549 Y-55.978
X-60.133 Y-55.849
X-60.728 Y-55.766
X-61.329 Y-55.731
X-61.934 Y-55.745
X-62.538 Y-55.807
X-63.138 Y-55.918
X-63.728 Y-56.078
X-64.307 Y-56.285
X-64.868 Y-56.538
X-65.409 Y-56.837
X-65.926 Y-57.179
X-66.415 Y-57.563
X-66.873 Y-57.986
X-67.296 Y-58.445
X-67.683 Y-58.938
X-68.029 Y-59.461
X-68.332 Y-60.012
X-68.591 Y-60.586
X-68.804 Y-61.181
X-68.968 Y-61.791
X-69.083 Y-62.414
X-69.147 Y-63.044
X-69.161 Y-63.678
X-69.124 Y-64.312
X-69.036 Y-64.942
X-68.898 Y-65.563
X-68.71 Y-66.172
X-68.474 Y-66.763
X-68.19 Y-67.335
X-67.862 Y-67.882
X-67.491 Y-68.401
X-67.079 Y-68.888
X-66.629 Y-69.342
X-66.144 Y-69.758
X-65.627 Y-70.134
X-65.081 Y-70.467
X-64.511 Y-70.755
X-63.918 Y-70.997
X-63.309 Y-71.19
X-62.685 Y-71.334
X-62.052 Y-71.427
X-61.413 Y-71.47
X-60.773 Y-71.461
X-60.133 Y-71.4
X-59.498 Y-71.288
X-58.872 Y-71.124
X-58.261 Y-70.911
X-57.669 Y-70.65
X-57.099 Y-70.344
X-56.555 Y-69.993
X-56.039 Y-69.601
X-55.556 Y-69.171
X-55.107 Y-68.705
X-54.695 Y-68.205
X-54.322 Y-67.677
X-53.99 Y-67.121
X-53.7 Y-66.542
X-53.455 Y-65.943
X-53.255 Y-65.328
X-53.103 Y-64.699
X-52.998 Y-64.06
X-52.942 Y-63.415
X-52.934 Y-62.768
X-52.977 Y-62.122
X-53.068 Y-61.482
X-53.208 Y-60.85
X-53.396 Y-60.23
X-53.631 Y-59.627
X-53.912 Y-59.044
X-54.237 Y-58.485
X-54.605 Y-57.952
X-55.012 Y-57.449
X-55.457 Y-56.979
X-55.937 Y-56.545
X-56.449 Y-56.148
X-56.989 Y-55.792
X-57.554 Y-55.477
X-58.142 Y-55.206
X-58.749 Y-54.98
X-59.37 Y-54.8
X-60.004 Y-54.667
X-60.645 Y-54.582
X-61.292 Y-54.544
X-61.939 Y-54.554
X-62.583 Y-54.612
X-63.222 Y-54.718
X-63.851 Y-54.871
X-64.466 Y-55.071
X-65.066 Y-55.315
X-65.645 Y-55.603
X-66.203 Y-55.931
X-66.735 Y-56.299
X-67.24 Y-56.705
X-67.715 Y-57.145
X-68.156 Y-57.618
X-68.563 Y-58.121
X-68.931 Y-58.654
X-69.259 Y-59.212
X-69.546 Y-59.792
X-69.791 Y-60.391
X-69.993 Y-61.006
X-70.151 Y-61.633
X-70.265 Y-62.27
X-70.333 Y-62.914
X-70.356 Y-63.561
X-70.331 Y-64.208
X-70.259 Y-64.851
X-70.142 Y-65.487
X-69.98 Y-66.114
X-69.774 Y-66.727
X-69.526 Y-67.325
X-69.237 Y-67.904
X-68.908 Y-68.462
X-68.54 Y-68.994
X-68.134 Y-69.498
X-67.693 Y-69.972
X-67.219 Y-70.413
X-66.716 Y-70.82
X-66.185 Y-71.191
X-65.631 Y-71.524
X-65.054 Y-71.818
X-64.458 Y-72.07
X-63.845 Y-72.278
X-63.219 Y-72.441
X-62.582 Y-72.56
X-61.939 Y-72.634
X-61.293 Y-72.662
X-60.646 Y-72.646
X-60.001 Y-72.585
X-59.363 Y-72.48
X-58.734 Y-72.328
X-58.117 Y-72.132
X-57.515 Y-71.893
X-56.932 Y-71.614
X-56.368 Y-71.295
X-55.827 Y-70.94
X-55.311 Y-70.549
X-54.823 Y-70.125
X-54.365 Y-69.667
X-53.94 Y-69.179
X-53.548 Y-68.664
X-53.191 Y-68.124
X-52.87 Y-67.562
X-52.586 Y-66.98
X-52.341 Y-66.381
X-52.135 Y-65.768
X-51.972 Y-65.141
X-51.851 Y-64.506
X-51.774 Y-63.863
X-51.739 Y-63.217
X-51.746 Y-62.57
X-51.796 Y-61.924
X-51.889 Y-61.284
X-52.023 Y-60.651
X-52.201 Y-60.028
X-52.422 Y-59.42
X-52.683 Y-58.828
X-52.984 Y-58.254
X-53.322 Y-57.703
X-53.696 Y-57.174
X-54.104 Y-56.672
X-54.545 Y-56.198
X-55.017 Y-55.756
X-55.519 Y-55.347
X-56.047 Y-54.973
X-56.599 Y-54.635
X-57.172 Y-54.333
X-57.763 Y-54.07
X-58.37 Y-53.845
X-58.99 Y-53.661
X-59.622 Y-53.518
X-60.261 Y-53.418
X-60.906 Y-53.361
X-61.553 Y-53.345
X-62.199 Y-53.372
X-62.843 Y-53.44
X-63.481 Y-53.549
X-64.11 Y-53.7
X-64.729 Y-53.891
X-65.333 Y-54.123
X-65.921 Y-54.394
X-66.49 Y-54.703
X-67.038 Y-55.046
X-67.564 Y-55.424
X-68.065 Y-55.833
X-68.54 Y-56.273
X-68.986 Y-56.742
X-69.4 Y-57.239
X-69.78 Y-57.763
X-70.126 Y-58.31
X-70.437 Y-58.878
X-70.711 Y-59.464
X-70.949 Y-60.066
X-71.148 Y-60.682
X-71.31 Y-61.309
X-71.432 Y-61.944
X-71.513 Y-62.586
X-71.552 Y-63.232
X-71.549 Y-63.88
X-71.506 Y-64.525
X-71.423 Y-65.167
X-71.3 Y-65.803
X-71.138 Y-66.429
X-70.938 Y-67.045
X-70.7 Y-67.647
X-70.423 Y-68.232
X-70.11 Y-68.798
X-69.762 Y-69.344
X-69.381 Y-69.867
X-68.967 Y-70.365
X-68.524 Y-70.836
X-68.052 Y-71.28
X-67.554 Y-71.693
X-67.031 Y-72.073
X-66.484 Y-72.42
X-65.917 Y-72.732
X-65.332 Y-73.008
X-64.73 Y-73.247
X-64.115 Y-73.448
X-63.488 Y-73.61
X-62.853 Y-73.734
X-62.211 Y-73.817
X-61.565 Y-73.859
X-60.918 Y-73.861
X-60.272 Y-73.823
X-59.63 Y-73.745
X-58.993 Y-73.627
X-58.365 Y-73.47
X-57.748 Y-73.275
X-57.144 Y-73.043
X-56.556 Y-72.773
X-55.985 Y-72.468
X-55.434 Y-72.128
X-54.904 Y-71.756
X-54.398 Y-71.353
X-53.916 Y-70.921
X-53.462 Y-70.46
X-53.035 Y-69.973
X-52.638 Y-69.463
X-52.272 Y-68.929
X-51.939 Y-68.374
X-51.639 Y-67.8
X-51.373 Y-67.21
X-51.142 Y-66.605
X-50.947 Y-65.988
X-50.789 Y-65.361
X-50.667 Y-64.725
X-50.584 Y-64.083
X-50.539 Y-63.438
X-50.533 Y-62.79
X-50.565 Y-62.144
X-50.636 Y-61.501
X-50.744 Y-60.862
X-50.89 Y-60.232
X-51.073 Y-59.611
X-51.293 Y-59.003
X-51.549 Y-58.408
X-51.84 Y-57.83
X-52.167 Y-57.271
X-52.526 Y-56.733
X-52.917 Y-56.217
X-53.337 Y-55.725
X-53.786 Y-55.259
X-54.262 Y-54.82
X-54.763 Y-54.411
X-55.288 Y-54.031
X-55.834 Y-53.684
X-56.4 Y-53.371
X-56.984 Y-53.092
X-57.583 Y-52.846
X-58.196 Y-52.637
X-58.819 Y-52.463
X-59.452 Y-52.326
X-60.091 Y-52.226
X-60.735 Y-52.163
X-61.382 Y-52.138
X-62.029 Y-52.152
X-62.674 Y-52.204
X-63.315 Y-52.293
X-63.95 Y-52.418
X-64.577 Y-52.58
X-65.193 Y-52.778
X-65.797 Y-53.012
X-66.386 Y-53.279
X-66.959 Y-53.58
X-67.514 Y-53.913
X-68.048 Y-54.279
X-68.561 Y-54.673
X-69.051 Y-55.096
X-69.517 Y-55.546
X-69.956 Y-56.021
X-70.367 Y-56.521
X-70.749 Y-57.043
X-71.101 Y-57.587
X-71.42 Y-58.149
X-71.707 Y-58.73
X-71.96 Y-59.325
X-72.18 Y-59.934
X-72.366 Y-60.554
X-72.517 Y-61.183
X-72.633 Y-61.82
X-72.712 Y-62.462
X-72.755 Y-63.108
X-72.762 Y-63.755
X-72.73 Y-64.402
X-72.662 Y-65.045
X-72.558 Y-65.684
X-72.419 Y-66.316
X-72.245 Y-66.94
X-72.037 Y-67.553
X-71.795 Y-68.153
X-71.52 Y-68.739
X-71.212 Y-69.308
X-70.872 Y-69.859
X-70.502 Y-70.39
X-70.101 Y-70.898
X-69.673 Y-71.384
X-69.219 Y-71.845
X-68.741 Y-72.28
X-68.238 Y-72.689
X-67.714 Y-73.068
X-67.169 Y-73.418
X-66.606 Y-73.737
X-66.026 Y-74.023
X-65.43 Y-74.275
X-64.82 Y-74.493
X-64.2 Y-74.678
X-63.57 Y-74.828
X-62.933 Y-74.942
X-62.291 Y-75.021
X-61.645 Y-75.064
X-60.998 Y-75.072
X-60.351 Y-75.043
X-59.708 Y-74.977
X-59.068 Y-74.875
X-58.436 Y-74.738
X-57.812 Y-74.566
X-57.198 Y-74.36
X-56.597 Y-74.121
X-56.009 Y-73.85
X-55.437 Y-73.547
X-54.883 Y-73.214
X-54.347 Y-72.85
X-53.833 Y-72.457
X-53.341 Y-72.037
X-52.872 Y-71.591
X-52.427 Y-71.12
X-52.008 Y-70.627
X-51.616 Y-70.112
X-51.252 Y-69.577
X-50.916 Y-69.024
X-50.61 Y-68.454
X-50.335 Y-67.867
X-50.093 Y-67.267
X-49.883 Y-66.655
X-49.705 Y-66.033
X-49.561 Y-65.402
X-49.45 Y-64.764
X-49.373 Y-64.122
X-49.33 Y-63.476
X-49.322 Y-62.829
X-49.347 Y-62.182
X-49.408 Y-61.538
X-49.504 Y-60.898
X-49.635 Y-60.264
X-49.799 Y-59.638
X-49.996 Y-59.021
X-50.226 Y-58.416
X-50.488 Y-57.824
X-50.782 Y-57.248
X-51.106 Y-56.687
X-51.459 Y-56.145
X-51.842 Y-55.623
X-52.252 Y-55.123
X-52.689 Y-54.645
X-53.151 Y-54.192
X-53.637 Y-53.764
X-54.144 Y-53.362
X-54.672 Y-52.988
X-55.22 Y-52.643
X-55.785 Y-52.327
X-56.365 Y-52.041
X-56.96 Y-51.787
X-57.569 Y-51.565
X-58.188 Y-51.376
X-58.816 Y-51.22
X-59.451 Y-51.097
X-60.092 Y-51.007
X-60.737 Y-50.951
X-61.384 Y-50.928
X-62.031 Y-50.94
X-62.676 Y-50.985
X-63.319 Y-51.065
X-63.956 Y-51.178
X-64.586 Y-51.326
X-65.208 Y-51.506
X-65.819 Y-51.718
X-66.419 Y-51.961
X-67.006 Y-52.234
X-67.577 Y-52.538
X-68.132 Y-52.871
X-68.67 Y-53.231
X-69.188 Y-53.619
X-69.685 Y-54.034
X-70.16 Y-54.473
X-70.612 Y-54.937
X-71.039 Y-55.423
X-71.441 Y-55.931
X-71.816 Y-56.458
X-72.164 Y-57.004
X-72.483 Y-57.567
X-72.773 Y-58.145
X-73.033 Y-58.738
X-73.263 Y-59.343
X-73.46 Y-59.959
X-73.627 Y-60.585
X-73.761 Y-61.218
X-73.863 Y-61.857
X-73.932 Y-62.501
X-73.969 Y-63.147
X-73.972 Y-63.794
X-73.943 Y-64.441
X-73.881 Y-65.085
X-73.786 Y-65.725
X-73.658 Y-66.359
X-73.497 Y-66.987
X-73.306 Y-67.605
X-73.083 Y-68.212
X-72.83 Y-68.808
X-72.548 Y-69.391
X-72.236 Y-69.958
X-71.896 Y-70.508
X-71.528 Y-71.041
X-71.134 Y-71.554
X-70.714 Y-72.047
X-70.269 Y-72.517
X-69.801 Y-72.963
X-69.311 Y-73.386
X-68.8 Y-73.784
X-68.27 Y-74.155
X-67.722 Y-74.5
X-67.158 Y-74.816
X-66.578 Y-75.104
X-65.984 Y-75.361
X-65.378 Y-75.588
X-64.76 Y-75.783
X-64.134 Y-75.946
X-63.501 Y-76.078
X-62.861 Y-76.177
X-62.217 Y-76.245
X-61.571 Y-76.28
X-60.924 Y-76.283
X-60.277 Y-76.253
X-59.633 Y-76.191
X-58.993 Y-76.096
X-58.358 Y-75.968
X-57.731 Y-75.809
X-57.113 Y-75.618
X-56.505 Y-75.396
X-55.908 Y-75.145
X-55.325 Y-74.864
X-54.756 Y-74.556
X-54.203 Y-74.219
X-53.667 Y-73.856
X-53.15 Y-73.467
X-52.653 Y-73.053
X-52.177 Y-72.614
X-51.723 Y-72.153
X-51.292 Y-71.67
X-50.886 Y-71.166
X-50.503 Y-70.644
X-50.147 Y-70.104
X-49.816 Y-69.547
X-49.513 Y-68.976
X-49.238 Y-68.39
X-48.991 Y-67.792
X-48.773 Y-67.182
X-48.586 Y-66.562
X-48.43 Y-65.934
X-48.304 Y-65.3
X-48.209 Y-64.659
X-48.144 Y-64.015
X-48.111 Y-63.369
X-48.108 Y-62.722
X-48.137 Y-62.075
X-48.198 Y-61.431
X-48.289 Y-60.79
X-48.412 Y-60.155
X-48.566 Y-59.526
X-48.751 Y-58.906
X-48.967 Y-58.296
X-49.211 Y-57.696
X-49.485 Y-57.11
X-49.786 Y-56.537
X-50.115 Y-55.98
X-50.471 Y-55.439
X-50.853 Y-54.916
X-51.259 Y-54.413
X-51.69 Y-53.93
X-52.145 Y-53.469
X-52.622 Y-53.032
X-53.119 Y-52.617
X-53.636 Y-52.228
X-54.171 Y-51.864
X-54.723 Y-51.526
X-55.29 Y-51.214
X-55.872 Y-50.931
X-56.467 Y-50.675
X-57.073 Y-50.449
X-57.69 Y-50.252
X-58.315 Y-50.086
X-58.948 Y-49.95
X-59.587 Y-49.845
X-60.23 Y-49.77
X-60.875 Y-49.726
X-61.522 Y-49.712
X-62.169 Y-49.73
X-62.815 Y-49.777
X-63.457 Y-49.856
X-64.095 Y-49.965
X-64.727 Y-50.105
X-65.352 Y-50.275
X-65.967 Y-50.475
X-66.572 Y-50.705
X-67.166 Y-50.962
X-67.747 Y-51.247
X-68.314 Y-51.559
X-68.867 Y-51.896
X-69.402 Y-52.26
X-69.921 Y-52.647
X-70.42 Y-53.059
X-70.899 Y-53.494
X-71.358 Y-53.951
X-71.793 Y-54.43
X-72.206 Y-54.928
X-72.595 Y-55.446
X-72.959 Y-55.981
X-73.298 Y-56.532
X-73.611 Y-57.098
X-73.898 Y-57.678
X-74.157 Y-58.271
X-74.389 Y-58.876
X-74.592 Y-59.49
X-74.766 Y-60.114
X-74.911 Y-60.745
X-75.025 Y-61.382
X-75.11 Y-62.023
X-75.165 Y-62.668
X-75.19 Y-63.315
X-75.185 Y-63.962
X-75.151 Y-64.608
X-75.086 Y-65.252
X-74.992 Y-65.893
X-74.868 Y-66.528
X-74.715 Y-67.157
X-74.533 Y-67.778
X-74.321 Y-68.389
X-74.081 Y-68.991
X-73.814 Y-69.58
X-73.52 Y-70.157
X-73.2 Y-70.719
X-72.854 Y-71.266
X-72.484 Y-71.797
X-72.089 Y-72.31
X-71.671 Y-72.804
X-71.23 Y-73.278
X-70.768 Y-73.731
X-70.285 Y-74.162
X-69.782 Y-74.569
X-69.261 Y-74.954
X-68.724 Y-75.314
X-68.17 Y-75.648
X-67.601 Y-75.958
X-67.019 Y-76.24
X-66.424 Y-76.496
X-65.818 Y-76.724
X-65.203 Y-76.923
X-64.578 Y-77.094
X-63.947 Y-77.235
X-63.309 Y-77.346
X-62.667 Y-77.428
X-62.022 Y-77.48
X-61.375 Y-77.503
X-60.728 Y-77.496
X-60.082 Y-77.459
X-59.438 Y-77.393
X-58.798 Y-77.298
X-58.163 Y-77.173
X-57.534 Y-77.019
X-56.913 Y-76.836
X-56.302 Y-76.625
X-55.7 Y-76.385
X-55.11 Y-76.119
X-54.533 Y-75.826
X-53.97 Y-75.507
X-53.421 Y-75.164
X-52.888 Y-74.797
X-52.373 Y-74.406
X-51.875 Y-73.992
X-51.396 Y-73.556
X-50.938 Y-73.099
X-50.501 Y-72.622
X-50.086 Y-72.125
X-49.693 Y-71.611
X-49.324 Y-71.079
X-48.978 Y-70.532
X-48.656 Y-69.97
X-48.36 Y-69.395
X-48.089 Y-68.807
X-47.844 Y-68.208
X-47.627 Y-67.599
X-47.436 Y-66.98
X-47.273 Y-66.354
X-47.138 Y-65.721
X-47.033 Y-65.082
X-46.956 Y-64.44
X-46.907 Y-63.794
X-46.886 Y-63.147
X-46.894 Y-62.5
X-46.931 Y-61.854
X-46.996 Y-61.21
X-47.09 Y-60.57
X-47.212 Y-59.934
X-47.363 Y-59.305
X-47.541 Y-58.682
X-47.748 Y-58.069
X-47.982 Y-57.466
X-48.244 Y-56.874
X-48.531 Y-56.294
X-48.844 Y-55.727
X-49.182 Y-55.175
X-49.543 Y-54.639
X-49.929 Y-54.118
X-50.337 Y-53.616
X-50.767 Y-53.133
X-51.218 Y-52.669
X-51.69 Y-52.226
X-52.182 Y-51.804
X-52.692 Y-51.406
X-53.219 Y-51.03
X-53.762 Y-50.679
X-54.32 Y-50.351
X-54.892 Y-50.048
X-55.477 Y-49.771
X-56.073 Y-49.519
X-56.68 Y-49.294
X-57.296 Y-49.096
X-57.921 Y-48.926
X-58.552 Y-48.783
X-59.189 Y-48.668
X-59.83 Y-48.583
X-60.475 Y-48.525
X-61.122 Y-48.496
X-61.769 Y-48.495
X-62.416 Y-48.521
X-63.06 Y-48.576
X-63.702 Y-48.659
X-64.34 Y-48.77
X-64.972 Y-48.909
X-65.598 Y-49.075
X-66.215 Y-49.268
X-66.824 Y-49.489
X-67.422 Y-49.736
X-68.009 Y-50.01
X-68.583 Y-50.308
X-69.144 Y-50.63
X-69.691 Y-50.977
X-70.223 Y-51.346
X-70.738 Y-51.737
X-71.236 Y-52.151
X-71.716 Y-52.585
X-72.176 Y-53.04
X-72.616 Y-53.514
X-73.035 Y-54.008
X-73.432 Y-54.519
X-73.807 Y-55.047
X-74.158 Y-55.59
X-74.486 Y-56.148
X-74.79 Y-56.72
X-75.069 Y-57.304
X-75.324 Y-57.899
X-75.553 Y-58.504
X-75.756 Y-59.119
X-75.932 Y-59.741
X-76.081 Y-60.371
X-76.204 Y-61.007
X-76.298 Y-61.647
X-76.364 Y-62.291
X-76.403 Y-62.937
X-76.414 Y-63.584
X-76.398 Y-64.231
X-76.354 Y-64.877
X-76.283 Y-65.52
X-76.185 Y-66.16
X-76.06 Y-66.795
X-75.908 Y-67.424
X-75.73 Y-68.046
X-75.525 Y-68.66
X-75.293 Y-69.264
X-75.035 Y-69.858
X-74.753 Y-70.44
X-74.445 Y-71.01
X-74.114 Y-71.566
X-73.76 Y-72.108
X-73.383 Y-72.634
X-72.985 Y-73.144
X-72.565 Y-73.636
X-72.124 Y-74.111
X-71.664 Y-74.566
X-71.185 Y-75.001
X-70.687 Y-75.415
X-70.172 Y-75.807
X-69.641 Y-76.176
X-69.094 Y-76.523
X-68.534 Y-76.846
X-67.96 Y-77.145
X-67.374 Y-77.42
X-66.777 Y-77.67
X-66.17 Y-77.895
X-65.554 Y-78.093
X-64.93 Y-78.265
X-64.299 Y-78.41
X-63.663 Y-78.529
X-63.022 Y-78.619
X-62.378 Y-78.682
X-61.731 Y-78.718
X-61.084 Y-78.726
X-60.437 Y-78.707
X-59.792 Y-78.661
X-59.149 Y-78.587
X-58.509 Y-78.487
X-57.875 Y-78.36
X-57.246 Y-78.207
X-56.624 Y-78.027
X-56.011 Y-77.821
X-55.406 Y-77.589
X-54.813 Y-77.331
X-54.23 Y-77.049
X-53.66 Y-76.742
X-53.103 Y-76.413
X-52.561 Y-76.06
X-52.033 Y-75.686
X-51.521 Y-75.29
X-51.026 Y-74.873
X-50.548 Y-74.436
X-50.089 Y-73.98
X-49.649 Y-73.506
X-49.229 Y-73.013
X-48.829 Y-72.504
X-48.452 Y-71.978
X-48.096 Y-71.437
X-47.763 Y-70.882
X-47.453 Y-70.314
X-47.166 Y-69.734
X-46.902 Y-69.143
X-46.663 Y-68.542
X-46.448 Y-67.931
X-46.259 Y-67.312
X-46.095 Y-66.686
X-45.956 Y-66.054
X-45.844 Y-65.417
X-45.759 Y-64.775
X-45.7 Y-64.13
X-45.668 Y-63.484
X-45.662 Y-62.837
X-45.683 Y-62.19
X-45.73 Y-61.544
X-45.803 Y-60.901
X-45.902 Y-60.262
X-46.027 Y-59.627
X-46.179 Y-58.998
X-46.356 Y-58.375
X-46.559 Y-57.76
X-46.787 Y-57.155
X-47.04 Y-56.559
X-47.318 Y-55.975
X-47.621 Y-55.402
X-47.946 Y-54.843
X-48.294 Y-54.297
X-48.664 Y-53.766
X-49.055 Y-53.251
X-49.467 Y-52.752
X-49.899 Y-52.27
X-50.351 Y-51.806
X-50.821 Y-51.362
X-51.31 Y-50.937
X-51.815 Y-50.533
X-52.337 Y-50.15
X-52.875 Y-49.79
X-53.427 Y-49.451
X-53.992 Y-49.136
X-54.569 Y-48.843
X-55.158 Y-48.574
X-55.757 Y-48.329
X-56.365 Y-48.109
X-56.982 Y-47.913
X-57.607 Y-47.743
X-58.237 Y-47.598
X-58.874 Y-47.479
X-59.514 Y-47.386
X-60.158 Y-47.32
X-60.804 Y-47.28
X-61.451 Y-47.266
X-62.098 Y-47.279
X-62.744 Y-47.317
X-63.388 Y-47.382
X-64.029 Y-47.472
X-64.666 Y-47.587
X-65.298 Y-47.728
X-65.923 Y-47.895
X-66.541 Y-48.086
X-67.151 Y-48.303
X-67.752 Y-48.544
X-68.342 Y-48.809
X-68.921 Y-49.098
X-69.488 Y-49.41
X-70.043 Y-49.745
X-70.583 Y-50.101
X-71.109 Y-50.478
X-71.62 Y-50.875
X-72.115 Y-51.293
X-72.592 Y-51.729
X-73.052 Y-52.185
X-73.494 Y-52.658
X-73.916 Y-53.149
X-74.318 Y-53.656
X-74.699 Y-54.179
X-75.058 Y-54.717
X-75.396 Y-55.269
X-75.712 Y-55.834
X-76.005 Y-56.411
X-76.275 Y-57
X-76.522 Y-57.598
X-76.746 Y-58.205
X-76.945 Y-58.821
X-77.12 Y-59.444
X-77.27 Y-60.073
X-77.395 Y-60.709
X-77.495 Y-61.348
X-77.569 Y-61.991
X-77.617 Y-62.636
X-77.639 Y-63.283
X-77.635 Y-63.931
X-77.606 Y-64.577
X-77.552 Y-65.222
X-77.473 Y-65.864
X-77.368 Y-66.503
X-77.239 Y-67.137
X-77.085 Y-67.766
X-76.906 Y-68.388
X-76.703 Y-69.002
X-76.476 Y-69.608
X-76.225 Y-70.205
X-75.95 Y-70.791
X-75.651 Y-71.365
X-75.33 Y-71.927
X-74.988 Y-72.476
X-74.624 Y-73.012
X-74.24 Y-73.532
X-73.835 Y-74.038
X-73.411 Y-74.527
X-72.969 Y-74.999
X-72.508 Y-75.454
X-72.03 Y-75.89
X-71.534 Y-76.306
X-71.023 Y-76.703
X-70.496 Y-77.079
X-69.955 Y-77.434
X-69.4 Y-77.766
X-68.832 Y-78.077
X-68.253 Y-78.366
X-67.662 Y-78.631
X-67.062 Y-78.873
X-66.453 Y-79.092
X-65.836 Y-79.287
X-65.211 Y-79.457
X-64.581 Y-79.603
X-63.945 Y-79.724
X-63.305 Y-79.82
X-62.662 Y-79.89
X-62.016 Y-79.934
X-61.369 Y-79.953
X-60.722 Y-79.946
X-60.075 Y-79.914
X-59.431 Y-79.856
X-58.789 Y-79.774
X-58.15 Y-79.667
X-57.517 Y-79.536
X-56.889 Y-79.38
X-56.267 Y-79.199
X-55.653 Y-78.995
X-55.047 Y-78.766
X-54.451 Y-78.514
X-53.865 Y-78.239
X-53.291 Y-77.941
X-52.728 Y-77.621
X-52.179 Y-77.279
X-51.642 Y-76.917
X-51.12 Y-76.534
X-50.613 Y-76.132
X-50.122 Y-75.711
X-49.647 Y-75.271
X-49.189 Y-74.814
X-48.749 Y-74.339
X-48.327 Y-73.848
X-47.924 Y-73.342
X-47.542 Y-72.82
X-47.179 Y-72.283
X-46.838 Y-71.734
X-46.518 Y-71.171
X-46.219 Y-70.597
X-45.942 Y-70.012
X-45.688 Y-69.417
X-45.455 Y-68.813
X-45.246 Y-68.2
X-45.06 Y-67.58
X-44.897 Y-66.954
X-44.759 Y-66.322
X-44.644 Y-65.685
X-44.554 Y-65.044
X-44.489 Y-64.4
X-44.448 Y-63.754
X-44.433 Y-63.107
X-44.442 Y-62.46
X-44.476 Y-61.813
X-44.534 Y-61.169
X-44.617 Y-60.527
X-44.723 Y-59.888
X-44.854 Y-59.255
X-45.009 Y-58.626
X-45.187 Y-58.004
X-45.389 Y-57.389
X-45.615 Y-56.782
X-45.863 Y-56.185
X-46.135 Y-55.598
X-46.43 Y-55.021
X-46.746 Y-54.457
X-47.084 Y-53.905
X-47.443 Y-53.366
X-47.822 Y-52.841
X-48.22 Y-52.331
X-48.638 Y-51.837
X-49.074 Y-51.358
X-49.527 Y-50.897
X-49.998 Y-50.453
X-50.486 Y-50.027
X-50.989 Y-49.62
X-51.508 Y-49.233
X-52.041 Y-48.866
X-52.588 Y-48.521
X-53.148 Y-48.196
X-53.72 Y-47.893
X-54.303 Y-47.612
X-54.896 Y-47.352
X-55.498 Y-47.115
X-56.109 Y-46.901
X-56.727 Y-46.71
X-57.352 Y-46.542
X-57.983 Y-46.398
X-58.619 Y-46.277
X-59.259 Y-46.181
X-59.903 Y-46.109
X-60.548 Y-46.062
X-61.195 Y-46.04
X-61.842 Y-46.042
X-62.489 Y-46.068
X-63.134 Y-46.119
X-63.777 Y-46.194
X-64.417 Y-46.292
X-65.052 Y-46.414
X-65.683 Y-46.56
X-66.308 Y-46.729
X-66.926 Y-46.921
X-67.536 Y-47.136
X-68.138 Y-47.374
X-68.73 Y-47.634
X-69.313 Y-47.917
X-69.884 Y-48.221
X-70.443 Y-48.547
X-70.99 Y-48.893
X-71.524 Y-49.259
X-72.044 Y-49.645
X-72.549 Y-50.049
X-73.039 Y-50.472
X-73.514 Y-50.912
X-73.971 Y-51.37
X-74.412 Y-51.844
X-74.835 Y-52.334
X-75.239 Y-52.839
X-75.624 Y-53.36
X-75.989 Y-53.894
X-76.334 Y-54.441
X-76.658 Y-55.002
X-76.961 Y-55.574
X-77.243 Y-56.156
X-77.504 Y-56.749
X-77.743 Y-57.35
X-77.959 Y-57.96
X-78.154 Y-58.577
X-78.325 Y-59.201
X-78.474 Y-59.831
X-78.6 Y-60.466
X-78.701 Y-61.105
X-78.78 Y-61.748
X-78.834 Y-62.393
X-78.864 Y-63.039
X-78.869 Y-63.687
X-78.851 Y-64.334
X-78.809 Y-64.979
X-78.744 Y-65.623
X-78.655 Y-66.264
X-78.543 Y-66.902
X-78.408 Y-67.535
X-78.25 Y-68.162
X-78.069 Y-68.784
X-77.866 Y-69.398
X-77.64 Y-70.005
X-77.392 Y-70.603
X-77.122 Y-71.191
X-76.83 Y-71.769
X-76.517 Y-72.335
X-76.183 Y-72.89
X-75.829 Y-73.431
X-75.456 Y-73.96
X-75.063 Y-74.474
X-74.652 Y-74.975
X-74.223 Y-75.459
X-73.777 Y-75.928
X-73.315 Y-76.381
X-72.836 Y-76.816
X-72.341 Y-77.234
X-71.831 Y-77.633
X-71.307 Y-78.013
X-70.77 Y-78.373
X-70.219 Y-78.713
X-69.656 Y-79.032
X-69.081 Y-79.33
X-68.497 Y-79.607
X-67.902 Y-79.863
X-67.299 Y-80.097
X-66.687 Y-80.309
X-66.068 Y-80.498
X-65.443 Y-80.665
X-64.812 Y-80.81
X-64.176 Y-80.931
X-63.536 Y-81.028
X-62.893 Y-81.103
X-62.248 Y-81.153
X-61.601 Y-81.179
X-60.954 Y-81.181
X-60.307 Y-81.16
X-59.662 Y-81.114
X-59.018 Y-81.046
X-58.377 Y-80.954
X-57.74 Y-80.839
X-57.108 Y-80.702
X-56.481 Y-80.542
X-55.86 Y-80.359
X-55.246 Y-80.154
X-54.64 Y-79.927
X-54.043 Y-79.678
X-53.455 Y-79.407
X-52.877 Y-79.115
X-52.311 Y-78.802
X-51.756 Y-78.469
X-51.214 Y-78.115
X-50.684 Y-77.743
X-50.168 Y-77.352
X-49.667 Y-76.943
X-49.18 Y-76.517
X-48.709 Y-76.073
X-48.253 Y-75.614
X-47.814 Y-75.138
X-47.392 Y-74.647
X-46.988 Y-74.141
X-46.602 Y-73.622
X-46.236 Y-73.089
X-45.888 Y-72.542
X-45.561 Y-71.984
X-45.253 Y-71.415
X-44.966 Y-70.834
X-44.7 Y-70.245
X-44.455 Y-69.646
X-44.23 Y-69.039
X-44.027 Y-68.424
X-43.846 Y-67.803
X-43.687 Y-67.175
X-43.549 Y-66.543
X-43.435 Y-65.906
X-43.342 Y-65.265
X-43.273 Y-64.622
X-43.227 Y-63.976
X-43.204 Y-63.329
X-43.205 Y-62.682
X-43.229 Y-62.035
X-43.276 Y-61.39
X-43.345 Y-60.746
X-43.437 Y-60.106
X-43.552 Y-59.469
X-43.689 Y-58.836
X-43.848 Y-58.209
X-44.029 Y-57.588
X-44.233 Y-56.973
X-44.457 Y-56.366
X-44.704 Y-55.768
X-44.972 Y-55.179
X-45.261 Y-54.599
X-45.571 Y-54.031
X-45.901 Y-53.475
X-46.251 Y-52.93
X-46.62 Y-52.399
X-47.008 Y-51.88
X-47.414 Y-51.376
X-47.837 Y-50.887
X-48.277 Y-50.412
X-48.734 Y-49.954
X-49.206 Y-49.511
X-49.695 Y-49.086
X-50.197 Y-48.679
X-50.714 Y-48.289
X-51.245 Y-47.919
X-51.788 Y-47.567
X-52.344 Y-47.236
X-52.912 Y-46.925
X-53.49 Y-46.634
X-54.078 Y-46.364
X-54.675 Y-46.114
X-55.281 Y-45.885
X-55.894 Y-45.678
X-56.514 Y-45.492
X-57.14 Y-45.328
X-57.771 Y-45.186
X-58.407 Y-45.066
X-59.047 Y-44.969
X-59.69 Y-44.894
X-60.335 Y-44.842
X-60.982 Y-44.813
X-61.629 Y-44.807
X-62.276 Y-44.824
X-62.922 Y-44.864
X-63.566 Y-44.927
X-64.208 Y-45.012
X-64.846 Y-45.119
X-65.48 Y-45.248
X-66.109 Y-45.399
X-66.733 Y-45.572
X-67.351 Y-45.766
X-67.961 Y-45.982
X-68.563 Y-46.219
X-69.157 Y-46.476
X-69.741 Y-46.754
X-70.315 Y-47.053
X-70.879 Y-47.372
X-71.43 Y-47.711
X-71.97 Y-48.068
X-72.497 Y-48.444
X-73.01 Y-48.838
X-73.51 Y-49.249
X-73.995 Y-49.677
X-74.466 Y-50.122
X-74.921 Y-50.582
X-75.36 Y-51.058
X-75.782 Y-51.548
X-76.187 Y-52.053
X-76.574 Y-52.572
X-76.943 Y-53.104
X-77.293 Y-53.648
X-77.623 Y-54.205
X-77.934 Y-54.772
X-78.225 Y-55.35
X-78.496 Y-55.938
X-78.747 Y-56.535
X-78.977 Y-57.14
X-79.187 Y-57.752
X-79.375 Y-58.371
X-79.543 Y-58.996
X-79.689 Y-59.627
X-79.813 Y-60.262
X-79.915 Y-60.901
X-79.996 Y-61.543
X-80.054 Y-62.188
X-80.089 Y-62.834
X-80.102 Y-63.481
X-80.092 Y-64.128
X-80.06 Y-64.775
X-80.006 Y-65.42
X-79.929 Y-66.062
X-79.831 Y-66.702
X-79.711 Y-67.338
X-79.57 Y-67.97
X-79.407 Y-68.596
X-79.223 Y-69.217
X-79.018 Y-69.831
X-78.792 Y-70.437
X-78.546 Y-71.036
X-78.279 Y-71.625
X-77.992 Y-72.205
X-77.685 Y-72.775
X-77.357 Y-73.334
X-77.011 Y-73.88
X-76.646 Y-74.415
X-76.263 Y-74.937
X-75.863 Y-75.445
X-75.446 Y-75.94
X-75.012 Y-76.42
X-74.562 Y-76.885
X-74.096 Y-77.335
X-73.616 Y-77.769
X-73.121 Y-78.186
X-72.612 Y-78.586
X-72.09 Y-78.968
X-71.554 Y-79.332
X-71.007 Y-79.677
X-70.448 Y-80.003
X-69.877 Y-80.308
X-69.297 Y-80.595
X-68.707 Y-80.861
X-68.108 Y-81.107
X-67.502 Y-81.332
X-66.888 Y-81.537
X-66.267 Y-81.721
X-65.641 Y-81.884
X-65.009 Y-82.026
X-64.373 Y-82.146
X-63.733 Y-82.244
X-63.091 Y-82.32
X-62.446 Y-82.374
X-61.799 Y-82.406
X-61.152 Y-82.416
X-60.505 Y-82.402
X-59.859 Y-82.366
X-59.214 Y-82.309
X-58.572 Y-82.229
X-57.933 Y-82.128
X-57.297 Y-82.006
X-56.666 Y-81.862
X-56.04 Y-81.697
X-55.42 Y-81.511
X-54.807 Y-81.304
X-54.201 Y-81.077
X-53.603 Y-80.829
X-53.014 Y-80.562
X-52.434 Y-80.274
X-51.864 Y-79.967
X-51.306 Y-79.64
X-50.759 Y-79.294
X-50.224 Y-78.93
X-49.701 Y-78.548
X-49.191 Y-78.149
X-48.695 Y-77.733
X-48.213 Y-77.302
X-47.746 Y-76.854
X-47.293 Y-76.391
X-46.856 Y-75.914
X-46.435 Y-75.422
X-46.031 Y-74.917
X-45.643 Y-74.398
X-45.273 Y-73.867
X-44.922 Y-73.324
X-44.588 Y-72.769
X-44.274 Y-72.203
X-43.979 Y-71.627
X-43.704 Y-71.042
X-43.448 Y-70.447
X-43.211 Y-69.845
X-42.995 Y-69.235
X-42.798 Y-68.618
X-42.622 Y-67.995
X-42.466 Y-67.367
X-42.331 Y-66.734
X-42.217 Y-66.097
X-42.125 Y-65.457
X-42.053 Y-64.813
X-42.003 Y-64.168
X-41.975 Y-63.521
X-41.969 Y-62.874
X-41.985 Y-62.227
X-42.022 Y-61.581
X-42.081 Y-60.937
X-42.162 Y-60.294
X-42.263 Y-59.655
X-42.386 Y-59.02
X-42.529 Y-58.388
X-42.693 Y-57.762
X-42.878 Y-57.142
X-43.083 Y-56.528
X-43.309 Y-55.922
X-43.554 Y-55.323
X-43.82 Y-54.732
X-44.105 Y-54.151
X-44.41 Y-53.58
X-44.734 Y-53.02
X-45.077 Y-52.471
X-45.438 Y-51.934
X-45.817 Y-51.41
X-46.213 Y-50.898
X-46.626 Y-50.399
X-47.055 Y-49.915
X-47.499 Y-49.444
X-47.959 Y-48.989
X-48.434 Y-48.549
X-48.923 Y-48.125
X-49.426 Y-47.718
X-49.942 Y-47.327
X-50.471 Y-46.954
X-51.012 Y-46.599
X-51.565 Y-46.262
X-52.129 Y-45.944
X-52.703 Y-45.646
X-53.287 Y-45.367
X-53.88 Y-45.107
X-54.481 Y-44.867
X-55.089 Y-44.646
X-55.705 Y-44.446
X-56.326 Y-44.265
X-56.953 Y-44.106
X-57.585 Y-43.966
X-58.222 Y-43.848
X-58.861 Y-43.75
X-59.504 Y-43.674
X-60.149 Y-43.618
X-60.795 Y-43.585
X-61.442 Y-43.573
X-62.09 Y-43.582
X-62.736 Y-43.614
X-63.381 Y-43.667
X-64.024 Y-43.741
X-64.664 Y-43.835
X-65.301 Y-43.951
X-65.934 Y-44.087
X-66.562 Y-44.244
X-67.184 Y-44.42
X-67.801 Y-44.617
X-68.411 Y-44.834
X-69.013 Y-45.071
X-69.608 Y-45.327
X-70.193 Y-45.602
X-70.77 Y-45.897
X-71.336 Y-46.21
X-71.891 Y-46.543
X-72.435 Y-46.893
X-72.968 Y-47.261
X-73.488 Y-47.646
X-73.996 Y-48.048
X-74.49 Y-48.466
X-74.97 Y-48.899
X-75.437 Y-49.348
X-75.889 Y-49.811
X-76.325 Y-50.289
X-76.746 Y-50.78
X-77.151 Y-51.285
X-77.54 Y-51.803
X-77.911 Y-52.333
X-78.265 Y-52.875
X-78.6 Y-53.429
X-78.918 Y-53.993
X-79.216 Y-54.567
X-79.495 Y-55.151
X-79.756 Y-55.743
X-79.997 Y-56.344
X-80.219 Y-56.952
X-80.422 Y-57.567
X-80.605 Y-58.187
X-80.768 Y-58.814
X-80.911 Y-59.445
X-81.033 Y-60.081
X-81.135 Y-60.72
X-81.216 Y-61.362
X-81.277 Y-62.006
X-81.317 Y-62.652
X-81.335 Y-63.299
X-81.332 Y-63.946
X-81.308 Y-64.593
X-81.262 Y-65.239
X-81.196 Y-65.883
X-81.109 Y-66.524
X-81.002 Y-67.162
X-80.875 Y-67.797
X-80.727 Y-68.427
X-80.56 Y-69.052
X-80.372 Y-69.672
X-80.165 Y-70.285
X-79.939 Y-70.891
X-79.693 Y-71.49
X-79.428 Y-72.08
X-79.144 Y-72.662
X-78.841 Y-73.234
X-78.52 Y-73.796
X-78.18 Y-74.347
X-77.823 Y-74.886
X-77.448 Y-75.414
X-77.056 Y-75.929
X-76.648 Y-76.432
X-76.225 Y-76.921
X-75.786 Y-77.397
X-75.332 Y-77.858
X-74.864 Y-78.305
X-74.382 Y-78.737
X-73.886 Y-79.153
X-73.377 Y-79.553
X-72.856 Y-79.937
X-72.323 Y-80.303
X-71.777 Y-80.652
X-71.221 Y-80.983
X-70.654 Y-81.295
X-70.078 Y-81.589
X-69.492 Y-81.864
X-68.897 Y-82.12
X-68.295 Y-82.357
X-67.685 Y-82.574
X-67.069 Y-82.772
X-66.447 Y-82.951
X-65.82 Y-83.109
X-65.187 Y-83.248
X-64.551 Y-83.366
X-63.911 Y-83.464
X-63.269 Y-83.542
X-62.624 Y-83.599
X-61.978 Y-83.635
X-61.331 Y-83.649
X-60.684 Y-83.643
X-60.037 Y-83.615
X-59.392 Y-83.567
X-58.748 Y-83.498
X-58.107 Y-83.408
X-57.469 Y-83.298
X-56.835 Y-83.168
X-56.206 Y-83.018
X-55.581 Y-82.849
X-54.962 Y-82.659
X-54.349 Y-82.451
X-53.744 Y-82.223
X-53.145 Y-81.976
X-52.555 Y-81.71
X-51.974 Y-81.425
X-51.402 Y-81.122
X-50.84 Y-80.801
X-50.289 Y-80.461
X-49.749 Y-80.104
X-49.221 Y-79.73
X-48.705 Y-79.34
X-48.201 Y-78.934
X-47.71 Y-78.512
X-47.233 Y-78.075
X-46.769 Y-77.623
X-46.32 Y-77.158
X-45.885 Y-76.678
X-45.465 Y-76.186
X-45.061 Y-75.68
X-44.673 Y-75.162
X-44.301 Y-74.633
X-43.946 Y-74.092
X-43.608 Y-73.539
X-43.288 Y-72.977
X-42.986 Y-72.404
X-42.703 Y-71.822
X-42.438 Y-71.232
X-42.191 Y-70.634
X-41.963 Y-70.028
X-41.754 Y-69.415
X-41.563 Y-68.797
X-41.392 Y-68.173
X-41.24 Y-67.543
X-41.108 Y-66.91
X-40.996 Y-66.273
X-40.903 Y-65.632
X-40.83 Y-64.989
X-40.777 Y-64.344
X-40.745 Y-63.697
X-40.733 Y-63.05
X-40.742 Y-62.403
X-40.772 Y-61.757
X-40.822 Y-61.111
X-40.893 Y-60.468
X-40.983 Y-59.827
X-41.093 Y-59.189
X-41.223 Y-58.555
X-41.373 Y-57.926
X-41.541 Y-57.301
X-41.73 Y-56.681
X-41.937 Y-56.068
X-42.163 Y-55.462
X-42.409 Y-54.863
X-42.672 Y-54.272
X-42.955 Y-53.69
X-43.255 Y-53.116
X-43.574 Y-52.553
X-43.911 Y-52.001
X-44.265 Y-51.459
X-44.637 Y-50.929
X-45.025 Y-50.411
X-45.428 Y-49.905
X-45.848 Y-49.412
X-46.282 Y-48.932
X-46.731 Y-48.466
X-47.194 Y-48.014
X-47.671 Y-47.576
X-48.161 Y-47.154
X-48.665 Y-46.747
X-49.18 Y-46.356
X-49.708 Y-45.981
X-50.247 Y-45.622
X-50.797 Y-45.282
X-51.358 Y-44.958
X-51.929 Y-44.653
X-52.509 Y-44.366
X-53.098 Y-44.098
X-53.695 Y-43.848
X-54.299 Y-43.616
X-54.91 Y-43.403
X-55.528 Y-43.209
X-56.151 Y-43.034
X-56.779 Y-42.878
X-57.412 Y-42.742
X-58.048 Y-42.625
X-58.688 Y-42.528
X-59.331 Y-42.45
X-59.975 Y-42.393
X-60.621 Y-42.355
X-61.268 Y-42.338
X-61.916 Y-42.342
X-62.562 Y-42.366
X-63.208 Y-42.41
X-63.852 Y-42.474
X-64.494 Y-42.559
X-65.133 Y-42.662
X-65.768 Y-42.786
X-66.399 Y-42.928
X-67.026 Y-43.09
X-67.647 Y-43.271
X-68.263 Y-43.47
X-68.872 Y-43.689
X-69.475 Y-43.925
X-70.07 Y-44.181
X-70.656 Y-44.454
X-71.234 Y-44.745
X-71.803 Y-45.054
X-72.362 Y-45.381
X-72.91 Y-45.725
X-73.447 Y-46.086
X-73.973 Y-46.464
X-74.487 Y-46.857
X-74.988 Y-47.266
X-75.478 Y-47.69
X-75.954 Y-48.128
X-76.416 Y-48.581
X-76.865 Y-49.047
X-77.3 Y-49.527
X-77.719 Y-50.019
X-78.124 Y-50.524
X-78.513 Y-51.042
X-78.886 Y-51.571
X-79.243 Y-52.111
X-79.583 Y-52.661
X-79.905 Y-53.223
X-80.21 Y-53.794
X-80.497 Y-54.374
X-80.766 Y-54.962
X-81.017 Y-55.559
X-81.25 Y-56.163
X-81.464 Y-56.773
X-81.66 Y-57.39
X-81.838 Y-58.013
X-81.996 Y-58.64
X-82.136 Y-59.272
X-82.257 Y-59.908
X-82.358 Y-60.547
X-82.44 Y-61.189
X-82.503 Y-61.833
X-82.545 Y-62.479
X-82.568 Y-63.126
X-82.571 Y-63.773
X-82.554 Y-64.42
X-82.516 Y-65.066
X-82.459 Y-65.711
X-82.382 Y-66.354
X-82.286 Y-66.994
X-82.171 Y-67.631
X-82.037 Y-68.264
X-81.883 Y-68.893
X-81.712 Y-69.517
X-81.521 Y-70.135
X-81.312 Y-70.748
X-81.085 Y-71.354
X-80.839 Y-71.952
X-80.575 Y-72.544
X-80.294 Y-73.126
X-79.995 Y-73.7
X-79.678 Y-74.265
X-79.344 Y-74.819
X-78.993 Y-75.363
X-78.625 Y-75.895
X-78.242 Y-76.417
X-77.842 Y-76.926
X-77.428 Y-77.423
X-76.999 Y-77.908
X-76.555 Y-78.379
X-76.098 Y-78.837
X-75.627 Y-79.281
X-75.144 Y-79.711
X-74.647 Y-80.126
X-74.138 Y-80.526
X-73.618 Y-80.911
X-73.086 Y-81.279
X-72.543 Y-81.632
X-71.989 Y-81.967
X-71.425 Y-82.285
X-70.852 Y-82.585
X-70.269 Y-82.868
X-69.679 Y-83.132
X-69.08 Y-83.379
X-68.475 Y-83.607
X-67.863 Y-83.818
X-67.245 Y-84.009
X-66.621 Y-84.183
X-65.993 Y-84.337
X-65.36 Y-84.473
X-64.723 Y-84.59
X-64.083 Y-84.688
X-63.441 Y-84.766
X-62.796 Y-84.825
X-62.15 Y-84.864
X-61.503 Y-84.884
X-60.856 Y-84.883
X-60.209 Y-84.863
X-59.563 Y-84.822
X-58.919 Y-84.762
X-58.277 Y-84.683
X-57.637 Y-84.584
X-57.001 Y-84.466
X-56.368 Y-84.329
X-55.74 Y-84.174
X-55.116 Y-84
X-54.498 Y-83.808
X-53.886 Y-83.597
X-53.281 Y-83.368
X-52.682 Y-83.122
X-52.092 Y-82.857
X-51.509 Y-82.575
X-50.935 Y-82.276
X-50.371 Y-81.959
X-49.816 Y-81.625
X-49.272 Y-81.275
X-48.739 Y-80.908
X-48.217 Y-80.525
X-47.707 Y-80.127
X-47.209 Y-79.714
X-46.723 Y-79.287
X-46.249 Y-78.845
X-45.789 Y-78.39
X-45.342 Y-77.922
X-44.909 Y-77.441
X-44.491 Y-76.947
X-44.087 Y-76.442
X-43.698 Y-75.924
X-43.324 Y-75.396
X-42.967 Y-74.856
X-42.625 Y-74.307
X-42.3 Y-73.747
X-41.992 Y-73.177
X-41.702 Y-72.599
X-41.429 Y-72.012
X-41.173 Y-71.418
X-40.935 Y-70.816
X-40.715 Y-70.207
X-40.512 Y-69.593
X-40.328 Y-68.972
X-40.161 Y-68.347
X-40.013 Y-67.717
X-39.883 Y-67.083
X-39.771 Y-66.445
X-39.678 Y-65.805
X-39.605 Y-65.162
X-39.55 Y-64.517
X-39.514 Y-63.871
X-39.497 Y-63.224
X-39.5 Y-62.576
X-39.523 Y-61.93
X-39.565 Y-61.284
X-39.627 Y-60.639
X-39.707 Y-59.997
X-39.806 Y-59.358
X-39.924 Y-58.721
X-40.061 Y-58.089
X-40.216 Y-57.46
X-40.389 Y-56.837
X-40.58 Y-56.218
X-40.79 Y-55.606
X-41.017 Y-55
X-41.262 Y-54.401
X-41.524 Y-53.809
X-41.804 Y-53.226
X-42.101 Y-52.651
X-42.416 Y-52.085
X-42.747 Y-51.529
X-43.095 Y-50.983
X-43.46 Y-50.449
X-43.84 Y-49.925
X-44.236 Y-49.413
X-44.646 Y-48.912
X-45.071 Y-48.424
X-45.51 Y-47.948
X-45.963 Y-47.486
X-46.429 Y-47.037
X-46.908 Y-46.601
X-47.399 Y-46.18
X-47.902 Y-45.773
X-48.418 Y-45.382
X-48.944 Y-45.005
X-49.482 Y-44.645
X-50.029 Y-44.3
X-50.587 Y-43.972
X-51.155 Y-43.661
X-51.732 Y-43.367
X-52.317 Y-43.091
X-52.91 Y-42.832
X-53.511 Y-42.591
X-54.118 Y-42.367
X-54.732 Y-42.161
X-55.351 Y-41.972
X-55.975 Y-41.802
X-56.604 Y-41.65
X-57.238 Y-41.516
X-57.874 Y-41.4
X-58.514 Y-41.304
X-59.157 Y-41.225
X-59.801 Y-41.166
X-60.447 Y-41.125
X-61.094 Y-41.103
X-61.741 Y-41.101
X-62.388 Y-41.119
X-63.034 Y-41.155
X-63.679 Y-41.211
X-64.322 Y-41.286
X-64.963 Y-41.379
X-65.6 Y-41.491
X-66.234 Y-41.621
X-66.864 Y-41.769
X-67.49 Y-41.935
X-68.11 Y-42.119
X-68.725 Y-42.321
X-69.334 Y-42.541
X-69.936 Y-42.778
X-70.531 Y-43.032
X-71.119 Y-43.304
X-71.698 Y-43.592
X-72.269 Y-43.897
X-72.831 Y-44.219
X-73.382 Y-44.557
X-73.923 Y-44.912
X-74.454 Y-45.283
X-74.974 Y-45.668
X-75.482 Y-46.069
X-75.979 Y-46.484
X-76.464 Y-46.913
X-76.936 Y-47.356
X-77.395 Y-47.812
X-77.841 Y-48.28
X-78.274 Y-48.762
X-78.693 Y-49.255
X-79.097 Y-49.761
X-79.487 Y-50.277
X-79.861 Y-50.805
X-80.221 Y-51.343
X-80.564 Y-51.892
X-80.892 Y-52.45
X-81.202 Y-53.018
X-81.496 Y-53.595
X-81.772 Y-54.18
X-82.032 Y-54.773
X-82.274 Y-55.373
X-82.499 Y-55.98
X-82.707 Y-56.593
X-82.898 Y-57.211
X-83.071 Y-57.835
X-83.226 Y-58.464
X-83.363 Y-59.096
X-83.482 Y-59.732
X-83.583 Y-60.372
X-83.665 Y-61.013
X-83.73 Y-61.657
X-83.775 Y-62.303
X-83.802 Y-62.95
X-83.81 Y-63.597
X-83.799 Y-64.244
X-83.769 Y-64.891
X-83.72 Y-65.536
X-83.652 Y-66.18
X-83.566 Y-66.821
X-83.462 Y-67.46
X-83.34 Y-68.095
X-83.199 Y-68.727
X-83.041 Y-69.355
X-82.865 Y-69.978
X-82.672 Y-70.595
X-82.461 Y-71.207
X-82.233 Y-71.813
X-81.988 Y-72.412
X-81.726 Y-73.004
X-81.447 Y-73.588
X-81.151 Y-74.163
X-80.839 Y-74.73
X-80.51 Y-75.288
X-80.165 Y-75.835
X-79.804 Y-76.372
X-79.427 Y-76.899
X-79.036 Y-77.414
X-78.63 Y-77.918
X-78.21 Y-78.41
X-77.776 Y-78.891
X-77.328 Y-79.359
X-76.868 Y-79.814
X-76.395 Y-80.256
X-75.91 Y-80.684
X-75.413 Y-81.098
X-74.904 Y-81.498
X-74.384 Y-81.884
X-73.854 Y-82.254
X-73.312 Y-82.609
X-72.761 Y-82.949
X-72.2 Y-83.272
X-71.63 Y-83.578
X-71.051 Y-83.867
X-70.464 Y-84.14
X-69.87 Y-84.395
X-69.268 Y-84.634
X-68.66 Y-84.855
X-68.045 Y-85.059
X-67.426 Y-85.245
X-66.801 Y-85.414
X-66.172 Y-85.566
X-65.538 Y-85.699
X-64.901 Y-85.815
X-64.262 Y-85.912
X-63.619 Y-85.991
X-62.975 Y-86.052
X-62.329 Y-86.095
X-61.682 Y-86.119
X-61.035 Y-86.124
X-60.388 Y-86.11
X-59.742 Y-86.077
X-59.097 Y-86.025
X-58.453 Y-85.954
X-57.812 Y-85.866
X-57.174 Y-85.759
X-56.539 Y-85.635
X-55.907 Y-85.492
X-55.28 Y-85.332
X-54.658 Y-85.155
X-54.04 Y-84.96
X-53.429 Y-84.748
X-52.824 Y-84.519
X-52.225 Y-84.272
X-51.634 Y-84.009
X-51.05 Y-83.73
X-50.474 Y-83.434
X-49.908 Y-83.122
X-49.35 Y-82.793
X-48.802 Y-82.448
X-48.265 Y-82.088
X-47.738 Y-81.712
X-47.221 Y-81.322
X-46.716 Y-80.917
X-46.222 Y-80.499
X-45.741 Y-80.067
X-45.271 Y-79.621
X-44.814 Y-79.163
X-44.369 Y-78.693
X-43.938 Y-78.21
X-43.52 Y-77.716
X-43.116 Y-77.21
X-42.726 Y-76.693
X-42.351 Y-76.166
X-41.991 Y-75.628
X-41.646 Y-75.081
X-41.316 Y-74.524
X-41.003 Y-73.957
X-40.706 Y-73.382
X-40.426 Y-72.799
X-40.162 Y-72.208
X-39.915 Y-71.61
X-39.684 Y-71.005
X-39.47 Y-70.394
X-39.273 Y-69.778
X-39.093 Y-69.156
X-38.931 Y-68.53
X-38.785 Y-67.899
X-38.657 Y-67.265
X-38.546 Y-66.627
X-38.453 Y-65.986
X-38.378 Y-65.343
X-38.321 Y-64.699
X-38.282 Y-64.053
X-38.261 Y-63.406
X-38.258 Y-62.759
X-38.275 Y-62.112
X-38.31 Y-61.465
X-38.363 Y-60.82
X-38.434 Y-60.177
X-38.523 Y-59.536
X-38.63 Y-58.898
X-38.755 Y-58.263
X-38.897 Y-57.631
X-39.056 Y-57.004
X-39.233 Y-56.381
X-39.427 Y-55.764
X-39.637 Y-55.152
X-39.865 Y-54.546
X-40.11 Y-53.947
X-40.371 Y-53.354
X-40.648 Y-52.77
X-40.942 Y-52.193
X-41.252 Y-51.625
X-41.578 Y-51.066
X-41.921 Y-50.517
X-42.279 Y-49.978
X-42.652 Y-49.449
X-43.04 Y-48.931
X-43.442 Y-48.424
X-43.858 Y-47.928
X-44.288 Y-47.444
X-44.731 Y-46.972
X-45.187 Y-46.512
X-45.655 Y-46.066
X-46.135 Y-45.632
X-46.627 Y-45.212
X-47.131 Y-44.805
X-47.646 Y-44.413
X-48.171 Y-44.035
X-48.707 Y-43.671
X-49.252 Y-43.323
X-49.808 Y-42.991
X-50.372 Y-42.675
X-50.946 Y-42.375
X-51.528 Y-42.091
X-52.117 Y-41.824
X-52.714 Y-41.574
X-53.317 Y-41.34
X-53.927 Y-41.122
X-54.543 Y-40.922
X-55.163 Y-40.738
X-55.789 Y-40.572
X-56.418 Y-40.423
X-57.052 Y-40.291
X-57.689 Y-40.176
X-58.329 Y-40.079
X-58.971 Y-40
X-59.616 Y-39.938
X-60.261 Y-39.894
X-60.908 Y-39.868
X-61.555 Y-39.861
X-62.202 Y-39.872
X-62.849 Y-39.901
X-63.494 Y-39.949
X-64.138 Y-40.015
X-64.78 Y-40.098
X-65.419 Y-40.199
X-66.056 Y-40.317
X-66.688 Y-40.453
X-67.317 Y-40.606
X-67.942 Y-40.776
X-68.561 Y-40.963
X-69.176 Y-41.167
X-69.784 Y-41.387
X-70.387 Y-41.624
X-70.982 Y-41.877
X-71.571 Y-42.146
X-72.152 Y-42.432
X-72.724 Y-42.733
X-73.289 Y-43.051
X-73.843 Y-43.384
X-74.389 Y-43.733
X-74.924 Y-44.096
X-75.449 Y-44.475
X-75.963 Y-44.868
X-76.467 Y-45.274
X-76.959 Y-45.694
X-77.44 Y-46.128
X-77.909 Y-46.574
X-78.366 Y-47.032
X-78.81 Y-47.503
X-79.241 Y-47.986
X-79.659 Y-48.48
X-80.063 Y-48.985
X-80.454 Y-49.501
X-80.83 Y-50.028
X-81.192 Y-50.564
X-81.539 Y-51.111
X-81.871 Y-51.666
X-82.187 Y-52.231
X-82.487 Y-52.805
X-82.771 Y-53.387
X-83.038 Y-53.976
X-83.29 Y-54.572
X-83.525 Y-55.175
X-83.744 Y-55.784
X-83.946 Y-56.399
X-84.132 Y-57.019
X-84.301 Y-57.644
X-84.453 Y-58.273
X-84.588 Y-58.906
X-84.706 Y-59.542
X-84.807 Y-60.182
X-84.891 Y-60.823
X-84.957 Y-61.467
X-85.006 Y-62.113
X-85.037 Y-62.759
X-85.05 Y-63.406
X-85.045 Y-64.053
X-85.021 Y-64.7
X-84.98 Y-65.346
X-84.921 Y-65.991
X-84.844 Y-66.633
X-84.75 Y-67.274
X-84.639 Y-67.911
X-84.511 Y-68.546
X-84.366 Y-69.176
X-84.204 Y-69.803
X-84.025 Y-70.425
X-83.829 Y-71.042
X-83.617 Y-71.653
X-83.389 Y-72.259
X-83.145 Y-72.858
X-82.884 Y-73.451
X-82.608 Y-74.036
X-82.315 Y-74.613
X-82.007 Y-75.183
X-81.683 Y-75.743
X-81.344 Y-76.294
X-80.989 Y-76.835
X-80.619 Y-77.366
X-80.235 Y-77.888
X-79.837 Y-78.398
X-79.426 Y-78.897
X-79.001 Y-79.386
X-78.563 Y-79.863
X-78.113 Y-80.327
X-77.65 Y-80.78
X-77.176 Y-81.22
X-76.69 Y-81.647
X-76.192 Y-82.062
X-75.684 Y-82.462
X-75.165 Y-82.849
X-74.636 Y-83.221
X-74.096 Y-83.579
X-73.548 Y-83.923
X-72.99 Y-84.25
X-72.422 Y-84.562
X-71.847 Y-84.858
X-71.263 Y-85.138
X-70.672 Y-85.402
X-70.074 Y-85.649
X-69.47 Y-85.881
X-68.86 Y-86.096
X-68.244 Y-86.295
X-67.623 Y-86.477
X-66.997 Y-86.643
X-66.367 Y-86.792
X-65.733 Y-86.923
X-65.096 Y-87.038
X-64.457 Y-87.136
X-63.814 Y-87.217
X-63.17 Y-87.28
X-62.525 Y-87.326
X-61.878 Y-87.354
X-61.231 Y-87.364
X-60.584 Y-87.356
X-59.937 Y-87.33
X-59.291 Y-87.286
X-58.647 Y-87.225
X-58.005 Y-87.146
X-57.365 Y-87.05
X-56.727 Y-86.937
X-56.093 Y-86.807
X-55.463 Y-86.66
X-54.837 Y-86.496
X-54.215 Y-86.316
X-53.599 Y-86.119
X-52.988 Y-85.906
X-52.382 Y-85.677
X-51.783 Y-85.431
X-51.191 Y-85.17
X-50.606 Y-84.893
X-50.029 Y-84.601
X-49.46 Y-84.293
X-48.899 Y-83.969
X-48.348 Y-83.63
X-47.806 Y-83.276
X-47.274 Y-82.907
X-46.752 Y-82.524
X-46.241 Y-82.128
X-45.74 Y-81.718
X-45.25 Y-81.295
X-44.772 Y-80.859
X-44.305 Y-80.41
X-43.85 Y-79.95
X-43.407 Y-79.478
X-42.977 Y-78.994
X-42.56 Y-78.5
X-42.155 Y-77.994
X-41.765 Y-77.479
X-41.387 Y-76.953
X-41.024 Y-76.417
X-40.676 Y-75.871
X-40.342 Y-75.317
X-40.023 Y-74.754
X-39.721 Y-74.182
X-39.433 Y-73.602
X-39.161 Y-73.014
X-38.905 Y-72.42
X-38.665 Y-71.819
X-38.441 Y-71.212
X-38.232 Y-70.599
X-38.04 Y-69.981
X-37.864 Y-69.358
X-37.704 Y-68.731
X-37.56 Y-68.1
X-37.433 Y-67.465
X-37.323 Y-66.828
X-37.229 Y-66.187
X-37.153 Y-65.545
X-37.093 Y-64.9
X-37.05 Y-64.254
X-37.025 Y-63.608
X-37.017 Y-62.96
X-37.027 Y-62.313
X-37.054 Y-61.667
X-37.099 Y-61.021
X-37.162 Y-60.377
X-37.241 Y-59.734
X-37.338 Y-59.094
X-37.451 Y-58.457
X-37.581 Y-57.823
X-37.727 Y-57.193
X-37.89 Y-56.566
X-38.07 Y-55.945
X-38.265 Y-55.328
X-38.477 Y-54.716
X-38.704 Y-54.11
X-38.948 Y-53.51
X-39.207 Y-52.917
X-39.482 Y-52.331
X-39.772 Y-51.753
X-40.078 Y-51.183
X-40.4 Y-50.621
X-40.736 Y-50.068
X-41.088 Y-49.525
X-41.454 Y-48.991
X-41.835 Y-48.468
X-42.229 Y-47.954
X-42.637 Y-47.452
X-43.057 Y-46.96
X-43.491 Y-46.479
X-43.937 Y-46.01
X-44.395 Y-45.553
X-44.865 Y-45.108
X-45.346 Y-44.675
X-45.839 Y-44.255
X-46.342 Y-43.848
X-46.856 Y-43.455
X-47.38 Y-43.075
X-47.914 Y-42.709
X-48.457 Y-42.357
X-49.01 Y-42.02
X-49.571 Y-41.699
X-50.142 Y-41.393
X-50.72 Y-41.102
X-51.306 Y-40.828
X-51.899 Y-40.568
X-52.499 Y-40.325
X-53.105 Y-40.097
X-53.716 Y-39.885
X-54.333 Y-39.689
X-54.955 Y-39.509
X-55.581 Y-39.346
X-56.211 Y-39.199
X-56.845 Y-39.068
X-57.482 Y-38.953
X-58.122 Y-38.856
X-58.764 Y-38.775
X-59.408 Y-38.71
X-60.054 Y-38.663
X-60.7 Y-38.633
X-61.347 Y-38.62
X-61.994 Y-38.625
X-62.641 Y-38.648
X-63.287 Y-38.688
X-63.932 Y-38.744
X-64.575 Y-38.818
X-65.216 Y-38.909
X-65.854 Y-39.016
X-66.489 Y-39.14
X-67.121 Y-39.281
X-67.749 Y-39.437
X-68.373 Y-39.61
X-68.992 Y-39.799
X-69.606 Y-40.003
X-70.214 Y-40.224
X-70.817 Y-40.46
X-71.413 Y-40.712
X-72.003 Y-40.979
X-72.585 Y-41.261
X-73.16 Y-41.558
X-73.727 Y-41.871
X-74.285 Y-42.199
X-74.834 Y-42.542
X-75.373 Y-42.899
X-75.903 Y-43.27
X-76.424 Y-43.656
X-76.934 Y-44.054
X-77.433 Y-44.466
X-77.922 Y-44.89
X-78.4 Y-45.327
X-78.866 Y-45.775
X-79.321 Y-46.236
X-79.763 Y-46.708
X-80.194 Y-47.192
X-80.612 Y-47.686
X-81.017 Y-48.19
X-81.409 Y-48.706
X-81.787 Y-49.231
X-82.152 Y-49.765
X-82.503 Y-50.309
X-82.839 Y-50.862
X-83.16 Y-51.424
X-83.466 Y-51.994
X-83.757 Y-52.573
X-84.032 Y-53.158
X-84.292 Y-53.751
X-84.537 Y-54.35
X-84.766 Y-54.955
X-84.98 Y-55.566
X-85.178 Y-56.183
X-85.36 Y-56.804
X-85.526 Y-57.429
X-85.676 Y-58.059
X-85.81 Y-58.692
X-85.928 Y-59.328
X-86.03 Y-59.968
X-86.115 Y-60.609
X-86.183 Y-61.253
X-86.235 Y-61.898
X-86.271 Y-62.544
X-86.289 Y-63.191
X-86.29 Y-63.838
X-86.273 Y-64.485
X-86.239 Y-65.132
X-86.189 Y-65.777
X-86.121 Y-66.421
X-86.037 Y-67.062
X-85.937 Y-67.702
X-85.82 Y-68.338
X-85.687 Y-68.972
X-85.538 Y-69.602
X-85.373 Y-70.227
X-85.192 Y-70.849
X-84.996 Y-71.465
X-84.784 Y-72.077
X-84.556 Y-72.683
X-84.313 Y-73.282
X-84.054 Y-73.876
X-83.78 Y-74.462
X-83.492 Y-75.042
X-83.188 Y-75.613
X-82.869 Y-76.176
X-82.535 Y-76.731
X-82.186 Y-77.276
X-81.824 Y-77.812
X-81.447 Y-78.338
X-81.057 Y-78.855
X-80.654 Y-79.361
X-80.238 Y-79.857
X-79.809 Y-80.342
X-79.369 Y-80.816
X-78.916 Y-81.279
X-78.452 Y-81.73
X-77.976 Y-82.169
X-77.49 Y-82.596
X-76.992 Y-83.01
X-76.485 Y-83.411
X-75.967 Y-83.8
X-75.44 Y-84.175
X-74.903 Y-84.536
X-74.356 Y-84.883
X-73.801 Y-85.216
X-73.237 Y-85.533
X-72.665 Y-85.835
X-72.085 Y-86.123
X-71.497 Y-86.395
X-70.903 Y-86.651
X-70.303 Y-86.893
X-69.696 Y-87.119
X-69.084 Y-87.329
X-68.467 Y-87.524
X-67.845 Y-87.703
X-67.219 Y-87.866
X-66.588 Y-88.013
X-65.955 Y-88.144
X-65.318 Y-88.259
X-64.678 Y-88.358
X-64.036 Y-88.44
X-63.392 Y-88.506
X-62.747 Y-88.556
X-62.101 Y-88.589
X-61.453 Y-88.604
X-60.806 Y-88.602
X-60.159 Y-88.583
X-59.513 Y-88.548
X-58.868 Y-88.495
X-58.225 Y-88.425
X-57.583 Y-88.34
X-56.944 Y-88.237
X-56.308 Y-88.119
X-55.675 Y-87.984
X-55.045 Y-87.834
X-54.42 Y-87.668
X-53.799 Y-87.486
X-53.182 Y-87.288
X-52.571 Y-87.075
X-51.966 Y-86.846
X-51.366 Y-86.603
X-50.773 Y-86.344
X-50.186 Y-86.07
X-49.607 Y-85.781
X-49.036 Y-85.477
X-48.472 Y-85.159
X-47.918 Y-84.825
X-47.372 Y-84.477
X-46.835 Y-84.116
X-46.308 Y-83.74
X-45.79 Y-83.351
X-45.283 Y-82.95
X-44.786 Y-82.535
X-44.299 Y-82.109
X-43.823 Y-81.67
X-43.358 Y-81.22
X-42.905 Y-80.758
X-42.463 Y-80.285
X-42.033 Y-79.801
X-41.616 Y-79.306
X-41.211 Y-78.802
X-40.818 Y-78.287
X-40.439 Y-77.763
X-40.073 Y-77.229
X-39.72 Y-76.686
X-39.382 Y-76.134
X-39.058 Y-75.574
X-38.749 Y-75.005
X-38.455 Y-74.429
X-38.176 Y-73.845
X-37.911 Y-73.254
X-37.661 Y-72.657
X-37.427 Y-72.054
X-37.207 Y-71.445
X-37.003 Y-70.831
X-36.814 Y-70.212
X-36.64 Y-69.588
X-36.482 Y-68.961
X-36.34 Y-68.329
X-36.213 Y-67.695
X-36.102 Y-67.057
X-36.007 Y-66.417
X-35.929 Y-65.774
X-35.866 Y-65.13
X-35.819 Y-64.485
X-35.789 Y-63.838
X-35.776 Y-63.191
X-35.779 Y-62.544
X-35.8 Y-61.897
X-35.837 Y-61.251
X-35.89 Y-60.606
X-35.96 Y-59.962
X-36.046 Y-59.321
X-36.149 Y-58.682
X-36.267 Y-58.046
X-36.401 Y-57.412
X-36.551 Y-56.783
X-36.716 Y-56.157
X-36.897 Y-55.536
X-37.093 Y-54.919
X-37.305 Y-54.307
X-37.532 Y-53.701
X-37.773 Y-53.101
X-38.03 Y-52.507
X-38.302 Y-51.919
X-38.589 Y-51.339
X-38.89 Y-50.766
X-39.206 Y-50.202
X-39.538 Y-49.645
X-39.883 Y-49.098
X-40.242 Y-48.56
X-40.615 Y-48.031
X-41.002 Y-47.512
X-41.401 Y-47.002
X-41.813 Y-46.503
X-42.237 Y-46.014
X-42.673 Y-45.536
X-43.121 Y-45.069
X-43.581 Y-44.613
X-44.052 Y-44.169
X-44.533 Y-43.737
X-45.026 Y-43.317
X-45.528 Y-42.909
X-46.041 Y-42.514
X-46.563 Y-42.131
X-47.095 Y-41.762
X-47.636 Y-41.407
X-48.186 Y-41.066
X-48.744 Y-40.739
X-49.311 Y-40.427
X-49.886 Y-40.13
X-50.468 Y-39.847
X-51.058 Y-39.579
X-51.653 Y-39.326
X-52.255 Y-39.088
X-52.863 Y-38.865
X-53.476 Y-38.657
X-54.094 Y-38.465
X-54.716 Y-38.288
X-55.343 Y-38.126
X-55.973 Y-37.98
X-56.607 Y-37.849
X-57.244 Y-37.734
X-57.884 Y-37.635
X-58.526 Y-37.552
X-59.169 Y-37.485
X-59.815 Y-37.434
X-60.461 Y-37.399
X-61.108 Y-37.381
X-61.755 Y-37.379
X-62.402 Y-37.395
X-63.049 Y-37.427
X-63.694 Y-37.475
X-64.338 Y-37.539
X-64.98 Y-37.62
X-65.62 Y-37.716
X-66.258 Y-37.829
X-66.892 Y-37.957
X-67.523 Y-38.1
X-68.15 Y-38.259
X-68.774 Y-38.434
X-69.393 Y-38.623
X-70.007 Y-38.828
X-70.615 Y-39.048
X-71.218 Y-39.283
X-71.816 Y-39.532
X-72.407 Y-39.796
X-72.991 Y-40.075
X-73.568 Y-40.368
X-74.137 Y-40.676
X-74.698 Y-40.999
X-75.251 Y-41.335
X-75.795 Y-41.686
X-76.33 Y-42.05
X-76.856 Y-42.428
X-77.372 Y-42.818
X-77.878 Y-43.221
X-78.375 Y-43.637
X-78.861 Y-44.064
X-79.336 Y-44.503
X-79.801 Y-44.954
X-80.254 Y-45.416
X-80.696 Y-45.888
X-81.126 Y-46.372
X-81.545 Y-46.865
X-81.951 Y-47.369
X-82.345 Y-47.883
X-82.726 Y-48.406
X-83.094 Y-48.938
X-83.449 Y-49.48
X-83.789 Y-50.03
X-84.116 Y-50.589
X-84.428 Y-51.156
X-84.726 Y-51.731
X-85.009 Y-52.313
X-85.278 Y-52.901
X-85.532 Y-53.497
X-85.771 Y-54.098
X-85.996 Y-54.705
X-86.205 Y-55.317
X-86.4 Y-55.935
X-86.58 Y-56.556
X-86.744 Y-57.182
X-86.894 Y-57.812
X-87.027 Y-58.445
X-87.146 Y-59.082
X-87.249 Y-59.721
X-87.336 Y-60.362
X-87.408 Y-61.005
X-87.464 Y-61.65
X-87.503 Y-62.296
X-87.527 Y-62.943
X-87.534 Y-63.59
X-87.524 Y-64.237
X-87.498 Y-64.884
X-87.456 Y-65.53
X-87.398 Y-66.174
X-87.324 Y-66.817
X-87.234 Y-67.458
X-87.129 Y-68.097
X-87.008 Y-68.733
X-86.872 Y-69.365
X-86.72 Y-69.994
X-86.553 Y-70.62
X-86.371 Y-71.241
X-86.174 Y-71.857
X-85.962 Y-72.469
X-85.736 Y-73.075
X-85.495 Y-73.676
X-85.239 Y-74.27
X-84.968 Y-74.858
X-84.684 Y-75.44
X-84.385 Y-76.014
X-84.071 Y-76.58
X-83.742 Y-77.137
X-83.4 Y-77.687
X-83.045 Y-78.227
X-82.675 Y-78.759
X-82.293 Y-79.282
X-81.899 Y-79.794
X-81.491 Y-80.297
X-81.072 Y-80.79
X-80.641 Y-81.273
X-80.198 Y-81.745
X-79.744 Y-82.207
X-79.279 Y-82.657
X-78.803 Y-83.095
X-78.317 Y-83.522
X-77.82 Y-83.938
X-77.314 Y-84.341
X-76.798 Y-84.731
X-76.272 Y-85.109
X-75.738 Y-85.474
X-75.194 Y-85.825
X-74.642 Y-86.163
X-74.081 Y-86.486
X-73.512 Y-86.795
X-72.936 Y-87.089
X-72.353 Y-87.369
X-71.763 Y-87.635
X-71.166 Y-87.886
X-70.564 Y-88.123
X-69.955 Y-88.344
X-69.342 Y-88.551
X-68.724 Y-88.743
X-68.102 Y-88.92
X-67.475 Y-89.082
X-66.844 Y-89.229
X-66.211 Y-89.36
X-65.574 Y-89.476
X-64.935 Y-89.576
X-64.293 Y-89.661
X-63.65 Y-89.731
X-63.005 Y-89.784
X-62.358 Y-89.822
X-61.712 Y-89.843
X-61.064 Y-89.848
X-60.417 Y-89.836
X-59.771 Y-89.808
X-59.125 Y-89.764
X-58.48 Y-89.704
X-57.838 Y-89.629
X-57.197 Y-89.537
X-56.559 Y-89.43
X-55.923 Y-89.308
X-55.291 Y-89.171
X-54.662 Y-89.018
X-54.036 Y-88.85
X-53.416 Y-88.667
X-52.799 Y-88.47
X-52.188 Y-88.257
X-51.582 Y-88.03
X-50.981 Y-87.789
X-50.387 Y-87.533
X-49.799 Y-87.262
X-49.218 Y-86.978
X-48.644 Y-86.679
X-48.077 Y-86.366
X-47.519 Y-86.038
X-46.969 Y-85.697
X-46.428 Y-85.342
X-45.895 Y-84.974
X-45.372 Y-84.593
X-44.858 Y-84.2
X-44.353 Y-83.794
X-43.859 Y-83.377
X-43.375 Y-82.948
X-42.9 Y-82.507
X-42.437 Y-82.055
X-41.984 Y-81.593
X-41.543 Y-81.119
X-41.113 Y-80.636
X-40.694 Y-80.142
X-40.288 Y-79.639
X-39.893 Y-79.126
X-39.511 Y-78.603
X-39.141 Y-78.072
X-38.785 Y-77.532
X-38.442 Y-76.983
X-38.112 Y-76.426
X-37.797 Y-75.86
X-37.496 Y-75.288
X-37.209 Y-74.708
X-36.935 Y-74.121
X-36.677 Y-73.528
X-36.432 Y-72.929
X-36.202 Y-72.324
X-35.986 Y-71.713
X-35.784 Y-71.098
X-35.598 Y-70.479
X-35.426 Y-69.855
X-35.268 Y-69.227
X-35.126 Y-68.596
X-34.999 Y-67.961
X-34.887 Y-67.324
X-34.789 Y-66.684
X-34.708 Y-66.042
X-34.641 Y-65.398
X-34.59 Y-64.753
X-34.555 Y-64.106
X-34.536 Y-63.459
X-34.533 Y-62.812
X-34.546 Y-62.165
X-34.575 Y-61.519
X-34.619 Y-60.873
X-34.68 Y-60.228
X-34.756 Y-59.586
X-34.847 Y-58.945
X-34.953 Y-58.307
X-35.075 Y-57.671
X-35.212 Y-57.038
X-35.363 Y-56.409
X-35.53 Y-55.784
X-35.712 Y-55.162
X-35.908 Y-54.546
X-36.118 Y-53.934
X-36.344 Y-53.327
X-36.583 Y-52.726
X-36.837 Y-52.13
X-37.105 Y-51.541
X-37.388 Y-50.959
X-37.684 Y-50.384
X-37.995 Y-49.816
X-38.32 Y-49.256
X-38.659 Y-48.705
X-39.011 Y-48.162
X-39.377 Y-47.628
X-39.755 Y-47.103
X-40.146 Y-46.587
X-40.549 Y-46.08
X-40.964 Y-45.584
X-41.391 Y-45.097
X-41.829 Y-44.621
X-42.278 Y-44.155
X-42.738 Y-43.7
X-43.209 Y-43.256
X-43.691 Y-42.823
X-44.182 Y-42.402
X-44.683 Y-41.993
X-45.194 Y-41.595
X-45.714 Y-41.21
X-46.244 Y-40.838
X-46.782 Y-40.478
X-47.329 Y-40.132
X-47.884 Y-39.8
X-48.448 Y-39.481
X-49.019 Y-39.177
X-49.597 Y-38.886
X-50.182 Y-38.61
X-50.774 Y-38.348
X-51.372 Y-38.1
X-51.975 Y-37.866
X-52.584 Y-37.646
X-53.198 Y-37.441
X-53.817 Y-37.251
X-54.44 Y-37.075
X-55.067 Y-36.914
X-55.697 Y-36.768
X-56.331 Y-36.637
X-56.968 Y-36.52
X-57.607 Y-36.419
X-58.248 Y-36.333
X-58.892 Y-36.262
X-59.536 Y-36.206
X-60.182 Y-36.166
X-60.829 Y-36.143
X-61.476 Y-36.135
X-62.123 Y-36.143
X-62.77 Y-36.167
X-63.416 Y-36.206
X-64.061 Y-36.261
X-64.705 Y-36.331
X-65.346 Y-36.417
X-65.985 Y-36.518
X-66.622 Y-36.633
X-67.256 Y-36.764
X-67.887 Y-36.91
X-68.514 Y-37.07
X-69.137 Y-37.245
X-69.756 Y-37.435
X-70.37 Y-37.639
X-70.979 Y-37.857
X-71.583 Y-38.089
X-72.182 Y-38.336
X-72.774 Y-38.596
X-73.36 Y-38.871
X-73.939 Y-39.16
X-74.511 Y-39.463
X-75.076 Y-39.779
X-75.632 Y-40.11
X-76.181 Y-40.454
X-76.721 Y-40.81
X-77.252 Y-41.18
X-77.774 Y-41.562
X-78.288 Y-41.957
X-78.791 Y-42.363
X-79.285 Y-42.781
X-79.77 Y-43.21
X-80.244 Y-43.651
X-80.707 Y-44.103
X-81.16 Y-44.565
X-81.603 Y-45.037
X-82.034 Y-45.52
X-82.453 Y-46.013
X-82.861 Y-46.515
X-83.258 Y-47.027
X-83.642 Y-47.548
X-84.013 Y-48.078
X-84.372 Y-48.616
X-84.718 Y-49.164
X-85.05 Y-49.719
X-85.369 Y-50.282
X-85.674 Y-50.853
X-85.965 Y-51.431
X-86.242 Y-52.016
X-86.506 Y-52.607
X-86.755 Y-53.205
X-86.99 Y-53.807
X-87.212 Y-54.416
X-87.419 Y-55.029
X-87.612 Y-55.647
X-87.79 Y-56.269
X-87.954 Y-56.895
X-88.103 Y-57.525
X-88.238 Y-58.158
X-88.358 Y-58.794
X-88.463 Y-59.432
X-88.553 Y-60.073
X-88.629 Y-60.716
X-88.689 Y-61.361
X-88.734 Y-62.006
X-88.763 Y-62.653
X-88.776 Y-63.3
X-88.774 Y-63.947
X-88.756 Y-64.594
X-88.723 Y-65.24
X-88.674 Y-65.886
X-88.61 Y-66.53
X-88.531 Y-67.172
X-88.437 Y-67.813
X-88.328 Y-68.451
X-88.204 Y-69.086
X-88.066 Y-69.718
X-87.913 Y-70.347
X-87.745 Y-70.972
X-87.564 Y-71.593
X-87.367 Y-72.21
X-87.157 Y-72.822
X-86.932 Y-73.429
X-86.694 Y-74.031
X-86.441 Y-74.627
X-86.175 Y-75.217
X-85.895 Y-75.8
X-85.6 Y-76.376
X-85.292 Y-76.945
X-84.97 Y-77.507
X-84.635 Y-78.06
X-84.286 Y-78.606
X-83.925 Y-79.143
X-83.551 Y-79.671
X-83.165 Y-80.19
X-82.766 Y-80.7
X-82.356 Y-81.201
X-81.935 Y-81.692
X-81.502 Y-82.174
X-81.058 Y-82.645
X-80.603 Y-83.105
X-80.138 Y-83.555
X-79.663 Y-83.995
X-79.177 Y-84.423
X-78.682 Y-84.839
X-78.178 Y-85.245
X-77.664 Y-85.638
X-77.141 Y-86.019
X-76.609 Y-86.388
X-76.068 Y-86.744
X-75.519 Y-87.087
X-74.962 Y-87.416
X-74.397 Y-87.731
X-73.825 Y-88.034
X-73.245 Y-88.322
X-72.659 Y-88.597
X-72.067 Y-88.857
X-71.468 Y-89.104
X-70.865 Y-89.337
X-70.255 Y-89.556
X-69.641 Y-89.761
X-69.023 Y-89.951
X-68.4 Y-90.127
X-67.773 Y-90.289
X-67.143 Y-90.436
X-66.51 Y-90.569
X-65.873 Y-90.686
X-65.234 Y-90.79
X-64.593 Y-90.878
X-63.95 Y-90.951
X-63.305 Y-91.01
X-62.66 Y-91.052
X-62.013 Y-91.08
X-61.366 Y-91.091
X-60.719 Y-91.087
X-60.072 Y-91.067
X-59.425 Y-91.032
X-58.78 Y-90.982
X-58.136 Y-90.917
X-57.494 Y-90.837
X-56.854 Y-90.742
X-56.216 Y-90.632
X-55.581 Y-90.507
X-54.949 Y-90.368
X-54.32 Y-90.214
X-53.695 Y-90.046
X-53.074 Y-89.863
X-52.458 Y-89.667
X-51.846 Y-89.456
X-51.239 Y-89.231
X-50.637 Y-88.993
X-50.041 Y-88.74
X-49.451 Y-88.474
X-48.868 Y-88.194
X-48.291 Y-87.9
X-47.722 Y-87.593
X-47.16 Y-87.271
X-46.606 Y-86.937
X-46.06 Y-86.589
X-45.522 Y-86.229
X-44.992 Y-85.857
X-44.472 Y-85.472
X-43.96 Y-85.076
X-43.458 Y-84.667
X-42.965 Y-84.248
X-42.482 Y-83.817
X-42.009 Y-83.375
X-41.546 Y-82.923
X-41.093 Y-82.461
X-40.651 Y-81.988
X-40.22 Y-81.505
X-39.8 Y-81.013
X-39.391 Y-80.511
X-38.994 Y-80
X-38.608 Y-79.481
X-38.235 Y-78.952
X-37.874 Y-78.415
X-37.526 Y-77.869
X-37.191 Y-77.315
X-36.869 Y-76.754
X-36.56 Y-76.185
X-36.265 Y-75.609
X-35.983 Y-75.026
X-35.715 Y-74.437
X-35.46 Y-73.842
X-35.219 Y-73.242
X-34.992 Y-72.636
X-34.778 Y-72.025
X-34.578 Y-71.409
X-34.393 Y-70.789
X-34.221 Y-70.165
X-34.064 Y-69.537
X-33.92 Y-68.906
X-33.791 Y-68.272
X-33.677 Y-67.635
X-33.577 Y-66.995
X-33.491 Y-66.354
X-33.42 Y-65.711
X-33.364 Y-65.066
X-33.324 Y-64.42
X-33.298 Y-63.773
X-33.288 Y-63.126
X-33.293 Y-62.479
X-33.314 Y-61.832
X-33.349 Y-61.186
X-33.4 Y-60.54
X-33.465 Y-59.896
X-33.545 Y-59.254
X-33.64 Y-58.614
X-33.749 Y-57.976
X-33.873 Y-57.341
X-34.011 Y-56.708
X-34.164 Y-56.079
X-34.331 Y-55.454
X-34.512 Y-54.833
X-34.707 Y-54.216
X-34.916 Y-53.603
X-35.138 Y-52.995
X-35.375 Y-52.393
X-35.625 Y-51.796
X-35.889 Y-51.205
X-36.166 Y-50.62
X-36.458 Y-50.042
X-36.763 Y-49.472
X-37.082 Y-48.908
X-37.414 Y-48.353
X-37.759 Y-47.805
X-38.116 Y-47.265
X-38.486 Y-46.734
X-38.868 Y-46.212
X-39.262 Y-45.698
X-39.667 Y-45.194
X-40.084 Y-44.699
X-40.513 Y-44.214
X-40.952 Y-43.738
X-41.401 Y-43.273
X-41.861 Y-42.817
X-42.332 Y-42.373
X-42.812 Y-41.939
X-43.302 Y-41.516
X-43.801 Y-41.104
X-44.31 Y-40.704
X-44.828 Y-40.316
X-45.354 Y-39.939
X-45.889 Y-39.575
X-46.433 Y-39.224
X-46.985 Y-38.886
X-47.545 Y-38.561
X-48.112 Y-38.249
X-48.686 Y-37.95
X-49.267 Y-37.665
X-49.854 Y-37.393
X-50.448 Y-37.135
X-51.047 Y-36.89
X-51.652 Y-36.659
X-52.261 Y-36.442
X-52.876 Y-36.239
X-53.495 Y-36.049
X-54.117 Y-35.874
X-54.744 Y-35.713
X-55.374 Y-35.565
X-56.008 Y-35.432
X-56.644 Y-35.313
X-57.283 Y-35.209
X-57.924 Y-35.119
X-58.567 Y-35.044
X-59.211 Y-34.983
X-59.857 Y-34.938
X-60.503 Y-34.908
X-61.15 Y-34.893
X-61.797
X-62.444 Y-34.908
X-63.091 Y-34.938
X-63.737 Y-34.983
X-64.381 Y-35.043
X-65.024 Y-35.118
X-65.665 Y-35.207
X-66.304 Y-35.31
X-66.94 Y-35.428
X-67.574 Y-35.56
X-68.204 Y-35.707
X-68.831 Y-35.867
X-69.455 Y-36.042
X-70.074 Y-36.23
X-70.689 Y-36.432
X-71.299 Y-36.648
X-71.904 Y-36.877
X-72.504 Y-37.12
X-73.098 Y-37.377
X-73.686 Y-37.647
X-74.268 Y-37.931
X-74.843 Y-38.228
X-75.411 Y-38.538
X-75.971 Y-38.862
X-76.524 Y-39.199
X-77.069 Y-39.548
X-77.606 Y-39.909
X-78.135 Y-40.283
X-78.654 Y-40.668
X-79.166 Y-41.065
X-79.668 Y-41.474
X-80.16 Y-41.893
X-80.644 Y-42.324
X-81.117 Y-42.765
X-81.581 Y-43.217
X-82.034 Y-43.678
X-82.477 Y-44.15
X-82.91 Y-44.632
X-83.332 Y-45.123
X-83.742 Y-45.623
X-84.142 Y-46.132
X-84.529 Y-46.65
X-84.905 Y-47.177
X-85.269 Y-47.713
X-85.62 Y-48.257
X-85.958 Y-48.809
X-86.283 Y-49.368
X-86.595 Y-49.935
X-86.895 Y-50.509
X-87.181 Y-51.089
X-87.454 Y-51.676
X-87.714 Y-52.269
X-87.96 Y-52.867
X-88.193 Y-53.471
X-88.412 Y-54.08
X-88.618 Y-54.694
X-88.81 Y-55.312
X-88.988 Y-55.934
X-89.153 Y-56.56
X-89.303 Y-57.19
X-89.44 Y-57.822
X-89.562 Y-58.458
X-89.671 Y-59.096
X-89.765 Y-59.736
X-89.845 Y-60.378
X-89.91 Y-61.022
X-89.96 Y-61.668
X-89.996 Y-62.314
X-90.016 Y-62.961
X-90.021 Y-63.608
X-90.012 Y-64.255
X-89.988 Y-64.902
X-89.949 Y-65.548
X-89.895 Y-66.193
X-89.827 Y-66.837
X-89.745 Y-67.478
X-89.648 Y-68.118
X-89.537 Y-68.756
X-89.412 Y-69.391
X-89.273 Y-70.023
X-89.119 Y-70.652
X-88.952 Y-71.277
X-88.772 Y-71.899
X-88.577 Y-72.516
X-88.369 Y-73.129
X-88.147 Y-73.737
X-87.912 Y-74.34
X-87.664 Y-74.938
X-87.402 Y-75.53
X-87.127 Y-76.115
X-86.838 Y-76.694
X-86.536 Y-77.267
X-86.22 Y-77.832
X-85.892 Y-78.39
X-85.551 Y-78.94
X-85.198 Y-79.482
X-84.832 Y-80.016
X-84.455 Y-80.542
X-84.066 Y-81.059
X-83.665 Y-81.568
X-83.254 Y-82.067
X-82.831 Y-82.557
X-82.397 Y-83.038
X-81.953 Y-83.509
X-81.499 Y-83.97
X-81.035 Y-84.421
X-80.56 Y-84.861
X-80.077 Y-85.291
X-79.583 Y-85.71
X-79.081 Y-86.118
X-78.57 Y-86.515
X-78.05 Y-86.9
X-77.521 Y-87.273
X-76.984 Y-87.634
X-76.438 Y-87.982
X-75.885 Y-88.318
X-75.324 Y-88.641
X-74.756 Y-88.951
X-74.18 Y-89.248
X-73.599 Y-89.532
X-73.011 Y-89.803
X-72.417 Y-90.06
X-71.818 Y-90.304
X-71.213 Y-90.535
X-70.603 Y-90.752
X-69.989 Y-90.956
X-69.37 Y-91.146
X-68.748 Y-91.322
X-68.121 Y-91.485
X-67.491 Y-91.634
X-66.858 Y-91.768
X-66.222 Y-91.889
X-65.584 Y-91.996
X-64.944 Y-92.089
X-64.301 Y-92.167
X-63.657 Y-92.23
X-63.012 Y-92.279
X-62.365 Y-92.312
X-61.718 Y-92.331
X-61.071 Y-92.335
X-60.424 Y-92.324
X-59.777 Y-92.299
X-59.131 Y-92.259
X-58.486 Y-92.204
X-57.843 Y-92.135
X-57.201 Y-92.052
X-56.561 Y-91.955
X-55.924 Y-91.843
X-55.289 Y-91.717
X-54.657 Y-91.577
X-54.028 Y-91.424
X-53.403 Y-91.257
X-52.781 Y-91.076
X-52.164 Y-90.881
X-51.551 Y-90.673
X-50.943 Y-90.451
X-50.34 Y-90.217
X-49.742 Y-89.969
X-49.15 Y-89.707
X-48.564 Y-89.432
X-47.985 Y-89.144
X-47.412 Y-88.842
X-46.846 Y-88.528
X-46.288 Y-88.201
X-45.737 Y-87.861
X-45.194 Y-87.509
X-44.659 Y-87.145
X-44.132 Y-86.769
X-43.613 Y-86.382
X-43.103 Y-85.984
X-42.602 Y-85.574
X-42.11 Y-85.153
X-41.628 Y-84.722
X-41.154 Y-84.28
X-40.691 Y-83.829
X-40.237 Y-83.367
X-39.794 Y-82.895
X-39.361 Y-82.414
X-38.939 Y-81.924
X-38.527 Y-81.425
X-38.126 Y-80.917
X-37.736 Y-80.4
X-37.359 Y-79.874
X-36.993 Y-79.34
X-36.639 Y-78.798
X-36.298 Y-78.248
X-35.969 Y-77.691
X-35.653 Y-77.126
X-35.349 Y-76.554
X-35.059 Y-75.976
X-34.781 Y-75.392
X-34.516 Y-74.801
X-34.264 Y-74.205
X-34.025 Y-73.604
X-33.799 Y-72.997
X-33.586 Y-72.386
X-33.387 Y-71.77
X-33.201 Y-71.15
X-33.029 Y-70.526
X-32.87 Y-69.899
X-32.725 Y-69.268
X-32.593 Y-68.634
X-32.475 Y-67.998
X-32.371 Y-67.359
X-32.281 Y-66.718
X-32.205 Y-66.075
X-32.144 Y-65.431
X-32.097 Y-64.786
X-32.065 Y-64.139
X-32.047 Y-63.492
X-32.044 Y-62.845
X-32.055 Y-62.198
X-32.081 Y-61.551
X-32.122 Y-60.905
X-32.176 Y-60.26
X-32.245 Y-59.617
X-32.328 Y-58.975
X-32.424 Y-58.335
X-32.535 Y-57.697
X-32.66 Y-57.062
X-32.798 Y-56.43
X-32.95 Y-55.801
X-33.116 Y-55.175
X-33.295 Y-54.553
X-33.488 Y-53.935
X-33.694 Y-53.322
X-33.913 Y-52.713
X-34.146 Y-52.109
X-34.392 Y-51.51
X-34.651 Y-50.917
X-34.923 Y-50.33
X-35.209 Y-49.749
X-35.508 Y-49.175
X-35.82 Y-48.608
X-36.144 Y-48.048
X-36.481 Y-47.495
X-36.83 Y-46.95
X-37.191 Y-46.413
X-37.564 Y-45.884
X-37.949 Y-45.364
X-38.345 Y-44.852
X-38.752 Y-44.348
X-39.17 Y-43.854
X-39.598 Y-43.369
X-40.037 Y-42.893
X-40.486 Y-42.427
X-40.945 Y-41.971
X-41.414 Y-41.525
X-41.893 Y-41.089
X-42.381 Y-40.664
X-42.877 Y-40.249
X-43.383 Y-39.846
X-43.898 Y-39.453
X-44.421 Y-39.072
X-44.953 Y-38.704
X-45.493 Y-38.347
X-46.041 Y-38.002
X-46.596 Y-37.67
X-47.159 Y-37.35
X-47.729 Y-37.043
X-48.305 Y-36.749
X-48.888 Y-36.468
X-49.477 Y-36.199
X-50.072 Y-35.943
X-50.672 Y-35.701
X-51.277 Y-35.471
X-51.887 Y-35.255
X-52.501 Y-35.052
X-53.12 Y-34.862
X-53.743 Y-34.685
X-54.369 Y-34.522
X-54.999 Y-34.373
X-55.632 Y-34.237
X-56.267 Y-34.115
X-56.905 Y-34.006
X-57.546 Y-33.912
X-58.188 Y-33.831
X-58.832 Y-33.765
X-59.477 Y-33.714
X-60.123 Y-33.677
X-60.77 Y-33.654
X-61.417 Y-33.646
X-62.064 Y-33.652
X-62.711 Y-33.673
X-63.357 Y-33.708
X-64.003 Y-33.757
X-64.647 Y-33.82
X-65.289 Y-33.897
X-65.93 Y-33.988
X-66.569 Y-34.093
X-67.205 Y-34.212
X-67.839 Y-34.344
X-68.469 Y-34.49
X-69.097 Y-34.649
X-69.72 Y-34.822
X-70.34 Y-35.008
X-70.956 Y-35.207
X-71.567 Y-35.42
X-72.174 Y-35.645
X-72.776 Y-35.884
X-73.372 Y-36.136
X-73.962 Y-36.401
X-74.547 Y-36.679
X-75.125 Y-36.97
X-75.696 Y-37.273
X-76.261 Y-37.59
X-76.819 Y-37.918
X-77.369 Y-38.259
X-77.911 Y-38.612
X-78.446 Y-38.977
X-78.973 Y-39.353
X-79.491 Y-39.741
X-80.001 Y-40.139
X-80.502 Y-40.549
X-80.995 Y-40.969
X-81.478 Y-41.399
X-81.952 Y-41.84
X-82.416 Y-42.291
X-82.871 Y-42.751
X-83.316 Y-43.221
X-83.751 Y-43.701
X-84.175 Y-44.19
X-84.589 Y-44.687
X-84.992 Y-45.194
X-85.384 Y-45.709
X-85.764 Y-46.232
X-86.133 Y-46.764
X-86.489 Y-47.304
X-86.834 Y-47.852
X-87.167 Y-48.407
X-87.487 Y-48.97
X-87.795 Y-49.539
X-88.09 Y-50.115
X-88.373 Y-50.697
X-88.643 Y-51.285
X-88.901 Y-51.879
X-89.145 Y-52.478
X-89.377 Y-53.083
X-89.596 Y-53.692
X-89.801 Y-54.306
X-89.994 Y-54.923
X-90.173 Y-55.545
X-90.339 Y-56.171
X-90.492 Y-56.8
X-90.632 Y-57.432
X-90.758 Y-58.067
X-90.87 Y-58.704
X-90.969 Y-59.344
X-91.054 Y-59.985
X-91.125 Y-60.629
X-91.181 Y-61.273
X-91.223 Y-61.919
X-91.251 Y-62.566
X-91.265 Y-63.213
X-91.264 Y-63.86
X-91.25 Y-64.507
X-91.221 Y-65.154
X-91.178 Y-65.8
X-91.121 Y-66.444
X-91.051 Y-67.088
X-90.967 Y-67.729
X-90.868 Y-68.369
X-90.757 Y-69.007
X-90.632 Y-69.642
X-90.493 Y-70.274
X-90.341 Y-70.903
X-90.175 Y-71.529
X-89.997 Y-72.151
X-89.805 Y-72.769
X-89.6 Y-73.383
X-89.383 Y-73.992
X-89.152 Y-74.597
X-88.908 Y-75.197
X-88.651 Y-75.791
X-88.382 Y-76.379
X-88.099 Y-76.961
X-87.803 Y-77.537
X-87.495 Y-78.106
X-87.175 Y-78.668
X-86.842 Y-79.224
X-86.497 Y-79.771
X-86.14 Y-80.311
X-85.772 Y-80.844
X-85.393 Y-81.368
X-85.002 Y-81.884
X-84.601 Y-82.392
X-84.188 Y-82.89
X-83.765 Y-83.38
X-83.332 Y-83.861
X-82.889 Y-84.333
X-82.436 Y-84.795
X-81.973 Y-85.248
X-81.501 Y-85.69
X-81.019 Y-86.123
X-80.529 Y-86.545
X-80.029 Y-86.956
X-79.521 Y-87.357
X-79.004 Y-87.747
X-78.479 Y-88.125
X-77.945 Y-88.491
X-77.404 Y-88.846
X-76.855 Y-89.188
X-76.298 Y-89.519
X-75.734 Y-89.837
X-75.164 Y-90.143
X-74.587 Y-90.436
X-74.004 Y-90.717
X-73.415 Y-90.985
X-72.821 Y-91.241
X-72.221 Y-91.484
X-71.616 Y-91.714
X-71.006 Y-91.931
X-70.392 Y-92.135
X-69.773 Y-92.326
X-69.151 Y-92.504
X-68.525 Y-92.668
X-67.896 Y-92.82
X-67.263 Y-92.958
X-66.628 Y-93.083
X-65.991 Y-93.194
X-65.351 Y-93.291
X-64.709 Y-93.375
X-64.066 Y-93.444
X-63.421 Y-93.499
X-62.775 Y-93.54
X-62.128 Y-93.567
X-61.481 Y-93.58
X-60.834 Y-93.578
X-60.187 Y-93.563
X-59.54 Y-93.533
X-58.894 Y-93.49
X-58.25 Y-93.432
X-57.607 Y-93.361
X-56.965 Y-93.276
X-56.325 Y-93.178
X-55.688 Y-93.066
X-55.053 Y-92.94
X-54.421 Y-92.801
X-53.792 Y-92.649
X-53.166 Y-92.484
X-52.544 Y-92.305
X-51.925 Y-92.114
X-51.311 Y-91.909
X-50.702 Y-91.692
X-50.097 Y-91.462
X-49.497 Y-91.219
X-48.903 Y-90.962
X-48.314 Y-90.693
X-47.732 Y-90.411
X-47.155 Y-90.117
X-46.586 Y-89.81
X-46.023 Y-89.49
X-45.467 Y-89.159
X-44.918 Y-88.816
X-44.377 Y-88.461
X-43.843 Y-88.094
X-43.318 Y-87.717
X-42.8 Y-87.328
X-42.291 Y-86.929
X-41.79 Y-86.519
X-41.298 Y-86.098
X-40.815 Y-85.667
X-40.341 Y-85.227
X-39.876 Y-84.776
X-39.421 Y-84.316
X-38.976 Y-83.846
X-38.54 Y-83.368
X-38.114 Y-82.88
X-37.699 Y-82.384
X-37.294 Y-81.879
X-36.901 Y-81.365
X-36.518 Y-80.843
X-36.147 Y-80.313
X-35.787 Y-79.775
X-35.439 Y-79.229
X-35.103 Y-78.676
X-34.778 Y-78.116
X-34.466 Y-77.549
X-34.166 Y-76.976
X-33.878 Y-76.396
X-33.602 Y-75.81
X-33.339 Y-75.219
X-33.089 Y-74.622
X-32.85 Y-74.021
X-32.625 Y-73.414
X-32.412 Y-72.803
X-32.212 Y-72.187
X-32.025 Y-71.568
X-31.85 Y-70.944
X-31.689 Y-70.318
X-31.541 Y-69.688
X-31.405 Y-69.055
X-31.283 Y-68.419
X-31.174 Y-67.781
X-31.079 Y-67.141
X-30.998 Y-66.499
X-30.93 Y-65.855
X-30.877 Y-65.21
X-30.837 Y-64.564
X-30.811 Y-63.918
X-30.799 Y-63.27
X-30.801 Y-62.623
X-30.817 Y-61.976
X-30.846 Y-61.33
X-30.889 Y-60.684
X-30.946 Y-60.039
X-31.017 Y-59.396
X-31.101 Y-58.754
X-31.198 Y-58.114
X-31.309 Y-57.477
X-31.433 Y-56.841
X-31.571 Y-56.209
X-31.721 Y-55.579
X-31.885 Y-54.953
X-32.061 Y-54.33
X-32.25 Y-53.712
X-32.453 Y-53.097
X-32.668 Y-52.486
X-32.896 Y-51.881
X-33.137 Y-51.28
X-33.39 Y-50.684
X-33.657 Y-50.095
X-33.936 Y-49.511
X-34.228 Y-48.933
X-34.532 Y-48.362
X-34.848 Y-47.797
X-35.177 Y-47.239
X-35.517 Y-46.689
X-35.869 Y-46.146
X-36.233 Y-45.61
X-36.607 Y-45.083
X-36.993 Y-44.563
X-37.39 Y-44.051
X-37.797 Y-43.548
X-38.215 Y-43.054
X-38.642 Y-42.568
X-39.08 Y-42.092
X-39.528 Y-41.624
X-39.985 Y-41.166
X-40.452 Y-40.718
X-40.928 Y-40.279
X-41.413 Y-39.851
X-41.907 Y-39.433
X-42.41 Y-39.025
X-42.921 Y-38.628
X-43.441 Y-38.242
X-43.969 Y-37.868
X-44.504 Y-37.505
X-45.048 Y-37.153
X-45.599 Y-36.814
X-46.157 Y-36.486
X-46.722 Y-36.17
X-47.293 Y-35.866
X-47.871 Y-35.575
X-48.455 Y-35.295
X-49.045 Y-35.028
X-49.64 Y-34.774
X-50.24 Y-34.532
X-50.845 Y-34.302
X-51.455 Y-34.086
X-52.069 Y-33.881
X-52.687 Y-33.69
X-53.31 Y-33.512
X-53.935 Y-33.346
X-54.564 Y-33.193
X-55.196 Y-33.054
X-55.831 Y-32.927
X-56.468 Y-32.814
X-57.108 Y-32.714
X-57.749 Y-32.628
X-58.392 Y-32.556
X-59.037 Y-32.497
X-59.682 Y-32.452
X-60.329 Y-32.422
X-60.976 Y-32.404
X-61.623 Y-32.401
X-62.27 Y-32.411
X-62.917 Y-32.436
X-63.563 Y-32.473
X-64.208 Y-32.525
X-64.852 Y-32.589
X-65.495 Y-32.668
X-66.136 Y-32.759
X-66.774 Y-32.864
X-67.411 Y-32.982
X-68.044 Y-33.113
X-68.675 Y-33.257
X-69.303 Y-33.414
X-69.928 Y-33.584
X-70.549 Y-33.767
X-71.166 Y-33.963
X-71.778 Y-34.171
X-72.387 Y-34.392
X-72.99 Y-34.625
X-73.589 Y-34.872
X-74.182 Y-35.131
X-74.769 Y-35.402
X-75.351 Y-35.686
X-75.926 Y-35.983
X-76.495 Y-36.291
X-77.058 Y-36.612
X-77.613 Y-36.944
X-78.161 Y-37.288
X-78.702 Y-37.643
X-79.236 Y-38.009
X-79.762 Y-38.387
X-80.28 Y-38.775
X-80.789 Y-39.174
X-81.291 Y-39.583
X-81.783 Y-40.003
X-82.267 Y-40.432
X-82.743 Y-40.872
X-83.209 Y-41.321
X-83.665 Y-41.779
X-84.113 Y-42.247
X-84.551 Y-42.724
X-84.978 Y-43.21
X-85.396 Y-43.704
X-85.803 Y-44.207
X-86.199 Y-44.719
X-86.585 Y-45.239
X-86.96 Y-45.767
X-87.323 Y-46.302
X-87.675 Y-46.845
X-88.015 Y-47.396
X-88.344 Y-47.954
X-88.66 Y-48.518
X-88.965 Y-49.089
X-89.258 Y-49.666
X-89.539 Y-50.249
X-89.808 Y-50.838
X-90.064 Y-51.432
X-90.308 Y-52.032
X-90.54 Y-52.636
X-90.76 Y-53.245
X-90.967 Y-53.858
X-91.161 Y-54.475
X-91.343 Y-55.097
X-91.512 Y-55.721
X-91.668 Y-56.349
X-91.811 Y-56.981
X-91.942 Y-57.614
X-92.059 Y-58.251
X-92.163 Y-58.89
X-92.253 Y-59.531
X-92.331 Y-60.173
X-92.394 Y-60.817
X-92.444 Y-61.463
X-92.48 Y-62.109
X-92.503 Y-62.756
X-92.512 Y-63.403
X-92.507 Y-64.05
X-92.489 Y-64.697
X-92.458 Y-65.343
X-92.413 Y-65.989
X-92.355 Y-66.634
X-92.283 Y-67.277
X-92.198 Y-67.919
X-92.1 Y-68.558
X-91.989 Y-69.196
X-91.865 Y-69.831
X-91.728 Y-70.464
X-91.579 Y-71.093
X-91.416 Y-71.72
X-91.241 Y-72.343
X-91.053 Y-72.962
X-90.852 Y-73.578
X-90.639 Y-74.189
X-90.413 Y-74.795
X-90.175 Y-75.397
X-89.924 Y-75.994
X-89.66 Y-76.585
X-89.385 Y-77.17
X-89.096 Y-77.75
X-88.796 Y-78.323
X-88.484 Y-78.89
X-88.16 Y-79.45
X-87.824 Y-80.004
X-87.477 Y-80.55
X-87.119 Y-81.089
X-86.749 Y-81.62
X-86.369 Y-82.144
X-85.978 Y-82.66
X-85.576 Y-83.167
X-85.164 Y-83.666
X-84.742 Y-84.157
X-84.31 Y-84.639
X-83.869 Y-85.112
X-83.418 Y-85.577
X-82.957 Y-86.031
X-82.488 Y-86.477
X-82.009 Y-86.913
X-81.522 Y-87.338
X-81.026 Y-87.754
X-80.521 Y-88.159
X-80.008 Y-88.554
X-79.487 Y-88.937
X-78.957 Y-89.31
X-78.42 Y-89.671
X-77.876 Y-90.021
X-77.324 Y-90.36
X-76.766 Y-90.687
X-76.2 Y-91.002
X-75.629 Y-91.305
X-75.051 Y-91.597
X-74.467 Y-91.876
X-73.878 Y-92.143
X-73.283 Y-92.398
X-72.683 Y-92.641
X-72.078 Y-92.872
X-71.469 Y-93.09
X-70.855 Y-93.295
X-70.237 Y-93.488
X-69.616 Y-93.669
X-68.991 Y-93.837
X-68.362 Y-93.992
X-67.731 Y-94.134
X-67.097 Y-94.264
X-66.46 Y-94.38
X-65.821 Y-94.483
X-65.18 Y-94.573
X-64.537 Y-94.649
X-63.893 Y-94.711
X-63.248 Y-94.76
X-62.602 Y-94.796
X-61.955 Y-94.818
X-61.308 Y-94.826
X-60.66 Y-94.821
X-60.013 Y-94.803
X-59.367 Y-94.771
X-58.721 Y-94.726
X-58.077 Y-94.667
X-57.434 Y-94.595
X-56.792 Y-94.51
X-56.152 Y-94.412
X-55.514 Y-94.301
X-54.879 Y-94.178
X-54.247 Y-94.041
X-53.617 Y-93.891
X-52.99 Y-93.729
X-52.367 Y-93.554
X-51.748 Y-93.367
X-51.132 Y-93.167
X-50.521 Y-92.954
X-49.914 Y-92.729
X-49.312 Y-92.491
X-48.715 Y-92.241
X-48.124 Y-91.979
X-47.538 Y-91.704
X-46.957 Y-91.417
X-46.383 Y-91.118
X-45.816 Y-90.807
X-45.255 Y-90.485
X-44.7 Y-90.151
X-44.153 Y-89.805
X-43.613 Y-89.449
X-43.08 Y-89.081
X-42.555 Y-88.703
X-42.037 Y-88.314
X-41.528 Y-87.915
X-41.027 Y-87.505
X-40.534 Y-87.086
X-40.049 Y-86.657
X-39.574 Y-86.218
X-39.107 Y-85.769
X-38.649 Y-85.312
X-38.201 Y-84.845
X-37.762 Y-84.369
X-37.333 Y-83.885
X-36.913 Y-83.392
X-36.504 Y-82.891
X-36.105 Y-82.381
X-35.717 Y-81.863
X-35.34 Y-81.337
X-34.973 Y-80.804
X-34.618 Y-80.263
X-34.274 Y-79.715
X-33.941 Y-79.16
X-33.62 Y-78.598
X-33.31 Y-78.029
X-33.012 Y-77.455
X-32.725 Y-76.875
X-32.451 Y-76.289
X-32.188 Y-75.697
X-31.937 Y-75.1
X-31.698 Y-74.499
X-31.472 Y-73.892
X-31.258 Y-73.282
X-31.055 Y-72.667
X-30.866 Y-72.048
X-30.688 Y-71.426
X-30.523 Y-70.8
X-30.371 Y-70.171
X-30.231 Y-69.539
X-30.104 Y-68.904
X-29.99 Y-68.267
X-29.889 Y-67.628
X-29.801 Y-66.987
X-29.726 Y-66.344
X-29.665 Y-65.7
X-29.617 Y-65.054
X-29.582 Y-64.408
X-29.56 Y-63.761
X-29.552 Y-63.114
X-29.557 Y-62.467
X-29.575 Y-61.82
X-29.607 Y-61.173
X-29.652 Y-60.528
X-29.709 Y-59.883
X-29.78 Y-59.24
X-29.864 Y-58.598
X-29.961 Y-57.958
X-30.07 Y-57.32
X-30.192 Y-56.684
X-30.327 Y-56.051
X-30.475 Y-55.421
X-30.635 Y-54.794
X-30.808 Y-54.17
X-30.993 Y-53.55
X-31.191 Y-52.934
X-31.401 Y-52.322
X-31.624 Y-51.714
X-31.859 Y-51.111
X-32.106 Y-50.513
X-32.366 Y-49.92
X-32.638 Y-49.333
X-32.922 Y-48.751
X-33.218 Y-48.176
X-33.525 Y-47.606
X-33.845 Y-47.043
X-34.176 Y-46.487
X-34.518 Y-45.938
X-34.871 Y-45.396
X-35.236 Y-44.861
X-35.611 Y-44.333
X-35.997 Y-43.814
X-36.393 Y-43.302
X-36.799 Y-42.798
X-37.216 Y-42.303
X-37.642 Y-41.816
X-38.078 Y-41.337
X-38.523 Y-40.868
X-38.978 Y-40.407
X-39.442 Y-39.956
X-39.915 Y-39.514
X-40.397 Y-39.082
X-40.887 Y-38.659
X-41.386 Y-38.247
X-41.893 Y-37.845
X-42.408 Y-37.453
X-42.932 Y-37.073
X-43.463 Y-36.703
X-44.001 Y-36.344
X-44.547 Y-35.996
X-45.1 Y-35.66
X-45.66 Y-35.335
X-46.226 Y-35.021
X-46.799 Y-34.719
X-47.377 Y-34.429
X-47.961 Y-34.15
X-48.551 Y-33.884
X-49.146 Y-33.629
X-49.746 Y-33.386
X-50.351 Y-33.156
X-50.96 Y-32.937
X-51.573 Y-32.731
X-52.191 Y-32.537
X-52.812 Y-32.355
X-53.437 Y-32.185
X-54.065 Y-32.028
X-54.695 Y-31.884
X-55.329 Y-31.753
X-55.965 Y-31.634
X-56.604 Y-31.528
X-57.245 Y-31.436
X-57.887 Y-31.356
X-58.531 Y-31.29
X-59.176 Y-31.236
X-59.822 Y-31.196
X-60.468 Y-31.17
X-61.115 Y-31.156
X-61.763
X-62.41 Y-31.169
X-63.056 Y-31.194
X-63.702 Y-31.233
X-64.348 Y-31.285
X-64.992 Y-31.35
X-65.634 Y-31.428
X-66.275 Y-31.519
X-66.914 Y-31.622
X-67.551 Y-31.738
X-68.185 Y-31.867
X-68.816 Y-32.008
X-69.445 Y-32.162
X-70.071 Y-32.328
X-70.693 Y-32.507
X-71.311 Y-32.698
X-71.926 Y-32.901
X-72.536 Y-33.116
X-73.142 Y-33.344
X-73.743 Y-33.584
X-74.339 Y-33.837
X-74.93 Y-34.101
X-75.515 Y-34.377
X-76.094 Y-34.666
X-76.668 Y-34.965
X-77.235 Y-35.277
X-77.796 Y-35.6
X-78.35 Y-35.934
X-78.898 Y-36.279
X-79.438 Y-36.635
X-79.971 Y-37.002
X-80.497 Y-37.38
X-81.015 Y-37.768
X-81.525 Y-38.166
X-82.028 Y-38.574
X-82.522 Y-38.992
X-83.008 Y-39.42
X-83.485 Y-39.857
X-83.953 Y-40.304
X-84.413 Y-40.759
X-84.864 Y-41.224
X-85.305 Y-41.697
X-85.737 Y-42.18
X-86.158 Y-42.67
X-86.57 Y-43.17
X-86.972 Y-43.677
X-87.364 Y-44.192
X-87.745 Y-44.715
X-88.115 Y-45.246
X-88.475 Y-45.785
X-88.823 Y-46.33
X-89.16 Y-46.882
X-89.487 Y-47.441
X-89.801 Y-48.007
X-90.105 Y-48.578
X-90.397 Y-49.156
X-90.677 Y-49.739
X-90.946 Y-50.328
X-91.203 Y-50.922
X-91.448 Y-51.521
X-91.681 Y-52.125
X-91.902 Y-52.733
X-92.112 Y-53.346
X-92.309 Y-53.962
X-92.494 Y-54.582
X-92.667 Y-55.206
X-92.827 Y-55.833
X-92.976 Y-56.463
X-93.111 Y-57.096
X-93.234 Y-57.731
X-93.344 Y-58.369
X-93.441 Y-59.009
X-93.526 Y-59.651
X-93.597 Y-60.294
X-93.656 Y-60.939
X-93.701 Y-61.584
X-93.733 Y-62.231
X-93.753 Y-62.878
X-93.759 Y-63.525
X-93.752 Y-64.172
X-93.732 Y-64.819
X-93.7 Y-65.465
X-93.654 Y-66.111
X-93.596 Y-66.755
X-93.525 Y-67.399
X-93.441 Y-68.04
X-93.344 Y-68.68
X-93.235 Y-69.318
X-93.114 Y-69.954
X-92.98 Y-70.587
X-92.833 Y-71.218
X-92.675 Y-71.845
X-92.504 Y-72.47
X-92.321 Y-73.09
X-92.125 Y-73.707
X-91.917 Y-74.32
X-91.697 Y-74.929
X-91.465 Y-75.533
X-91.221 Y-76.132
X-90.964 Y-76.727
X-90.696 Y-77.316
X-90.416 Y-77.899
X-90.124 Y-78.477
X-89.821 Y-79.049
X-89.506 Y-79.614
X-89.18 Y-80.173
X-88.843 Y-80.726
X-88.495 Y-81.271
X-88.136 Y-81.81
X-87.766 Y-82.341
X-87.386 Y-82.865
X-86.996 Y-83.381
X-86.596 Y-83.89
X-86.185 Y-84.39
X-85.765 Y-84.883
X-85.336 Y-85.367
X-84.897 Y-85.842
X-84.448 Y-86.309
X-83.991 Y-86.767
X-83.525 Y-87.216
X-83.05 Y-87.656
X-82.566 Y-88.086
X-82.074 Y-88.506
X-81.573 Y-88.916
X-81.065 Y-89.317
X-80.548 Y-89.706
X-80.024 Y-90.086
X-79.492 Y-90.455
X-78.953 Y-90.813
X-78.406 Y-91.16
X-77.853 Y-91.496
X-77.294 Y-91.821
X-76.727 Y-92.134
X-76.155 Y-92.437
X-75.577 Y-92.727
X-74.993 Y-93.007
X-74.404 Y-93.274
X-73.809 Y-93.53
X-73.21 Y-93.774
X-72.606 Y-94.007
X-71.997 Y-94.227
X-71.384 Y-94.435
X-70.768 Y-94.632
X-70.147 Y-94.816
X-69.523 Y-94.988
X-68.896 Y-95.148
X-68.266 Y-95.295
X-67.633 Y-95.43
X-66.997 Y-95.552
X-66.359 Y-95.662
X-65.719 Y-95.758
X-65.078 Y-95.842
X-64.434 Y-95.913
X-63.79 Y-95.971
X-63.144 Y-96.016
X-62.498 Y-96.048
X-61.851 Y-96.067
X-61.203 Y-96.073
X-60.556 Y-96.066
X-59.909 Y-96.046
X-59.263 Y-96.014
X-58.617 Y-95.968
X-57.973 Y-95.91
X-57.329 Y-95.839
X-56.688 Y-95.756
X-56.048 Y-95.659
X-55.41 Y-95.551
X-54.774 Y-95.43
X-54.14 Y-95.296
X-53.51 Y-95.15
X-52.882 Y-94.992
X-52.258 Y-94.822
X-51.637 Y-94.639
X-51.02 Y-94.445
X-50.407 Y-94.238
X-49.798 Y-94.018
X-49.193 Y-93.787
X-48.593 Y-93.544
X-47.998 Y-93.289
X-47.409 Y-93.022
X-46.824 Y-92.744
X-46.246 Y-92.454
X-45.673 Y-92.152
X-45.107 Y-91.839
X-44.547 Y-91.515
X-43.993 Y-91.179
X-43.446 Y-90.833
X-42.906 Y-90.476
X-42.373 Y-90.109
X-41.848 Y-89.731
X-41.33 Y-89.343
X-40.819 Y-88.946
X-40.317 Y-88.538
X-39.822 Y-88.12
X-39.335 Y-87.694
X-38.857 Y-87.257
X-38.388 Y-86.812
X-37.927 Y-86.358
X-37.475 Y-85.894
X-37.032 Y-85.422
X-36.599 Y-84.942
X-36.175 Y-84.453
X-35.76 Y-83.955
X-35.356 Y-83.45
X-34.961 Y-82.937
X-34.577 Y-82.416
X-34.203 Y-81.888
X-33.84 Y-81.352
X-33.487 Y-80.809
X-33.146 Y-80.26
X-32.815 Y-79.704
X-32.495 Y-79.141
X-32.186 Y-78.572
X-31.888 Y-77.997
X-31.602 Y-77.417
X-31.327 Y-76.831
X-31.063 Y-76.24
X-30.811 Y-75.644
X-30.571 Y-75.043
X-30.342 Y-74.438
X-30.125 Y-73.828
X-29.92 Y-73.214
X-29.726 Y-72.596
X-29.544 Y-71.975
X-29.375 Y-71.351
X-29.218 Y-70.723
X-29.073 Y-70.092
X-28.94 Y-69.459
X-28.819 Y-68.823
X-28.712 Y-68.185
X-28.616 Y-67.544
X-28.534 Y-66.902
X-28.464 Y-66.259
X-28.406 Y-65.614
X-28.362 Y-64.969
X-28.33 Y-64.322
X-28.311 Y-63.675
X-28.305 Y-63.028
X-28.311 Y-62.381
X-28.331 Y-61.734
X-28.363 Y-61.088
X-28.407 Y-60.442
X-28.464 Y-59.797
X-28.534 Y-59.154
X-28.616 Y-58.512
X-28.711 Y-57.871
X-28.817 Y-57.233
X-28.937 Y-56.597
X-29.068 Y-55.963
X-29.212 Y-55.332
X-29.368 Y-54.704
X-29.536 Y-54.079
X-29.716 Y-53.457
X-29.908 Y-52.839
X-30.113 Y-52.225
X-30.329 Y-51.615
X-30.557 Y-51.01
X-30.797 Y-50.409
X-31.05 Y-49.813
X-31.313 Y-49.221
X-31.589 Y-48.636
X-31.876 Y-48.056
X-32.174 Y-47.481
X-32.484 Y-46.913
X-32.805 Y-46.351
X-33.137 Y-45.796
X-33.48 Y-45.247
X-33.833 Y-44.704
X-34.197 Y-44.169
X-34.572 Y-43.641
X-34.956 Y-43.121
X-35.351 Y-42.608
X-35.756 Y-42.103
X-36.17 Y-41.605
X-36.594 Y-41.116
X-37.027 Y-40.635
X-37.469 Y-40.163
X-37.92 Y-39.699
X-38.381 Y-39.244
X-38.85 Y-38.798
X-39.328 Y-38.361
X-39.814 Y-37.934
X-40.308 Y-37.516
X-40.811 Y-37.109
X-41.321 Y-36.711
X-41.839 Y-36.323
X-42.365 Y-35.946
X-42.898 Y-35.579
X-43.439 Y-35.222
X-43.986 Y-34.877
X-44.54 Y-34.542
X-45.1 Y-34.218
X-45.667 Y-33.906
X-46.24 Y-33.604
X-46.818 Y-33.314
X-47.402 Y-33.035
X-47.991 Y-32.767
X-48.586 Y-32.511
X-49.185 Y-32.266
X-49.789 Y-32.033
X-50.397 Y-31.811
X-51.009 Y-31.602
X-51.625 Y-31.404
X-52.245 Y-31.218
X-52.869 Y-31.044
X-53.495 Y-30.882
X-54.125 Y-30.732
X-54.757 Y-30.595
X-55.392 Y-30.47
X-56.03 Y-30.357
X-56.669 Y-30.257
X-57.31 Y-30.169
X-57.953 Y-30.094
X-58.597 Y-30.031
X-59.243 Y-29.982
X-59.889 Y-29.944
X-60.536 Y-29.92
X-61.183 Y-29.908
X-61.83 Y-29.909
X-62.477 Y-29.923
X-63.124 Y-29.949
X-63.77 Y-29.988
X-64.415 Y-30.039
X-65.059 Y-30.103
X-65.702 Y-30.179
X-66.343 Y-30.267
X-66.982 Y-30.368
X-67.62 Y-30.481
X-68.255 Y-30.606
X-68.887 Y-30.743
X-69.517 Y-30.892
X-70.144 Y-31.053
X-70.767 Y-31.227
X-71.387 Y-31.412
X-72.004 Y-31.61
X-72.616 Y-31.819
X-73.224 Y-32.04
X-73.828 Y-32.273
X-74.427 Y-32.518
X-75.022 Y-32.774
X-75.611 Y-33.042
X-76.195 Y-33.321
X-76.773 Y-33.612
X-77.346 Y-33.914
X-77.912 Y-34.227
X-78.472 Y-34.551
X-79.026 Y-34.885
X-79.574 Y-35.231
X-80.114 Y-35.587
X-80.648 Y-35.953
X-81.174 Y-36.329
X-81.694 Y-36.716
X-82.205 Y-37.112
X-82.709 Y-37.518
X-83.206 Y-37.933
X-83.694 Y-38.358
X-84.174 Y-38.792
X-84.646 Y-39.236
X-85.109 Y-39.688
X-85.563 Y-40.149
X-86.008 Y-40.618
X-86.445 Y-41.096
X-86.872 Y-41.583
X-87.289 Y-42.077
X-87.697 Y-42.58
X-88.095 Y-43.09
X-88.483 Y-43.608
X-88.861 Y-44.133
X-89.229 Y-44.666
X-89.586 Y-45.206
X-89.933 Y-45.752
X-90.269 Y-46.306
X-90.594 Y-46.865
X-90.908 Y-47.431
X-91.212 Y-48.003
X-91.504 Y-48.58
X-91.785 Y-49.163
X-92.055 Y-49.751
X-92.314 Y-50.345
X-92.561 Y-50.943
X-92.797 Y-51.545
X-93.021 Y-52.152
X-93.234 Y-52.764
X-93.435 Y-53.379
X-93.625 Y-53.998
X-93.802 Y-54.62
X-93.968 Y-55.246
X-94.122 Y-55.874
X-94.263 Y-56.506
X-94.393 Y-57.14
X-94.51 Y-57.777
X-94.615 Y-58.415
X-94.708 Y-59.056
X-94.788 Y-59.698
X-94.855 Y-60.342
X-94.911 Y-60.987
X-94.953 Y-61.632
X-94.983 Y-62.279
X-95.001 Y-62.926
X-95.006 Y-63.573
X-94.999 Y-64.22
X-94.979 Y-64.867
X-94.947 Y-65.514
X-94.902 Y-66.159
X-94.845 Y-66.804
X-94.776 Y-67.448
X-94.694 Y-68.09
X-94.601 Y-68.73
X-94.495 Y-69.369
X-94.377 Y-70.005
X-94.247 Y-70.639
X-94.105 Y-71.27
X-93.951 Y-71.899
X-93.785 Y-72.525
X-93.608 Y-73.147
X-93.418 Y-73.766
X-93.216 Y-74.381
X-93.003 Y-74.992
X-92.778 Y-75.599
X-92.542 Y-76.201
X-92.293 Y-76.799
X-92.034 Y-77.392
X-91.763 Y-77.979
X-91.48 Y-78.562
X-91.186 Y-79.139
X-90.882 Y-79.71
X-90.566 Y-80.274
X-90.239 Y-80.833
X-89.902 Y-81.386
X-89.554 Y-81.931
X-89.196 Y-82.47
X-88.827 Y-83.003
X-88.449 Y-83.528
X-88.06 Y-84.045
X-87.662 Y-84.555
X-87.255 Y-85.058
X-86.837 Y-85.553
X-86.411 Y-86.04
X-85.975 Y-86.518
X-85.53 Y-86.989
X-85.077 Y-87.45
X-84.614 Y-87.903
X-84.144 Y-88.347
X-83.664 Y-88.782
X-83.177 Y-89.208
X-82.681 Y-89.624
X-82.178 Y-90.031
X-81.666 Y-90.427
X-81.147 Y-90.814
X-80.621 Y-91.191
X-80.088 Y-91.558
X-79.547 Y-91.914
X-79 Y-92.26
X-78.446 Y-92.595
X-77.886 Y-92.919
X-77.32 Y-93.232
X-76.748 Y-93.535
X-76.17 Y-93.826
X-75.587 Y-94.107
X-74.998 Y-94.376
X-74.405 Y-94.634
X-73.806 Y-94.881
X-73.203 Y-95.116
X-72.596 Y-95.34
X-71.985 Y-95.552
X-71.369 Y-95.753
X-70.75 Y-95.942
X-70.128 Y-96.119
X-69.502 Y-96.284
X-68.873 Y-96.437
X-68.242 Y-96.579
X-67.607 Y-96.708
X-66.971 Y-96.825
X-66.332 Y-96.929
X-65.691 Y-97.022
X-65.049 Y-97.102
X-64.406 Y-97.17
X-63.761 Y-97.225
X-63.115 Y-97.267
X-62.468 Y-97.298
X-61.821 Y-97.315
X-61.174 Y-97.321
X-60.527 Y-97.314
X-59.88 Y-97.294
X-59.234 Y-97.262
X-58.588 Y-97.218
X-57.943 Y-97.162
X-57.3 Y-97.093
X-56.657 Y-97.012
X-56.017 Y-96.919
X-55.378 Y-96.814
X-54.742 Y-96.697
X-54.108 Y-96.568
X-53.476 Y-96.427
X-52.847 Y-96.273
X-52.221 Y-96.108
X-51.599 Y-95.932
X-50.98 Y-95.743
X-50.364 Y-95.543
X-49.753 Y-95.331
X-49.145 Y-95.107
X-48.542 Y-94.872
X-47.944 Y-94.625
X-47.35 Y-94.367
X-46.762 Y-94.097
X-46.179 Y-93.817
X-45.601 Y-93.525
X-45.029 Y-93.222
X-44.463 Y-92.908
X-43.903 Y-92.584
X-43.349 Y-92.249
X-42.802 Y-91.903
X-42.262 Y-91.547
X-41.728 Y-91.181
X-41.201 Y-90.805
X-40.681 Y-90.419
X-40.169 Y-90.024
X-39.664 Y-89.619
X-39.167 Y-89.204
X-38.678 Y-88.781
X-38.196 Y-88.348
X-37.723 Y-87.906
X-37.259 Y-87.456
X-36.803 Y-86.996
X-36.355 Y-86.529
X-35.917 Y-86.053
X-35.487 Y-85.568
X-35.067 Y-85.076
X-34.656 Y-84.576
X-34.255 Y-84.068
X-33.863 Y-83.553
X-33.482 Y-83.03
X-33.11 Y-82.501
X-32.748 Y-81.964
X-32.397 Y-81.42
X-32.056 Y-80.87
X-31.726 Y-80.314
X-31.406 Y-79.751
X-31.097 Y-79.182
X-30.798 Y-78.608
X-30.511 Y-78.028
X-30.234 Y-77.443
X-29.968 Y-76.853
X-29.714 Y-76.258
X-29.47 Y-75.658
X-29.238 Y-75.054
X-29.017 Y-74.446
X-28.807 Y-73.833
X-28.609 Y-73.217
X-28.423 Y-72.597
X-28.248 Y-71.974
X-28.085 Y-71.348
X-27.934 Y-70.719
X-27.794 Y-70.087
X-27.666 Y-69.452
X-27.551 Y-68.815
X-27.447 Y-68.176
X-27.355 Y-67.536
X-27.276 Y-66.893
X-27.209 Y-66.25
X-27.154 Y-65.605
X-27.111 Y-64.959
X-27.081 Y-64.312
X-27.063 Y-63.666
X-27.057 Y-63.018
X-27.063 Y-62.371
X-27.082 Y-61.724
X-27.113 Y-61.078
X-27.156 Y-60.432
X-27.211 Y-59.787
X-27.278 Y-59.143
X-27.357 Y-58.501
X-27.448 Y-57.86
X-27.551 Y-57.221
X-27.666 Y-56.584
X-27.793 Y-55.95
X-27.932 Y-55.317
X-28.083 Y-54.688
X-28.245 Y-54.062
X-28.419 Y-53.438
X-28.605 Y-52.818
X-28.803 Y-52.202
X-29.012 Y-51.589
X-29.232 Y-50.981
X-29.465 Y-50.377
X-29.708 Y-49.777
X-29.963 Y-49.182
X-30.229 Y-48.592
X-30.507 Y-48.008
X-30.795 Y-47.428
X-31.094 Y-46.854
X-31.405 Y-46.286
X-31.726 Y-45.724
X-32.057 Y-45.169
X-32.399 Y-44.619
X-32.752 Y-44.076
X-33.114 Y-43.54
X-33.487 Y-43.011
X-33.869 Y-42.489
X-34.261 Y-41.974
X-34.663 Y-41.466
X-35.074 Y-40.966
X-35.494 Y-40.474
X-35.924 Y-39.99
X-36.363 Y-39.514
X-36.81 Y-39.046
X-37.266 Y-38.587
X-37.731 Y-38.137
X-38.204 Y-37.695
X-38.685 Y-37.262
X-39.174 Y-36.838
X-39.671 Y-36.424
X-40.176 Y-36.019
X-40.689 Y-35.624
X-41.209 Y-35.238
X-41.736 Y-34.863
X-42.27 Y-34.497
X-42.811 Y-34.142
X-43.359 Y-33.797
X-43.913 Y-33.463
X-44.473 Y-33.139
X-45.04 Y-32.826
X-45.612 Y-32.523
X-46.189 Y-32.231
X-46.773 Y-31.95
X-47.361 Y-31.68
X-47.954 Y-31.422
X-48.552 Y-31.174
X-49.154 Y-30.937
X-49.761 Y-30.711
X-50.372 Y-30.497
X-50.986 Y-30.295
X-51.605 Y-30.104
X-52.227 Y-29.924
X-52.852 Y-29.756
X-53.48 Y-29.6
X-54.111 Y-29.456
X-54.744 Y-29.323
X-55.38 Y-29.202
X-56.018 Y-29.094
X-56.658 Y-28.997
X-57.3 Y-28.912
X-57.943 Y-28.84
X-58.587 Y-28.78
X-59.233 Y-28.731
X-59.879 Y-28.695
X-60.526 Y-28.672
X-61.173 Y-28.66
X-61.82 Y-28.661
X-62.467 Y-28.674
X-63.114 Y-28.698
X-63.76 Y-28.735
X-64.405 Y-28.784
X-65.05 Y-28.845
X-65.693 Y-28.918
X-66.334 Y-29.003
X-66.974 Y-29.1
X-67.612 Y-29.209
X-68.248 Y-29.329
X-68.882 Y-29.461
X-69.513 Y-29.605
X-70.141 Y-29.761
X-70.766 Y-29.928
X-71.388 Y-30.107
X-72.007 Y-30.298
X-72.622 Y-30.5
X-73.233 Y-30.713
X-73.84 Y-30.938
X-74.442 Y-31.174
X-75.04 Y-31.422
X-75.634 Y-31.68
X-76.222 Y-31.95
X-76.805 Y-32.23
X-77.383 Y-32.522
X-77.955 Y-32.824
X-78.522 Y-33.137
X-79.082 Y-33.461
X-79.637 Y-33.795
X-80.185 Y-34.139
X-80.726 Y-34.493
X-81.261 Y-34.858
X-81.789 Y-35.232
X-82.311 Y-35.616
X-82.824 Y-36.009
X-83.331 Y-36.412
X-83.83 Y-36.824
X-84.321 Y-37.245
X-84.805 Y-37.676
X-85.28 Y-38.115
X-85.747 Y-38.563
X-86.206 Y-39.019
X-86.657 Y-39.484
X-87.098 Y-39.957
X-87.531 Y-40.439
X-87.955 Y-40.928
X-88.369 Y-41.425
X-88.775 Y-41.929
X-89.17 Y-42.442
X-89.557 Y-42.961
X-89.933 Y-43.487
X-90.299 Y-44.021
X-90.656 Y-44.561
X-91.002 Y-45.108
X-91.338 Y-45.661
X-91.664 Y-46.221
X-91.979 Y-46.786
X-92.283 Y-47.357
X-92.577 Y-47.934
X-92.861 Y-48.516
X-93.133 Y-49.103
X-93.395 Y-49.695
X-93.645 Y-50.291
X-93.885 Y-50.893
X-94.114 Y-51.498
X-94.331 Y-52.108
X-94.537 Y-52.721
X-94.732 Y-53.338
X-94.915 Y-53.959
X-95.087 Y-54.583
X-95.247 Y-55.21
X-95.396 Y-55.84
X-95.533 Y-56.473
X-95.658 Y-57.108
X-95.771 Y-57.745
X-95.873 Y-58.384
X-95.963 Y-59.025
X-96.041 Y-59.668
X-96.106 Y-60.311
X-96.16 Y-60.956
X-96.202 Y-61.602
X-96.232 Y-62.249
X-96.249 Y-62.896
X-96.255 Y-63.543
X-96.248 Y-64.19
X-96.23 Y-64.837
X-96.199 Y-65.484
X-96.157 Y-66.13
X-96.103 Y-66.774
X-96.037 Y-67.418
X-95.959 Y-68.061
X-95.869 Y-68.702
X-95.768 Y-69.341
X-95.655 Y-69.978
X-95.53 Y-70.613
X-95.393 Y-71.246
X-95.245 Y-71.876
X-95.085 Y-72.503
X-94.914 Y-73.127
X-94.731 Y-73.748
X-94.537 Y-74.366
X-94.332 Y-74.979
X-94.115 Y-75.589
X-93.887 Y-76.195
X-93.647 Y-76.796
X-93.397 Y-77.393
X-93.136 Y-77.985
X-92.863 Y-78.572
X-92.58 Y-79.154
X-92.286 Y-79.731
X-91.981 Y-80.302
X-91.665 Y-80.867
X-91.34 Y-81.426
X-91.004 Y-81.979
X-90.657 Y-82.526
X-90.301 Y-83.066
X-89.935 Y-83.6
X-89.559 Y-84.127
X-89.173 Y-84.647
X-88.778 Y-85.159
X-88.374 Y-85.665
X-87.96 Y-86.162
X-87.538 Y-86.653
X-87.106 Y-87.135
X-86.665 Y-87.609
X-86.216 Y-88.075
X-85.759 Y-88.533
X-85.293 Y-88.982
X-84.819 Y-89.423
X-84.337 Y-89.854
X-83.847 Y-90.277
X-83.349 Y-90.691
X-82.844 Y-91.095
X-82.331 Y-91.49
X-81.811 Y-91.876
X-81.284 Y-92.251
X-80.75 Y-92.617
X-80.209 Y-92.973
X-79.662 Y-93.318
X-79.108 Y-93.654
X-78.549 Y-93.979
X-77.983 Y-94.293
X-77.412 Y-94.597
X-76.835 Y-94.891
X-76.253 Y-95.174
X-75.665 Y-95.446
X-75.073 Y-95.707
X-74.477 Y-95.958
X-73.875 Y-96.197
X-73.27 Y-96.425
X-72.66 Y-96.642
X-72.046 Y-96.848
X-71.429 Y-97.043
X-70.808 Y-97.226
X-70.184 Y-97.398
X-69.557 Y-97.558
X-68.927 Y-97.707
X-68.295 Y-97.844
X-67.66 Y-97.969
X-67.023 Y-98.083
X-66.383 Y-98.185
X-65.742 Y-98.274
X-65.1 Y-98.353
X-64.456 Y-98.419
X-63.811 Y-98.473
X-63.165 Y-98.515
X-62.519 Y-98.545
X-61.872 Y-98.563
X-61.225 Y-98.569
X-60.577 Y-98.564
X-59.93 Y-98.546
X-59.284 Y-98.516
X-58.638 Y-98.475
X-57.993 Y-98.421
X-57.349 Y-98.356
X-56.706 Y-98.279
X-56.065 Y-98.191
X-55.426 Y-98.09
X-54.789 Y-97.978
X-54.153 Y-97.854
X-53.52 Y-97.718
X-52.89 Y-97.571
X-52.263 Y-97.413
X-51.638 Y-97.243
X-51.017 Y-97.062
X-50.399 Y-96.869
X-49.785 Y-96.665
X-49.174 Y-96.45
X-48.568 Y-96.223
X-47.966 Y-95.986
X-47.368 Y-95.737
X-46.776 Y-95.477
X-46.188 Y-95.207
X-45.605 Y-94.926
X-45.027 Y-94.634
X-44.455 Y-94.331
X-43.889 Y-94.018
X-43.328 Y-93.694
X-42.773 Y-93.361
X-42.225 Y-93.017
X-41.683 Y-92.663
X-41.147 Y-92.3
X-40.619 Y-91.927
X-40.097 Y-91.544
X-39.582 Y-91.152
X-39.074 Y-90.75
X-38.574 Y-90.34
X-38.081 Y-89.92
X-37.596 Y-89.491
X-37.119 Y-89.054
X-36.65 Y-88.608
X-36.189 Y-88.154
X-35.736 Y-87.691
X-35.292 Y-87.22
X-34.857 Y-86.742
X-34.43 Y-86.255
X-34.012 Y-85.761
X-33.603 Y-85.259
X-33.204 Y-84.75
X-32.813 Y-84.234
X-32.433 Y-83.71
X-32.062 Y-83.18
X-31.7 Y-82.643
X-31.349 Y-82.099
X-31.008 Y-81.549
X-30.676 Y-80.994
X-30.355 Y-80.432
X-30.044 Y-79.864
X-29.744 Y-79.291
X-29.454 Y-78.712
X-29.174 Y-78.128
X-28.905 Y-77.54
X-28.647 Y-76.946
X-28.399 Y-76.348
X-28.163 Y-75.746
X-27.937 Y-75.139
X-27.723 Y-74.529
X-27.519 Y-73.914
X-27.327 Y-73.296
X-27.145 Y-72.675
X-26.975 Y-72.05
X-26.817 Y-71.423
X-26.669 Y-70.793
X-26.533 Y-70.16
X-26.409 Y-69.525
X-26.296 Y-68.887
X-26.195 Y-68.248
X-26.105 Y-67.607
X-26.027 Y-66.965
X-25.961 Y-66.321
X-25.907 Y-65.676
X-25.864 Y-65.03
X-25.834 Y-64.384
X-25.815 Y-63.737
X-25.808 Y-63.089
X-25.813 Y-62.442
X-25.829 Y-61.795
X-25.857 Y-61.149
X-25.897 Y-60.503
X-25.949 Y-59.858
X-26.012 Y-59.213
X-26.087 Y-58.571
X-26.174 Y-57.929
X-26.272 Y-57.289
X-26.382 Y-56.652
X-26.504 Y-56.016
X-26.637 Y-55.383
X-26.781 Y-54.752
X-26.937 Y-54.123
X-27.104 Y-53.498
X-27.282 Y-52.876
X-27.472 Y-52.257
X-27.673 Y-51.642
X-27.885 Y-51.03
X-28.108 Y-50.423
X-28.342 Y-49.82
X-28.587 Y-49.221
X-28.844 Y-48.626
X-29.111 Y-48.037
X-29.388 Y-47.452
X-29.677 Y-46.873
X-29.976 Y-46.299
X-30.285 Y-45.73
X-30.605 Y-45.167
X-30.935 Y-44.611
X-31.275 Y-44.06
X-31.625 Y-43.515
X-31.985 Y-42.978
X-32.354 Y-42.446
X-32.733 Y-41.922
X-33.122 Y-41.404
X-33.52 Y-40.894
X-33.927 Y-40.391
X-34.343 Y-39.895
X-34.768 Y-39.407
X-35.202 Y-38.927
X-35.645 Y-38.454
X-36.096 Y-37.99
X-36.555 Y-37.534
X-37.023 Y-37.087
X-37.498 Y-36.648
X-37.982 Y-36.217
X-38.473 Y-35.796
X-38.972 Y-35.383
X-39.478 Y-34.98
X-39.991 Y-34.586
X-40.512 Y-34.201
X-41.039 Y-33.826
X-41.574 Y-33.461
X-42.114 Y-33.106
X-42.662 Y-32.76
X-43.215 Y-32.424
X-43.775 Y-32.099
X-44.34 Y-31.784
X-44.911 Y-31.479
X-45.487 Y-31.185
X-46.069 Y-30.901
X-46.655 Y-30.627
X-47.247 Y-30.364
X-47.843 Y-30.112
X-48.444 Y-29.871
X-49.049 Y-29.641
X-49.657 Y-29.422
X-50.27 Y-29.213
X-50.887 Y-29.016
X-51.507 Y-28.83
X-52.13 Y-28.655
X-52.756 Y-28.491
X-53.385 Y-28.339
X-54.017 Y-28.198
X-54.651 Y-28.068
X-55.287 Y-27.95
