%
(1001)
(acrylic-top0)
(T3  D=1.587 CR=0 TAPER=118deg - ZMIN=-9 - drill)
(T5  D=3.175 CR=0 - ZMIN=-10.5 - flat end mill)
G90
G17
G21
G28 G91 Z0
G90

(2D Adaptive4)
M9
T5 M6
S16000 M3
G54
M9
G0 X-58.512 Y-38.994
Z15.24
Z5.08
Z2.858
G1 Z2.54 F5080
G2 X-58.688 Y-42.006 Z2.375 I-0.088 J-1.506
X-58.512 Y-38.994 Z2.209 I0.088 J1.506
X-58.688 Y-42.006 Z2.044 I-0.088 J-1.506
X-58.512 Y-38.994 Z1.878 I0.088 J1.506
X-58.688 Y-42.006 Z1.713 I-0.088 J-1.506
X-58.512 Y-38.994 Z1.547 I0.088 J1.506
X-58.688 Y-42.006 Z1.382 I-0.088 J-1.506
X-58.512 Y-38.994 Z1.216 I0.088 J1.506
X-58.688 Y-42.006 Z1.051 I-0.088 J-1.506
X-58.512 Y-38.994 Z0.885 I0.088 J1.506
X-58.688 Y-42.006 Z0.72 I-0.088 J-1.506
X-58.512 Y-38.994 Z0.555 I0.088 J1.506
X-58.688 Y-42.006 Z0.389 I-0.088 J-1.506
X-58.512 Y-38.994 Z0.224 I0.088 J1.506
X-58.688 Y-42.006 Z0.058 I-0.088 J-1.506
X-58.512 Y-38.994 Z-0.107 I0.088 J1.506
X-58.688 Y-42.006 Z-0.273 I-0.088 J-1.506
X-58.512 Y-38.994 Z-0.438 I0.088 J1.506
X-58.688 Y-42.006 Z-0.604 I-0.088 J-1.506
X-58.512 Y-38.994 Z-0.769 I0.088 J1.506
X-58.688 Y-42.006 Z-0.934 I-0.088 J-1.506
X-58.512 Y-38.994 Z-1.1 I0.088 J1.506
X-58.688 Y-42.006 Z-1.265 I-0.088 J-1.506
X-58.512 Y-38.994 Z-1.431 I0.088 J1.506
X-58.688 Y-42.006 Z-1.596 I-0.088 J-1.506
X-58.512 Y-38.994 Z-1.762 I0.088 J1.506
X-58.688 Y-42.006 Z-1.927 I-0.088 J-1.506
X-58.512 Y-38.994 Z-2.093 I0.088 J1.506
X-58.688 Y-42.006 Z-2.258 I-0.088 J-1.506
X-58.512 Y-38.994 Z-2.424 I0.088 J1.506
X-58.688 Y-42.006 Z-2.589 I-0.088 J-1.506
X-58.512 Y-38.994 Z-2.754 I0.088 J1.506
X-58.688 Y-42.006 Z-2.92 I-0.088 J-1.506
X-58.512 Y-38.994 Z-3.085 I0.088 J1.506
X-57.092 Y-40.5 Z-3.165 I-0.088 J-1.506
X-60.108 I-1.508 J0
X-57.092 I1.508 J0
G1 X-57.073 Y-41.245
X-57.051 Y-41.335
X-57.037 Y-41.487
X-57.052 Y-41.639
X-57.09 Y-41.787
X-57.147 Y-41.928
X-57.222 Y-42.061
X-57.311 Y-42.184
X-57.412 Y-42.298
X-57.524 Y-42.401
X-57.646 Y-42.493
X-57.775 Y-42.575
X-57.91 Y-42.644
X-58.051 Y-42.702
X-58.2 Y-42.75
X-58.355 Y-42.787
X-58.517 Y-42.811
X-58.683 Y-42.823
X-58.852 Y-42.821
X-59.023 Y-42.806
X-59.195 Y-42.776
X-59.366 Y-42.732
X-59.535 Y-42.674
X-59.701 Y-42.602
X-59.861 Y-42.516
X-60.015 Y-42.417
X-60.162 Y-42.305
X-60.3 Y-42.18
X-60.428 Y-42.044
X-60.546 Y-41.898
X-60.652 Y-41.742
X-60.745 Y-41.578
X-60.825 Y-41.406
X-60.891 Y-41.228
X-60.943 Y-41.044
X-60.98 Y-40.857
X-61.002 Y-40.666
X-61.009 Y-40.475
X-61 Y-40.283
X-60.975 Y-40.092
X-60.936 Y-39.904
X-60.881 Y-39.719
X-60.812 Y-39.539
X-60.729 Y-39.365
X-60.631 Y-39.198
X-60.521 Y-39.039
X-60.398 Y-38.89
X-60.263 Y-38.751
X-60.118 Y-38.623
X-59.963 Y-38.508
X-59.799 Y-38.405
X-59.627 Y-38.315
X-59.449 Y-38.24
X-59.265 Y-38.179
X-59.077 Y-38.133
X-58.885 Y-38.102
X-58.692 Y-38.087
X-58.498 Y-38.088
X-58.305 Y-38.104
X-58.114 Y-38.135
X-57.926 Y-38.181
X-57.742 Y-38.243
X-57.563 Y-38.319
X-57.392 Y-38.409
X-57.228 Y-38.513
X-57.073 Y-38.63
X-56.928 Y-38.758
X-56.793 Y-38.898
X-56.67 Y-39.048
X-56.56 Y-39.208
X-56.455 Y-39.389
X-56.342 Y-39.627
X-56.191 Y-40.024
X-56.098 Y-40.344
X-56.042 Y-40.615
X-56.011 Y-40.865
X-56.001 Y-41.101
X-56.009 Y-41.323
X-56.034 Y-41.535
X-56.076 Y-41.74
X-56.133 Y-41.94
X-56.206 Y-42.136
X-56.295 Y-42.325
X-56.399 Y-42.506
X-56.518 Y-42.679
X-56.651 Y-42.843
X-56.798 Y-42.998
X-56.959 Y-43.142
X-57.134 Y-43.275
X-57.321 Y-43.395
X-57.52 Y-43.5
X-57.731 Y-43.591
X-57.951 Y-43.666
X-58.179 Y-43.724
X-58.415 Y-43.764
X-58.656 Y-43.785
X-58.901 Y-43.786
X-59.147 Y-43.768
X-59.394 Y-43.73
X-59.639 Y-43.671
X-59.881 Y-43.592
X-60.117 Y-43.494
X-60.346 Y-43.376
X-60.567 Y-43.239
X-60.777 Y-43.083
X-60.975 Y-42.911
X-61.159 Y-42.722
X-61.329 Y-42.518
X-61.482 Y-42.301
X-61.617 Y-42.07
X-61.735 Y-41.829
X-61.833 Y-41.579
X-61.91 Y-41.32
X-61.967 Y-41.056
X-62.002 Y-40.787
X-62.016 Y-40.516
X-62.008 Y-40.244
X-61.978 Y-39.974
X-61.926 Y-39.706
X-61.853 Y-39.443
X-61.759 Y-39.186
X-61.645 Y-38.938
X-61.511 Y-38.699
X-61.358 Y-38.472
X-61.187 Y-38.257
X-61 Y-38.057
X-60.797 Y-37.872
X-60.579 Y-37.705
X-60.349 Y-37.555
X-60.108 Y-37.424
X-59.856 Y-37.313
X-59.597 Y-37.222
X-59.331 Y-37.153
X-59.06 Y-37.105
X-58.786 Y-37.079
X-58.511 Y-37.074
X-58.237 Y-37.093
X-57.965 Y-37.133
X-57.697 Y-37.194
X-57.434 Y-37.277
X-57.18 Y-37.381
X-56.934 Y-37.505
X-56.699 Y-37.649
X-56.476 Y-37.81
X-56.265 Y-37.991
X-56.06 Y-38.198
X-55.845 Y-38.452
X-55.647 Y-38.729
X-55.465 Y-39.032
X-55.307 Y-39.351
X-55.177 Y-39.676
X-55.076 Y-40.002
X-55.003 Y-40.326
X-54.959 Y-40.645
X-54.94 Y-40.961
X-54.947 Y-41.272
X-54.978 Y-41.578
X-55.033 Y-41.878
X-55.112 Y-42.17
X-55.213 Y-42.454
X-55.336 Y-42.727
X-55.481 Y-42.99
X-55.646 Y-43.241
X-55.832 Y-43.478
X-56.037 Y-43.701
X-56.261 Y-43.908
X-56.503 Y-44.097
X-56.761 Y-44.268
X-57.034 Y-44.419
X-57.32 Y-44.549
X-57.619 Y-44.656
X-57.928 Y-44.739
X-58.246 Y-44.798
X-58.57 Y-44.832
X-58.898 Y-44.839
X-59.228 Y-44.82
X-59.557 Y-44.775
X-59.884 Y-44.702
X-60.207 Y-44.603
X-60.522 Y-44.477
X-60.828 Y-44.326
X-61.122 Y-44.15
X-61.403 Y-43.95
X-61.668 Y-43.726
X-61.915 Y-43.481
X-62.143 Y-43.216
X-62.349 Y-42.933
X-62.533 Y-42.633
X-62.693 Y-42.318
X-62.827 Y-41.99
X-62.934 Y-41.651
X-63.015 Y-41.305
X-63.067 Y-40.952
X-63.091 Y-40.596
X-63.086 Y-40.238
X-63.053 Y-39.881
X-62.991 Y-39.528
X-62.901 Y-39.18
X-62.783 Y-38.841
X-62.638 Y-38.512
X-62.466 Y-38.195
X-62.27 Y-37.893
X-62.05 Y-37.607
X-61.808 Y-37.34
X-61.545 Y-37.092
X-61.263 Y-36.867
X-60.964 Y-36.665
X-60.649 Y-36.488
X-60.321 Y-36.336
X-59.982 Y-36.212
X-59.633 Y-36.114
X-59.278 Y-36.045
X-58.919 Y-36.005
X-58.558 Y-35.994
X-58.196 Y-36.012
X-57.838 Y-36.059
X-57.484 Y-36.134
X-57.137 Y-36.238
X-56.8 Y-36.369
X-56.473 Y-36.527
X-56.157 Y-36.712
X-55.847 Y-36.93
X-55.546 Y-37.179
X-55.257 Y-37.461
X-54.985 Y-37.772
X-54.736 Y-38.109
X-54.512 Y-38.467
X-54.318 Y-38.842
X-54.156 Y-39.229
X-54.027 Y-39.624
X-53.93 Y-40.025
X-53.867 Y-40.429
X-53.837 Y-40.833
X-53.839 Y-41.234
X-53.873 Y-41.631
X-53.938 Y-42.022
X-54.034 Y-42.404
X-54.16 Y-42.776
X-54.315 Y-43.136
X-54.498 Y-43.483
X-54.709 Y-43.813
X-54.946 Y-44.126
X-55.208 Y-44.42
X-55.494 Y-44.693
X-55.802 Y-44.944
X-56.131 Y-45.17
X-56.479 Y-45.37
X-56.845 Y-45.542
X-57.225 Y-45.686
X-57.618 Y-45.799
X-58.021 Y-45.88
X-58.432 Y-45.93
X-58.848 Y-45.946
X-59.266 Y-45.929
X-59.684 Y-45.878
X-60.099 Y-45.793
X-60.508 Y-45.675
X-60.908 Y-45.523
X-61.296 Y-45.339
X-61.67 Y-45.123
X-62.027 Y-44.877
X-62.364 Y-44.602
X-62.68 Y-44.3
X-62.971 Y-43.973
X-63.235 Y-43.621
X-63.472 Y-43.249
X-63.678 Y-42.858
X-63.853 Y-42.451
X-63.994 Y-42.03
X-64.102 Y-41.598
X-64.175 Y-41.158
X-64.212 Y-40.712
X-64.214 Y-40.265
X-64.179 Y-39.818
X-64.109 Y-39.375
X-64.003 Y-38.939
X-63.862 Y-38.512
X-63.688 Y-38.097
X-63.48 Y-37.698
X-63.242 Y-37.316
X-62.973 Y-36.954
X-62.675 Y-36.615
X-62.352 Y-36.301
X-62.003 Y-36.014
X-61.633 Y-35.755
X-61.244 Y-35.527
X-60.837 Y-35.331
X-60.415 Y-35.168
X-59.982 Y-35.039
X-59.54 Y-34.946
X-59.091 Y-34.888
X-58.64 Y-34.866
X-58.188 Y-34.881
X-57.738 Y-34.932
X-57.294 Y-35.019
X-56.858 Y-35.142
X-56.43 Y-35.3
X-56.012 Y-35.494
X-55.606 Y-35.724
X-55.214 Y-35.989
X-54.837 Y-36.291
X-54.479 Y-36.629
X-54.144 Y-36.999
X-53.838 Y-37.399
X-53.563 Y-37.824
X-53.323 Y-38.27
X-53.12 Y-38.733
X-52.955 Y-39.21
X-52.83 Y-39.696
X-52.745 Y-40.187
X-52.699 Y-40.682
X-52.693 Y-41.175
X-52.727 Y-41.665
X-52.8 Y-42.149
X-52.911 Y-42.624
X-53.059 Y-43.087
X-53.244 Y-43.535
X-53.463 Y-43.968
X-53.717 Y-44.381
X-54.004 Y-44.773
X-54.322 Y-45.141
X-54.669 Y-45.484
X-55.044 Y-45.799
X-55.444 Y-46.084
X-55.868 Y-46.336
X-56.313 Y-46.555
X-56.776 Y-46.739
X-57.255 Y-46.885
X-57.746 Y-46.993
X-58.246 Y-47.062
X-58.753 Y-47.09
X-59.263 Y-47.078
X-59.773 Y-47.024
X-60.279 Y-46.929
X-60.778 Y-46.793
X-61.266 Y-46.617
X-61.741 Y-46.402
X-62.198 Y-46.148
X-62.635 Y-45.857
X-63.049 Y-45.531
X-63.437 Y-45.172
X-63.795 Y-44.781
X-64.122 Y-44.362
X-64.415 Y-43.917
X-64.672 Y-43.449
X-64.891 Y-42.96
X-65.071 Y-42.455
X-65.209 Y-41.936
X-65.306 Y-41.406
X-65.359 Y-40.87
X-65.37 Y-40.33
X-65.337 Y-39.791
X-65.261 Y-39.255
X-65.142 Y-38.727
X-64.981 Y-38.21
X-64.779 Y-37.706
X-64.537 Y-37.221
X-64.257 Y-36.756
X-63.94 Y-36.314
X-63.588 Y-35.9
X-63.204 Y-35.515
X-62.79 Y-35.161
X-62.35 Y-34.842
X-61.884 Y-34.56
X-61.398 Y-34.315
X-60.893 Y-34.11
X-60.374 Y-33.947
X-59.842 Y-33.826
X-59.303 Y-33.747
X-58.759 Y-33.712
X-58.214 Y-33.721
X-57.672 Y-33.774
X-57.134 Y-33.87
X-56.603 Y-34.01
X-56.082 Y-34.193
X-55.573 Y-34.419
X-55.079 Y-34.688
X-54.602 Y-35
X-54.146 Y-35.353
X-53.715 Y-35.746
X-53.313 Y-36.176
X-52.945 Y-36.64
X-52.614 Y-37.134
X-52.323 Y-37.654
X-52.075 Y-38.196
X-51.871 Y-38.755
X-51.714 Y-39.327
X-51.603 Y-39.908
X-51.539 Y-40.494
X-51.523 Y-41.082
X-51.553 Y-41.666
X-51.631 Y-42.245
X-51.754 Y-42.814
X-51.922 Y-43.37
X-52.134 Y-43.91
X-52.388 Y-44.432
X-52.684 Y-44.931
X-53.018 Y-45.405
X-53.391 Y-45.851
X-53.799 Y-46.267
X-54.24 Y-46.65
X-54.711 Y-46.998
X-55.211 Y-47.307
X-55.736 Y-47.576
X-56.282 Y-47.803
X-56.848 Y-47.986
X-57.428 Y-48.124
X-58.02 Y-48.215
X-58.62 Y-48.258
X-59.224 Y-48.253
X-59.827 Y-48.2
X-60.427 Y-48.098
X-61.019 Y-47.947
X-61.599 Y-47.749
X-62.163 Y-47.504
X-62.707 Y-47.213
X-63.228 Y-46.879
X-63.722 Y-46.503
X-64.185 Y-46.087
X-64.615 Y-45.635
X-65.007 Y-45.148
X-65.361 Y-44.63
X-65.672 Y-44.084
X-65.939 Y-43.514
X-66.159 Y-42.924
X-66.332 Y-42.316
X-66.456 Y-41.696
X-66.529 Y-41.067
X-66.552 Y-40.433
X-66.524 Y-39.799
X-66.445 Y-39.168
X-66.316 Y-38.546
X-66.137 Y-37.935
X-65.909 Y-37.34
X-65.634 Y-36.765
X-65.314 Y-36.214
X-64.95 Y-35.689
X-64.545 Y-35.196
X-64.102 Y-34.736
X-63.623 Y-34.313
X-63.112 Y-33.93
X-62.571 Y-33.589
X-62.004 Y-33.293
X-61.416 Y-33.043
X-60.809 Y-32.841
X-60.188 Y-32.688
X-59.556 Y-32.585
X-58.918 Y-32.534
X-58.278
X-57.638 Y-32.585
X-57.003 Y-32.688
X-56.376 Y-32.842
X-55.759 Y-33.048
X-55.157 Y-33.303
X-54.572 Y-33.609
X-54.009 Y-33.964
X-53.472 Y-34.366
X-52.965 Y-34.813
X-52.493 Y-35.303
X-52.059 Y-35.832
X-51.667 Y-36.396
X-51.321 Y-36.992
X-51.024 Y-37.614
X-50.777 Y-38.257
X-50.584 Y-38.917
X-50.444 Y-39.59
X-50.358 Y-40.27
X-50.328 Y-40.952
X-50.353 Y-41.634
X-50.432 Y-42.309
X-50.564 Y-42.975
X-50.75 Y-43.627
X-50.986 Y-44.261
X-51.273 Y-44.874
X-51.608 Y-45.462
X-51.99 Y-46.021
X-52.415 Y-46.549
X-52.882 Y-47.041
X-53.389 Y-47.496
X-53.931 Y-47.909
X-54.506 Y-48.278
X-55.111 Y-48.601
X-55.742 Y-48.875
X-56.394 Y-49.099
X-57.065 Y-49.269
X-57.749 Y-49.386
X-58.443 Y-49.448
X-59.143 Y-49.454
X-59.842 Y-49.403
X-60.538 Y-49.296
X-61.225 Y-49.134
X-61.899 Y-48.915
X-62.555 Y-48.643
X-63.189 Y-48.318
X-63.796 Y-47.942
X-64.373 Y-47.517
X-64.916 Y-47.047
X-65.42 Y-46.533
X-65.882 Y-45.979
X-66.299 Y-45.389
X-66.668 Y-44.766
X-66.986 Y-44.114
X-67.252 Y-43.438
X-67.462 Y-42.741
X-67.616 Y-42.029
X-67.713 Y-41.306
X-67.752 Y-40.577
X-67.731 Y-39.846
X-67.652 Y-39.119
X-67.515 Y-38.4
X-67.321 Y-37.693
X-67.07 Y-37.004
X-66.764 Y-36.337
X-66.406 Y-35.697
X-65.997 Y-35.086
X-65.541 Y-34.511
X-65.04 Y-33.973
X-64.496 Y-33.478
X-63.915 Y-33.027
X-63.299 Y-32.625
X-62.653 Y-32.273
X-61.981 Y-31.974
X-61.286 Y-31.73
X-60.575 Y-31.543
X-59.85 Y-31.413
X-59.117 Y-31.342
X-58.38 Y-31.33
X-57.643 Y-31.377
X-56.91 Y-31.483
X-56.186 Y-31.648
X-55.475 Y-31.872
X-54.785 Y-32.152
X-54.119 Y-32.486
X-53.481 Y-32.871
X-52.876 Y-33.305
X-52.306 Y-33.785
X-51.775 Y-34.308
X-51.286 Y-34.87
X-50.841 Y-35.468
X-50.443 Y-36.098
X-50.095 Y-36.756
X-49.797 Y-37.439
X-49.552 Y-38.143
X-49.361 Y-38.863
X-49.226 Y-39.596
X-49.147 Y-40.337
X-49.125 Y-41.082
X-49.16 Y-41.826
X-49.252 Y-42.565
X-49.401 Y-43.295
X-49.606 Y-44.011
X-49.866 Y-44.71
X-50.18 Y-45.385
X-50.545 Y-46.035
X-50.959 Y-46.654
X-51.42 Y-47.239
X-51.925 Y-47.787
X-52.471 Y-48.295
X-53.053 Y-48.759
X-53.67 Y-49.177
X-54.317 Y-49.547
X-54.99 Y-49.866
X-55.686 Y-50.133
X-56.4 Y-50.347
X-57.127 Y-50.506
X-57.865 Y-50.61
X-58.609 Y-50.658
X-59.354 Y-50.65
X-60.096 Y-50.587
X-60.832 Y-50.469
X-61.556 Y-50.295
X-62.266 Y-50.067
X-62.956 Y-49.787
X-63.623 Y-49.455
X-64.264 Y-49.076
X-64.876 Y-48.651
X-65.455 Y-48.182
X-65.998 Y-47.672
X-66.503 Y-47.124
X-66.967 Y-46.541
X-67.388 Y-45.926
X-67.762 Y-45.282
X-68.088 Y-44.612
X-68.363 Y-43.919
X-68.586 Y-43.208
X-68.758 Y-42.483
X-68.876 Y-41.748
X-68.942 Y-41.006
X-68.955 Y-40.261
X-68.914 Y-39.517
X-68.82 Y-38.778
X-68.674 Y-38.047
X-68.474 Y-37.329
X-68.221 Y-36.628
X-67.918 Y-35.948
X-67.567 Y-35.29
X-67.17 Y-34.66
X-66.73 Y-34.059
X-66.247 Y-33.491
X-65.726 Y-32.959
X-65.168 Y-32.466
X-64.576 Y-32.013
X-63.952 Y-31.606
X-63.3 Y-31.246
X-62.623 Y-30.934
X-61.926 Y-30.67
X-61.212 Y-30.457
X-60.485 Y-30.295
X-59.748 Y-30.186
X-59.005 Y-30.128
X-58.26 Y-30.123
X-57.517 Y-30.173
X-56.779 Y-30.278
X-56.051 Y-30.436
X-55.336 Y-30.645
X-54.637 Y-30.903
X-53.958 Y-31.209
X-53.301 Y-31.562
X-52.671 Y-31.959
X-52.069 Y-32.399
X-51.501 Y-32.88
X-50.967 Y-33.4
X-50.471 Y-33.956
X-50.014 Y-34.544
X-49.597 Y-35.162
X-49.223 Y-35.806
X-48.892 Y-36.474
X-48.607 Y-37.162
X-48.368 Y-37.868
X-48.18 Y-38.589
X-48.042 Y-39.321
X-47.955 Y-40.061
X-47.917 Y-40.805
X-47.931 Y-41.55
X-47.994 Y-42.292
X-48.107 Y-43.029
X-48.27 Y-43.756
X-48.482 Y-44.47
X-48.744 Y-45.168
X-49.055 Y-45.845
X-49.412 Y-46.498
X-49.814 Y-47.126
X-50.257 Y-47.725
X-50.739 Y-48.293
X-51.259 Y-48.827
X-51.814 Y-49.324
X-52.401 Y-49.783
X-53.019 Y-50.199
X-53.664 Y-50.572
X-54.333 Y-50.899
X-55.023 Y-51.18
X-55.73 Y-51.415
X-56.452 Y-51.602
X-57.184 Y-51.741
X-57.923 Y-51.831
X-58.667 Y-51.872
X-59.412 Y-51.862
X-60.155 Y-51.801
X-60.891 Y-51.69
X-61.619 Y-51.53
X-62.334 Y-51.322
X-63.034 Y-51.067
X-63.716 Y-50.767
X-64.377 Y-50.422
X-65.014 Y-50.036
X-65.624 Y-49.608
X-66.204 Y-49.14
X-66.751 Y-48.634
X-67.264 Y-48.094
X-67.742 Y-47.523
X-68.182 Y-46.921
X-68.582 Y-46.293
X-68.941 Y-45.64
X-69.256 Y-44.965
X-69.527 Y-44.271
X-69.749 Y-43.56
X-69.925 Y-42.835
X-70.053 Y-42.101
X-70.133 Y-41.361
X-70.167 Y-40.616
X-70.153 Y-39.872
X-70.092 Y-39.129
X-69.985 Y-38.392
X-69.83 Y-37.663
X-69.627 Y-36.946
X-69.375 Y-36.245
X-69.079 Y-35.561
X-68.739 Y-34.898
X-68.357 Y-34.258
X-67.936 Y-33.644
X-67.477 Y-33.057
X-66.981 Y-32.5
X-66.452 Y-31.976
X-65.891 Y-31.486
X-65.297 Y-31.036
X-64.675 Y-30.626
X-64.028 Y-30.257
X-63.358 Y-29.931
X-62.668 Y-29.649
X-61.962 Y-29.41
X-61.243 Y-29.216
X-60.513 Y-29.068
X-59.775 Y-28.966
X-59.032 Y-28.912
X-58.287 Y-28.907
X-57.543 Y-28.952
X-56.804 Y-29.045
X-56.072 Y-29.185
X-55.35 Y-29.371
X-54.642 Y-29.602
X-53.949 Y-29.876
X-53.275 Y-30.193
X-52.621 Y-30.55
X-51.992 Y-30.949
X-51.389 Y-31.387
X-50.816 Y-31.863
X-50.274 Y-32.374
X-49.764 Y-32.917
X-49.288 Y-33.491
X-48.848 Y-34.092
X-48.444 Y-34.718
X-48.079 Y-35.367
X-47.753 Y-36.037
X-47.469 Y-36.726
X-47.229 Y-37.431
X-47.034 Y-38.151
X-46.884 Y-38.88
X-46.778 Y-39.618
X-46.718 Y-40.36
X-46.702 Y-41.105
X-46.731 Y-41.85
X-46.805 Y-42.591
X-46.924 Y-43.327
X-47.088 Y-44.054
X-47.299 Y-44.768
X-47.555 Y-45.468
X-47.854 Y-46.15
X-48.195 Y-46.813
X-48.575 Y-47.453
X-48.994 Y-48.07
X-49.45 Y-48.659
X-49.94 Y-49.22
X-50.463 Y-49.751
X-51.018 Y-50.247
X-51.604 Y-50.708
X-52.218 Y-51.13
X-52.857 Y-51.514
X-53.517 Y-51.858
X-54.198 Y-52.162
X-54.895 Y-52.424
X-55.607 Y-52.644
X-56.331 Y-52.822
X-57.064 Y-52.956
X-57.803 Y-53.045
X-58.547 Y-53.088
X-59.292 Y-53.084
X-60.036 Y-53.036
X-60.775 Y-52.942
X-61.507 Y-52.805
X-62.23 Y-52.624
X-62.941 Y-52.401
X-63.637 Y-52.136
X-64.317 Y-51.831
X-64.977 Y-51.485
X-65.614 Y-51.1
X-66.227 Y-50.676
X-66.814 Y-50.217
X-67.372 Y-49.723
X-67.901 Y-49.198
X-68.398 Y-48.643
X-68.863 Y-48.061
X-69.292 Y-47.452
X-69.687 Y-46.82
X-70.043 Y-46.165
X-70.358 Y-45.49
X-70.632 Y-44.798
X-70.863 Y-44.089
X-71.053 Y-43.369
X-71.2 Y-42.638
X-71.304 Y-41.901
X-71.366 Y-41.158
X-71.386 Y-40.413
X-71.363 Y-39.669
X-71.298 Y-38.926
X-71.189 Y-38.189
X-71.036 Y-37.46
X-70.838 Y-36.742
X-70.598 Y-36.036
X-70.318 Y-35.346
X-69.997 Y-34.674
X-69.639 Y-34.021
X-69.243 Y-33.389
X-68.813 Y-32.781
X-68.349 Y-32.198
X-67.852 Y-31.643
X-67.323 Y-31.118
X-66.763 Y-30.626
X-66.175 Y-30.169
X-65.561 Y-29.747
X-64.924 Y-29.361
X-64.265 Y-29.013
X-63.587 Y-28.704
X-62.893 Y-28.434
X-62.184 Y-28.203
X-61.464 Y-28.014
X-60.733 Y-27.866
X-59.996 Y-27.762
X-59.253 Y-27.702
X-58.508 Y-27.687
X-57.763 Y-27.715
X-57.022 Y-27.786
X-56.285 Y-27.9
X-55.557 Y-28.055
X-54.838 Y-28.252
X-54.132 Y-28.489
X-53.44 Y-28.765
X-52.765 Y-29.081
X-52.11 Y-29.435
X-51.476 Y-29.827
X-50.866 Y-30.255
X-50.281 Y-30.717
X-49.724 Y-31.211
X-49.194 Y-31.735
X-48.695 Y-32.288
X-48.227 Y-32.868
X-47.79 Y-33.472
X-47.388 Y-34.099
X-47.022 Y-34.748
X-46.693 Y-35.416
X-46.402 Y-36.102
X-46.15 Y-36.803
X-45.937 Y-37.517
X-45.765 Y-38.242
X-45.633 Y-38.975
X-45.542 Y-39.715
X-45.491 Y-40.458
X-45.481 Y-41.203
X-45.512 Y-41.948
X-45.585 Y-42.689
X-45.7 Y-43.425
X-45.856 Y-44.154
X-46.054 Y-44.872
X-46.292 Y-45.578
X-46.57 Y-46.269
X-46.886 Y-46.944
X-47.239 Y-47.6
X-47.627 Y-48.236
X-48.05 Y-48.85
X-48.507 Y-49.438
X-48.996 Y-50
X-49.516 Y-50.534
X-50.065 Y-51.037
X-50.642 Y-51.508
X-51.245 Y-51.946
X-51.871 Y-52.35
X-52.519 Y-52.718
X-53.186 Y-53.051
X-53.87 Y-53.347
X-54.569 Y-53.605
X-55.281 Y-53.824
X-56.004 Y-54.003
X-56.736 Y-54.141
X-57.475 Y-54.239
X-58.218 Y-54.295
X-58.962 Y-54.31
X-59.707 Y-54.285
X-60.449 Y-54.218
X-61.187 Y-54.111
X-61.917 Y-53.965
X-62.639 Y-53.78
X-63.349 Y-53.555
X-64.046 Y-53.291
X-64.727 Y-52.99
X-65.391 Y-52.651
X-66.035 Y-52.277
X-66.658 Y-51.868
X-67.258 Y-51.426
X-67.833 Y-50.952
X-68.382 Y-50.448
X-68.903 Y-49.916
X-69.396 Y-49.358
X-69.859 Y-48.774
X-70.289 Y-48.166
X-70.686 Y-47.535
X-71.048 Y-46.883
X-71.373 Y-46.213
X-71.661 Y-45.526
X-71.912 Y-44.825
X-72.125 Y-44.111
X-72.3 Y-43.386
X-72.436 Y-42.654
X-72.534 Y-41.915
X-72.593 Y-41.172
X-72.612 Y-40.428
X-72.591 Y-39.683
X-72.531 Y-38.94
X-72.43 Y-38.202
X-72.29 Y-37.47
X-72.111 Y-36.747
X-71.892 Y-36.035
X-71.636 Y-35.335
X-71.344 Y-34.65
X-71.016 Y-33.981
X-70.653 Y-33.33
X-70.257 Y-32.699
X-69.827 Y-32.09
X-69.366 Y-31.505
X-68.874 Y-30.945
X-68.353 Y-30.413
X-67.804 Y-29.909
X-67.229 Y-29.435
X-66.629 Y-28.993
X-66.007 Y-28.584
X-65.364 Y-28.207
X-64.702 Y-27.865
X-64.023 Y-27.558
X-63.329 Y-27.288
X-62.621 Y-27.055
X-61.902 Y-26.86
X-61.174 Y-26.704
X-60.438 Y-26.586
X-59.697 Y-26.508
X-58.953 Y-26.47
X-58.208 Y-26.471
X-57.464 Y-26.512
X-56.723 Y-26.591
X-55.987 Y-26.709
X-55.259 Y-26.866
X-54.54 Y-27.061
X-53.832 Y-27.294
X-53.138 Y-27.564
X-52.458 Y-27.869
X-51.796 Y-28.21
X-51.152 Y-28.585
X-50.529 Y-28.993
X-49.927 Y-29.433
X-49.349 Y-29.903
X-48.796 Y-30.403
X-48.269 Y-30.929
X-47.77 Y-31.482
X-47.3 Y-32.06
X-46.86 Y-32.662
X-46.451 Y-33.284
X-46.074 Y-33.927
X-45.731 Y-34.589
X-45.422 Y-35.267
X-45.148 Y-35.96
X-44.91 Y-36.665
X-44.708 Y-37.383
X-44.542 Y-38.109
X-44.413 Y-38.843
X-44.322 Y-39.582
X-44.269 Y-40.325
X-44.254 Y-41.07
X-44.277 Y-41.815
X-44.338 Y-42.558
X-44.437 Y-43.296
X-44.574 Y-44.028
X-44.748 Y-44.753
X-44.96 Y-45.467
X-45.208 Y-46.17
X-45.491 Y-46.859
X-45.809 Y-47.533
X-46.162 Y-48.189
X-46.548 Y-48.826
X-46.967 Y-49.442
X-47.416 Y-50.037
X-47.895 Y-50.607
X-48.403 Y-51.152
X-48.939 Y-51.67
X-49.5 Y-52.16
X-50.086 Y-52.621
X-50.694 Y-53.051
X-51.323 Y-53.45
X-51.972 Y-53.817
X-52.638 Y-54.15
X-53.321 Y-54.448
X-54.018 Y-54.711
X-54.727 Y-54.939
X-55.447 Y-55.131
X-56.176 Y-55.286
X-56.912 Y-55.404
X-57.652 Y-55.484
X-58.396 Y-55.527
X-59.141 Y-55.533
X-59.886 Y-55.502
X-60.628 Y-55.433
X-61.365 Y-55.326
X-62.096 Y-55.183
X-62.819 Y-55.003
X-63.532 Y-54.786
X-64.233 Y-54.534
X-64.921 Y-54.248
X-65.594 Y-53.927
X-66.249 Y-53.574
X-66.887 Y-53.188
X-67.504 Y-52.771
X-68.1 Y-52.324
X-68.674 Y-51.848
X-69.223 Y-51.344
X-69.746 Y-50.814
X-70.242 Y-50.259
X-70.711 Y-49.679
X-71.151 Y-49.078
X-71.56 Y-48.455
X-71.937 Y-47.813
X-72.283 Y-47.153
X-72.595 Y-46.476
X-72.874 Y-45.785
X-73.118 Y-45.081
X-73.328 Y-44.366
X-73.502 Y-43.642
X-73.639 Y-42.91
X-73.741 Y-42.171
X-73.806 Y-41.429
X-73.836 Y-40.685
X-73.829 Y-39.94
X-73.785 Y-39.196
X-73.706 Y-38.455
X-73.589 Y-37.719
X-73.437 Y-36.99
X-73.249 Y-36.269
X-73.026 Y-35.558
X-72.769 Y-34.859
X-72.477 Y-34.173
X-72.152 Y-33.503
X-71.794 Y-32.849
X-71.405 Y-32.214
X-70.986 Y-31.598
X-70.537 Y-31.003
X-70.06 Y-30.431
X-69.555 Y-29.883
X-69.024 Y-29.36
X-68.469 Y-28.864
X-67.889 Y-28.395
X-67.288 Y-27.955
X-66.665 Y-27.546
X-66.023 Y-27.168
X-65.364 Y-26.822
X-64.688 Y-26.508
X-63.997 Y-26.228
X-63.294 Y-25.982
X-62.58 Y-25.77
X-61.856 Y-25.592
X-61.125 Y-25.451
X-60.387 Y-25.345
X-59.646 Y-25.275
X-58.901 Y-25.241
X-58.156 Y-25.243
X-57.412 Y-25.283
X-56.671 Y-25.359
X-55.934 Y-25.472
X-55.204 Y-25.619
X-54.482 Y-25.802
X-53.769 Y-26.02
X-53.068 Y-26.271
X-52.38 Y-26.556
X-51.705 Y-26.873
X-51.047 Y-27.223
X-50.407 Y-27.603
X-49.785 Y-28.014
X-49.184 Y-28.454
X-48.605 Y-28.922
X-48.049 Y-29.418
X-47.517 Y-29.94
X-47.01 Y-30.486
X-46.529 Y-31.056
X-46.076 Y-31.647
X-45.651 Y-32.259
X-45.255 Y-32.89
X-44.889 Y-33.539
X-44.554 Y-34.204
X-44.25 Y-34.885
X-43.978 Y-35.578
X-43.74 Y-36.284
X-43.536 Y-37.001
X-43.366 Y-37.726
X-43.23 Y-38.459
X-43.128 Y-39.197
X-43.062 Y-39.939
X-43.03 Y-40.683
X-43.033 Y-41.428
X-43.071 Y-42.173
X-43.144 Y-42.914
X-43.251 Y-43.651
X-43.393 Y-44.383
X-43.57 Y-45.106
X-43.782 Y-45.821
X-44.027 Y-46.524
X-44.306 Y-47.215
X-44.617 Y-47.892
X-44.96 Y-48.554
X-45.334 Y-49.198
X-45.738 Y-49.824
X-46.171 Y-50.431
X-46.632 Y-51.016
X-47.119 Y-51.579
X-47.633 Y-52.119
X-48.172 Y-52.634
X-48.734 Y-53.123
X-49.319 Y-53.584
X-49.926 Y-54.016
X-50.552 Y-54.42
X-51.196 Y-54.794
X-51.858 Y-55.137
X-52.535 Y-55.449
X-53.225 Y-55.728
X-53.928 Y-55.976
X-54.641 Y-56.191
X-55.364 Y-56.372
X-56.094 Y-56.519
X-56.831 Y-56.633
X-57.572 Y-56.712
X-58.315 Y-56.756
X-59.06 Y-56.764
X-59.805 Y-56.738
X-60.548 Y-56.678
X-61.286 Y-56.582
X-62.02 Y-56.453
X-62.747 Y-56.29
X-63.466 Y-56.093
X-64.175 Y-55.864
X-64.872 Y-55.602
X-65.557 Y-55.309
X-66.228 Y-54.984
X-66.883 Y-54.629
X-67.52 Y-54.244
X-68.139 Y-53.829
X-68.738 Y-53.386
X-69.317 Y-52.916
X-69.873 Y-52.42
X-70.406 Y-51.9
X-70.915 Y-51.356
X-71.399 Y-50.789
X-71.856 Y-50.201
X-72.286 Y-49.593
X-72.689 Y-48.965
X-73.062 Y-48.321
X-73.405 Y-47.659
X-73.718 Y-46.983
X-73.998 Y-46.293
X-74.246 Y-45.59
X-74.463 Y-44.877
X-74.646 Y-44.155
X-74.796 Y-43.425
X-74.914 Y-42.69
X-74.998 Y-41.949
X-75.049 Y-41.206
X-75.066 Y-40.461
X-75.05 Y-39.716
X-75.001 Y-38.973
X-74.918 Y-38.232
X-74.801 Y-37.497
X-74.65 Y-36.767
X-74.465 Y-36.045
X-74.248 Y-35.332
X-73.999 Y-34.63
X-73.718 Y-33.94
X-73.406 Y-33.264
X-73.064 Y-32.602
X-72.692 Y-31.956
X-72.292 Y-31.327
X-71.865 Y-30.717
X-71.41 Y-30.127
X-70.93 Y-29.557
X-70.424 Y-29.01
X-69.894 Y-28.487
X-69.34 Y-27.989
X-68.764 Y-27.516
X-68.167 Y-27.07
X-67.55 Y-26.652
X-66.915 Y-26.263
X-66.263 Y-25.902
X-65.596 Y-25.571
X-64.914 Y-25.27
X-64.22 Y-25
X-63.514 Y-24.761
X-62.798 Y-24.554
X-62.074 Y-24.379
X-61.342 Y-24.238
X-60.605 Y-24.13
X-59.864 Y-24.057
X-59.12 Y-24.016
X-58.375 Y-24.01
X-57.63 Y-24.037
X-56.887 Y-24.098
X-56.148 Y-24.192
X-55.414 Y-24.319
X-54.686 Y-24.479
X-53.967 Y-24.671
X-53.256 Y-24.894
X-52.556 Y-25.149
X-51.868 Y-25.435
X-51.193 Y-25.752
X-50.534 Y-26.099
X-49.891 Y-26.475
X-49.265 Y-26.879
X-48.657 Y-27.31
X-48.07 Y-27.768
X-47.503 Y-28.252
X-46.958 Y-28.76
X-46.436 Y-29.291
X-45.937 Y-29.845
X-45.463 Y-30.42
X-45.014 Y-31.014
X-44.591 Y-31.628
X-44.196 Y-32.259
X-43.828 Y-32.908
X-43.49 Y-33.571
X-43.181 Y-34.249
X-42.902 Y-34.94
X-42.654 Y-35.643
X-42.437 Y-36.355
X-42.25 Y-37.077
X-42.096 Y-37.806
X-41.973 Y-38.541
X-41.882 Y-39.28
X-41.823 Y-40.023
X-41.797 Y-40.767
X-41.802 Y-41.512
X-41.84 Y-42.256
X-41.912 Y-42.998
X-42.016 Y-43.736
X-42.153 Y-44.468
X-42.321 Y-45.194
X-42.522 Y-45.912
X-42.754 Y-46.62
X-43.017 Y-47.317
X-43.31 Y-48.002
X-43.633 Y-48.673
X-43.985 Y-49.33
X-44.365 Y-49.971
X-44.772 Y-50.594
X-45.207 Y-51.2
X-45.667 Y-51.785
X-46.154 Y-52.35
X-46.665 Y-52.892
X-47.199 Y-53.411
X-47.755 Y-53.907
X-48.333 Y-54.377
X-48.931 Y-54.822
X-49.547 Y-55.24
X-50.181 Y-55.631
X-50.832 Y-55.995
X-51.498 Y-56.329
X-52.177 Y-56.635
X-52.869 Y-56.911
X-53.572 Y-57.157
X-54.286 Y-57.372
X-55.008 Y-57.555
X-55.738 Y-57.707
X-56.473 Y-57.827
X-57.213 Y-57.915
X-57.956 Y-57.971
X-58.7 Y-57.995
X-59.445 Y-57.986
X-60.189 Y-57.945
X-60.931 Y-57.873
X-61.669 Y-57.768
X-62.401 Y-57.632
X-63.127 Y-57.465
X-63.845 Y-57.267
X-64.554 Y-57.038
X-65.253 Y-56.778
X-65.939 Y-56.489
X-66.613 Y-56.17
X-67.272 Y-55.823
X-67.915 Y-55.447
X-68.542 Y-55.045
X-69.152 Y-54.616
X-69.742 Y-54.161
X-70.313 Y-53.682
X-70.862 Y-53.18
X-71.391 Y-52.654
X-71.896 Y-52.107
X-72.379 Y-51.539
X-72.836 Y-50.951
X-73.268 Y-50.344
X-73.673 Y-49.719
X-74.052 Y-49.077
X-74.402 Y-48.42
X-74.725 Y-47.748
X-75.018 Y-47.063
X-75.282 Y-46.366
X-75.516 Y-45.659
X-75.72 Y-44.942
X-75.894 Y-44.218
X-76.037 Y-43.487
X-76.15 Y-42.75
X-76.231 Y-42.009
X-76.282 Y-41.266
X-76.301 Y-40.521
X-76.288 Y-39.776
X-76.243 Y-39.033
X-76.168 Y-38.291
X-76.06 Y-37.554
X-75.922 Y-36.822
X-75.753 Y-36.096
X-75.553 Y-35.379
X-75.323 Y-34.67
X-75.064 Y-33.971
X-74.775 Y-33.285
X-74.458 Y-32.61
X-74.113 Y-31.95
X-73.741 Y-31.304
X-73.342 Y-30.675
X-72.916 Y-30.064
X-72.465 Y-29.471
X-71.99 Y-28.897
X-71.491 Y-28.344
X-70.969 Y-27.812
X-70.424 Y-27.303
X-69.859 Y-26.818
X-69.274 Y-26.356
X-68.67 Y-25.92
X-68.049 Y-25.51
X-67.41 Y-25.125
X-66.756 Y-24.768
X-66.088 Y-24.439
X-65.407 Y-24.138
X-64.713 Y-23.866
X-64.008 Y-23.624
X-63.294 Y-23.411
X-62.572 Y-23.228
X-61.842 Y-23.076
X-61.107 Y-22.956
X-60.368 Y-22.866
X-59.625 Y-22.807
X-58.88 Y-22.779
X-58.135 Y-22.783
X-57.391 Y-22.818
X-56.649 Y-22.883
X-55.91 Y-22.98
X-55.176 Y-23.108
X-54.448 Y-23.266
X-53.727 Y-23.455
X-53.015 Y-23.674
X-52.313 Y-23.922
X-51.621 Y-24.199
X-50.942 Y-24.505
X-50.275 Y-24.838
X-49.624 Y-25.199
X-48.987 Y-25.587
X-48.368 Y-26.001
X-47.765 Y-26.439
X-47.182 Y-26.902
X-46.617 Y-27.389
X-46.073 Y-27.898
X-45.551 Y-28.429
X-45.051 Y-28.981
X-44.574 Y-29.554
X-44.12 Y-30.145
X-43.691 Y-30.754
X-43.287 Y-31.38
X-42.909 Y-32.022
X-42.558 Y-32.679
X-42.233 Y-33.35
X-41.936 Y-34.033
X-41.667 Y-34.728
X-41.426 Y-35.433
X-41.214 Y-36.147
X-41.031 Y-36.869
X-40.878 Y-37.598
X-40.754 Y-38.333
X-40.662 Y-39.072
X-40.599 Y-39.815
X-40.566 Y-40.559
X-40.564 Y-41.304
X-40.592 Y-42.049
X-40.65 Y-42.791
X-40.739 Y-43.531
X-40.858 Y-44.267
X-41.007 Y-44.997
X-41.185 Y-45.72
X-41.393 Y-46.436
X-41.63 Y-47.142
X-41.896 Y-47.838
X-42.19 Y-48.523
X-42.512 Y-49.194
X-42.862 Y-49.852
X-43.238 Y-50.495
X-43.64 Y-51.123
X-44.067 Y-51.733
X-44.519 Y-52.325
X-44.995 Y-52.899
X-45.494 Y-53.452
X-46.015 Y-53.985
X-46.558 Y-54.495
X-47.12 Y-54.984
X-47.702 Y-55.449
X-48.303 Y-55.89
X-48.921 Y-56.306
X-49.555 Y-56.697
X-50.205 Y-57.061
X-50.87 Y-57.398
X-51.547 Y-57.708
X-52.237 Y-57.991
X-52.937 Y-58.245
X-53.647 Y-58.471
X-54.365 Y-58.668
X-55.091 Y-58.836
X-55.823 Y-58.974
X-56.561 Y-59.083
X-57.301 Y-59.162
X-58.045 Y-59.211
X-58.79 Y-59.23
X-59.535 Y-59.219
X-60.279 Y-59.178
X-61.02 Y-59.106
X-61.758 Y-59.005
X-62.492 Y-58.874
X-63.219 Y-58.714
X-63.94 Y-58.525
X-64.653 Y-58.306
X-65.356 Y-58.06
X-66.048 Y-57.785
X-66.729 Y-57.483
X-67.398 Y-57.154
X-68.053 Y-56.799
X-68.693 Y-56.418
X-69.317 Y-56.011
X-69.925 Y-55.581
X-70.516 Y-55.126
X-71.087 Y-54.648
X-71.639 Y-54.147
X-72.17 Y-53.625
X-72.681 Y-53.082
X-73.17 Y-52.52
X-73.636 Y-51.939
X-74.078 Y-51.339
X-74.497 Y-50.723
X-74.89 Y-50.09
X-75.258 Y-49.443
X-75.601 Y-48.781
X-75.916 Y-48.106
X-76.205 Y-47.419
X-76.467 Y-46.721
X-76.7 Y-46.014
X-76.905 Y-45.298
X-77.081 Y-44.574
X-77.229 Y-43.843
X-77.347 Y-43.108
X-77.437 Y-42.368
X-77.498 Y-41.626
X-77.529 Y-40.881
X-77.531 Y-40.136
X-77.504 Y-39.391
X-77.448 Y-38.649
X-77.362 Y-37.908
X-77.247 Y-37.172
X-77.103 Y-36.441
X-76.931 Y-35.716
X-76.73 Y-34.999
X-76.5 Y-34.29
X-76.243 Y-33.591
X-75.957 Y-32.903
X-75.646 Y-32.226
X-75.307 Y-31.562
X-74.944 Y-30.912
X-74.554 Y-30.277
X-74.141 Y-29.657
X-73.703 Y-29.054
X-73.242 Y-28.469
X-72.758 Y-27.902
X-72.253 Y-27.355
X-71.726 Y-26.827
X-71.179 Y-26.321
X-70.613 Y-25.837
X-70.028 Y-25.376
X-69.425 Y-24.939
X-68.805 Y-24.526
X-68.169 Y-24.137
X-67.519 Y-23.774
X-66.854 Y-23.436
X-66.177 Y-23.125
X-65.489 Y-22.841
X-64.789 Y-22.584
X-64.081 Y-22.354
X-63.363 Y-22.152
X-62.639 Y-21.979
X-61.908 Y-21.834
X-61.172 Y-21.717
X-60.432 Y-21.63
X-59.689 Y-21.572
X-58.945 Y-21.543
X-58.2 Y-21.545
X-57.455 Y-21.575
X-56.713 Y-21.635
X-55.973 Y-21.723
X-55.237 Y-21.841
X-54.507 Y-21.987
X-53.782 Y-22.161
X-53.065 Y-22.364
X-52.357 Y-22.594
X-51.657 Y-22.851
X-50.969 Y-23.136
X-50.292 Y-23.447
X-49.627 Y-23.783
X-48.976 Y-24.145
X-48.339 Y-24.533
X-47.719 Y-24.945
X-47.115 Y-25.381
X-46.528 Y-25.84
X-45.959 Y-26.321
X-45.409 Y-26.824
X-44.878 Y-27.347
X-44.368 Y-27.89
X-43.88 Y-28.452
X-43.412 Y-29.033
X-42.968 Y-29.631
X-42.546 Y-30.245
X-42.148 Y-30.875
X-41.774 Y-31.519
X-41.425 Y-32.177
X-41.101 Y-32.848
X-40.804 Y-33.532
X-40.533 Y-34.226
X-40.289 Y-34.93
X-40.071 Y-35.642
X-39.881 Y-36.363
X-39.719 Y-37.09
X-39.584 Y-37.823
X-39.478 Y-38.56
X-39.399 Y-39.301
X-39.349 Y-40.044
X-39.327 Y-40.789
X-39.333 Y-41.534
X-39.368 Y-42.278
X-39.431 Y-43.021
X-39.522 Y-43.76
X-39.642 Y-44.496
X-39.79 Y-45.226
X-39.966 Y-45.95
X-40.17 Y-46.666
X-40.402 Y-47.374
X-40.66 Y-48.073
X-40.945 Y-48.762
X-41.256 Y-49.439
X-41.593 Y-50.103
X-41.955 Y-50.754
X-42.341 Y-51.391
X-42.752 Y-52.013
X-43.186 Y-52.619
X-43.643 Y-53.207
X-44.122 Y-53.778
X-44.622 Y-54.33
X-45.143 Y-54.863
X-45.685 Y-55.374
X-46.246 Y-55.865
X-46.825 Y-56.333
X-47.422 Y-56.78
X-48.035 Y-57.203
X-48.664 Y-57.602
X-49.307 Y-57.977
X-49.965 Y-58.328
X-50.635 Y-58.653
X-51.318 Y-58.952
X-52.011 Y-59.226
X-52.713 Y-59.473
X-53.425 Y-59.694
X-54.145 Y-59.887
X-54.871 Y-60.054
X-55.603 Y-60.192
X-56.34 Y-60.302
X-57.08 Y-60.384
X-57.823 Y-60.438
X-58.568 Y-60.464
X-59.313 Y-60.461
X-60.058 Y-60.431
X-60.8 Y-60.372
X-61.54 Y-60.285
X-62.277 Y-60.171
X-63.008 Y-60.029
X-63.733 Y-59.859
X-64.452 Y-59.663
X-65.163 Y-59.44
X-65.865 Y-59.19
X-66.557 Y-58.914
X-67.238 Y-58.612
X-67.907 Y-58.284
X-68.564 Y-57.932
X-69.206 Y-57.555
X-69.834 Y-57.154
X-70.447 Y-56.73
X-71.043 Y-56.283
X-71.623 Y-55.815
X-72.184 Y-55.325
X-72.727 Y-54.815
X-73.251 Y-54.285
X-73.754 Y-53.736
X-74.237 Y-53.168
X-74.699 Y-52.584
X-75.139 Y-51.982
X-75.556 Y-51.365
X-75.949 Y-50.732
X-76.319 Y-50.085
X-76.663 Y-49.424
X-76.983 Y-48.751
X-77.278 Y-48.067
X-77.547 Y-47.372
X-77.789 Y-46.668
X-78.006 Y-45.955
X-78.196 Y-45.235
X-78.359 Y-44.508
X-78.495 Y-43.775
X-78.604 Y-43.038
X-78.686 Y-42.297
X-78.741 Y-41.554
X-78.768 Y-40.81
Y-40.065
X-78.741 Y-39.32
X-78.685 Y-38.577
X-78.602 Y-37.837
X-78.491 Y-37.1
X-78.352 Y-36.368
X-78.187 Y-35.641
X-77.995 Y-34.922
X-77.777 Y-34.209
X-77.532 Y-33.506
X-77.261 Y-32.812
X-76.965 Y-32.128
X-76.644 Y-31.455
X-76.298 Y-30.795
X-75.929 Y-30.148
X-75.536 Y-29.515
X-75.12 Y-28.897
X-74.682 Y-28.295
X-74.221 Y-27.709
X-73.739 Y-27.141
X-73.236 Y-26.591
X-72.713 Y-26.061
X-72.171 Y-25.55
X-71.61 Y-25.059
X-71.032 Y-24.589
X-70.436 Y-24.141
X-69.825 Y-23.716
X-69.198 Y-23.313
X-68.556 Y-22.934
X-67.902 Y-22.578
X-67.234 Y-22.247
X-66.555 Y-21.941
X-65.865 Y-21.659
X-65.166 Y-21.403
X-64.457 Y-21.173
X-63.74 Y-20.97
X-63.016 Y-20.794
X-62.286 Y-20.645
X-61.551 Y-20.522
X-60.812 Y-20.426
X-60.071 Y-20.358
X-59.327 Y-20.318
X-58.582 Y-20.305
X-57.837 Y-20.319
X-57.093 Y-20.361
X-56.351 Y-20.43
X-55.612 Y-20.526
X-54.877 Y-20.649
X-54.147 Y-20.799
X-53.424 Y-20.975
X-52.707 Y-21.178
X-51.998 Y-21.407
X-51.298 Y-21.662
X-50.608 Y-21.943
X-49.928 Y-22.249
X-49.26 Y-22.579
X-48.605 Y-22.933
X-47.962 Y-23.311
X-47.335 Y-23.712
X-46.722 Y-24.136
X-46.125 Y-24.581
X-45.544 Y-25.048
X-44.98 Y-25.535
X-44.435 Y-26.043
X-43.908 Y-26.569
X-43.4 Y-27.115
X-42.912 Y-27.678
X-42.445 Y-28.258
X-41.999 Y-28.855
X-41.575 Y-29.468
X-41.173 Y-30.095
X-40.794 Y-30.736
X-40.438 Y-31.391
X-40.105 Y-32.058
X-39.797 Y-32.736
X-39.514 Y-33.425
X-39.255 Y-34.124
X-39.022 Y-34.832
X-38.814 Y-35.547
X-38.632 Y-36.269
X-38.475 Y-36.998
X-38.345 Y-37.731
X-38.241 Y-38.469
X-38.163 Y-39.21
X-38.112 Y-39.953
X-38.089 Y-40.698
X-38.092 Y-41.443
X-38.122 Y-42.188
X-38.178 Y-42.931
X-38.261 Y-43.671
X-38.371 Y-44.408
X-38.507 Y-45.14
X-38.67 Y-45.868
X-38.859 Y-46.588
X-39.073 Y-47.302
X-39.313 Y-48.007
X-39.579 Y-48.703
X-39.869 Y-49.389
X-40.184 Y-50.065
X-40.522 Y-50.729
X-40.885 Y-51.38
X-41.27 Y-52.017
X-41.679 Y-52.64
X-42.11 Y-53.248
X-42.563 Y-53.839
X-43.036 Y-54.415
X-43.53 Y-54.973
X-44.044 Y-55.512
X-44.576 Y-56.033
X-45.128 Y-56.534
X-45.697 Y-57.016
X-46.282 Y-57.476
X-46.884 Y-57.915
X-47.501 Y-58.333
X-48.133 Y-58.728
X-48.778 Y-59.1
X-49.437 Y-59.449
X-50.107 Y-59.774
X-50.789 Y-60.075
X-51.481 Y-60.351
X-52.182 Y-60.602
X-52.892 Y-60.828
X-53.61 Y-61.029
X-54.334 Y-61.204
X-55.064 Y-61.353
X-55.799 Y-61.476
X-56.538 Y-61.572
X-57.279 Y-61.642
X-58.023 Y-61.686
X-58.768 Y-61.703
X-59.513 Y-61.694
X-60.257 Y-61.659
X-61 Y-61.597
X-61.74 Y-61.509
X-62.476 Y-61.395
X-63.207 Y-61.254
X-63.934 Y-61.087
X-64.653 Y-60.895
X-65.366 Y-60.677
X-66.07 Y-60.434
X-66.766 Y-60.167
X-67.451 Y-59.875
X-68.126 Y-59.559
X-68.789 Y-59.219
X-69.44 Y-58.856
X-70.077 Y-58.47
X-70.701 Y-58.063
X-71.31 Y-57.633
X-71.903 Y-57.183
X-72.481 Y-56.712
X-73.041 Y-56.221
X-73.584 Y-55.711
X-74.109 Y-55.182
X-74.614 Y-54.635
X-75.1 Y-54.07
X-75.566 Y-53.489
X-76.012 Y-52.891
X-76.436 Y-52.279
X-76.839 Y-51.652
X-77.219 Y-51.011
X-77.576 Y-50.357
X-77.91 Y-49.691
X-78.221 Y-49.014
X-78.507 Y-48.327
X-78.77 Y-47.629
X-79.008 Y-46.923
X-79.222 Y-46.209
X-79.41 Y-45.489
X-79.573 Y-44.762
X-79.71 Y-44.029
X-79.822 Y-43.293
X-79.907 Y-42.552
X-79.967 Y-41.81
X-80.001 Y-41.066
X-80.01 Y-40.321
X-79.992 Y-39.576
X-79.949 Y-38.832
X-79.879 Y-38.09
X-79.783 Y-37.351
X-79.662 Y-36.616
X-79.515 Y-35.886
X-79.343 Y-35.161
X-79.146 Y-34.442
X-78.924 Y-33.731
X-78.677 Y-33.028
X-78.406 Y-32.334
X-78.11 Y-31.65
X-77.791 Y-30.977
X-77.449 Y-30.315
X-77.083 Y-29.666
X-76.696 Y-29.029
X-76.287 Y-28.407
X-75.856 Y-27.799
X-75.404 Y-27.206
X-74.932 Y-26.63
X-74.441 Y-26.07
X-73.93 Y-25.528
X-73.4 Y-25.003
X-72.853 Y-24.498
X-72.289 Y-24.011
X-71.707 Y-23.545
X-71.111 Y-23.099
X-70.498 Y-22.675
X-69.872 Y-22.271
X-69.231 Y-21.891
X-68.578 Y-21.533
X-67.913 Y-21.198
X-67.236 Y-20.886
X-66.549 Y-20.597
X-65.852 Y-20.333
X-65.147 Y-20.092
X-64.434 Y-19.877
X-63.714 Y-19.687
X-62.987 Y-19.521
X-62.255 Y-19.381
X-61.519 Y-19.267
X-60.779 Y-19.177
X-60.037 Y-19.114
X-59.293 Y-19.076
X-58.548 Y-19.065
X-57.803 Y-19.079
X-57.059 Y-19.119
X-56.317 Y-19.186
X-55.578 Y-19.278
X-54.842 Y-19.396
X-54.111 Y-19.539
X-53.385 Y-19.707
X-52.665 Y-19.899
X-51.953 Y-20.117
X-51.248 Y-20.359
X-50.552 Y-20.626
X-49.866 Y-20.916
X-49.19 Y-21.229
X-48.525 Y-21.565
X-47.872 Y-21.924
X-47.232 Y-22.305
X-46.605 Y-22.708
X-45.992 Y-23.132
X-45.395 Y-23.577
X-44.813 Y-24.042
X-44.247 Y-24.527
X-43.698 Y-25.031
X-43.167 Y-25.553
X-42.654 Y-26.093
X-42.159 Y-26.65
X-41.683 Y-27.224
X-41.227 Y-27.813
X-40.791 Y-28.417
X-40.376 Y-29.036
X-39.983 Y-29.669
X-39.61 Y-30.314
X-39.26 Y-30.971
X-38.932 Y-31.64
X-38.626 Y-32.32
X-38.344 Y-33.01
X-38.086 Y-33.708
X-37.851 Y-34.416
X-37.641 Y-35.13
X-37.456 Y-35.852
X-37.294 Y-36.579
X-37.158 Y-37.312
X-37.046 Y-38.048
X-36.958 Y-38.788
X-36.896 Y-39.531
X-36.86 Y-40.275
X-36.848 Y-41.02
X-36.862 Y-41.765
X-36.901 Y-42.509
X-36.965 Y-43.251
X-37.054 Y-43.991
X-37.168 Y-44.727
X-37.307 Y-45.459
X-37.47 Y-46.186
X-37.659 Y-46.907
X-37.872 Y-47.621
X-38.11 Y-48.327
X-38.372 Y-49.024
X-38.657 Y-49.713
X-38.965 Y-50.391
X-39.296 Y-51.059
X-39.65 Y-51.714
X-40.025 Y-52.358
X-40.423 Y-52.988
X-40.841 Y-53.605
X-41.28 Y-54.206
X-41.74 Y-54.793
X-42.218 Y-55.364
X-42.716 Y-55.918
X-43.233 Y-56.455
X-43.767 Y-56.975
X-44.319 Y-57.475
X-44.887 Y-57.957
X-45.472 Y-58.419
X-46.072 Y-58.86
X-46.687 Y-59.282
X-47.315 Y-59.682
X-47.957 Y-60.06
X-48.611 Y-60.417
X-49.276 Y-60.752
X-49.953 Y-61.064
X-50.64 Y-61.353
X-51.336 Y-61.618
X-52.041 Y-61.86
X-52.753 Y-62.079
X-53.472 Y-62.273
X-54.198 Y-62.443
X-54.928 Y-62.589
X-55.663 Y-62.71
X-56.402 Y-62.806
X-57.144 Y-62.877
X-57.888 Y-62.922
X-58.632 Y-62.943
X-59.377 Y-62.939
X-60.122 Y-62.909
X-60.865 Y-62.855
X-61.606 Y-62.776
X-62.344 Y-62.672
X-63.078 Y-62.544
X-63.807 Y-62.391
X-64.53 Y-62.213
X-65.248 Y-62.012
X-65.958 Y-61.787
X-66.66 Y-61.538
X-67.354 Y-61.266
X-68.038 Y-60.971
X-68.712 Y-60.653
X-69.375 Y-60.314
X-70.026 Y-59.951
X-70.665 Y-59.567
X-71.29 Y-59.162
X-71.902 Y-58.737
X-72.499 Y-58.291
X-73.081 Y-57.826
X-73.648 Y-57.342
X-74.198 Y-56.84
X-74.731 Y-56.32
X-75.246 Y-55.782
X-75.744 Y-55.227
X-76.223 Y-54.656
X-76.683 Y-54.07
X-77.123 Y-53.469
X-77.543 Y-52.854
X-77.943 Y-52.225
X-78.321 Y-51.583
X-78.678 Y-50.929
X-79.013 Y-50.263
X-79.325 Y-49.587
X-79.615 Y-48.901
X-79.882 Y-48.205
X-80.125 Y-47.501
X-80.346 Y-46.789
X-80.543 Y-46.07
X-80.716 Y-45.346
X-80.864 Y-44.616
X-80.989 Y-43.881
X-81.09 Y-43.143
X-81.166 Y-42.402
X-81.218 Y-41.659
X-81.246 Y-40.914
X-81.249 Y-40.169
X-81.228 Y-39.424
X-81.182 Y-38.681
X-81.111 Y-37.939
X-81.016 Y-37.2
X-80.897 Y-36.464
X-80.753 Y-35.733
X-80.584 Y-35.008
X-80.393 Y-34.288
X-80.177 Y-33.574
X-79.938 Y-32.869
X-79.676 Y-32.171
X-79.392 Y-31.483
X-79.084 Y-30.804
X-78.755 Y-30.136
X-78.404 Y-29.479
X-78.031 Y-28.833
X-77.638 Y-28.201
X-77.224 Y-27.581
X-76.79 Y-26.975
X-76.337 Y-26.384
X-75.864 Y-25.808
X-75.372 Y-25.248
X-74.862 Y-24.705
X-74.335 Y-24.179
X-73.79 Y-23.671
X-73.229 Y-23.181
X-72.652 Y-22.709
X-72.06 Y-22.257
X-71.453 Y-21.824
X-70.833 Y-21.412
X-70.199 Y-21.02
X-69.552 Y-20.65
X-68.894 Y-20.301
X-68.225 Y-19.973
X-67.545 Y-19.668
X-66.856 Y-19.385
X-66.158 Y-19.124
X-65.452 Y-18.887
X-64.738 Y-18.673
X-64.018 Y-18.482
X-63.292 Y-18.316
X-62.56 Y-18.174
X-61.825 Y-18.056
X-61.086 Y-17.962
X-60.344 Y-17.893
X-59.6 Y-17.847
X-58.855 Y-17.826
X-58.11 Y-17.83
X-57.366 Y-17.858
X-56.622 Y-17.911
X-55.881 Y-17.988
X-55.143 Y-18.089
X-54.409 Y-18.214
X-53.679 Y-18.363
X-52.954 Y-18.536
X-52.235 Y-18.732
X-51.523 Y-18.951
X-50.819 Y-19.194
X-50.122 Y-19.459
X-49.435 Y-19.748
X-48.758 Y-20.058
X-48.092 Y-20.391
X-47.436 Y-20.745
X-46.792 Y-21.12
X-46.161 Y-21.515
X-45.543 Y-21.931
X-44.938 Y-22.367
X-44.348 Y-22.822
X-43.773 Y-23.296
X-43.214 Y-23.788
X-42.671 Y-24.298
X-42.144 Y-24.825
X-41.635 Y-25.369
X-41.143 Y-25.928
X-40.669 Y-26.504
X-40.214 Y-27.093
X-39.778 Y-27.698
X-39.362 Y-28.316
X-38.966 Y-28.947
X-38.591 Y-29.591
X-38.237 Y-30.246
X-37.903 Y-30.912
X-37.591 Y-31.589
X-37.301 Y-32.275
X-37.033 Y-32.97
X-36.787 Y-33.674
X-36.565 Y-34.385
X-36.365 Y-35.103
X-36.188 Y-35.826
X-36.034 Y-36.555
X-35.904 Y-37.289
X-35.797 Y-38.026
X-35.713 Y-38.767
X-35.653 Y-39.509
X-35.617 Y-40.253
X-35.605 Y-40.998
X-35.618 Y-41.743
X-35.654 Y-42.488
X-35.714 Y-43.23
X-35.798 Y-43.971
X-35.906 Y-44.708
X-36.037 Y-45.441
X-36.192 Y-46.17
X-36.37 Y-46.893
X-36.572 Y-47.611
X-36.797 Y-48.321
X-37.044 Y-49.024
X-37.314 Y-49.718
X-37.606 Y-50.404
X-37.919 Y-51.08
X-38.254 Y-51.745
X-38.611 Y-52.4
X-38.988 Y-53.042
X-39.385 Y-53.672
X-39.803 Y-54.289
X-40.241 Y-54.892
X-40.698 Y-55.48
X-41.174 Y-56.054
X-41.667 Y-56.612
X-42.179 Y-57.154
X-42.707 Y-57.679
X-43.252 Y-58.187
X-43.813 Y-58.677
X-44.39 Y-59.149
X-44.982 Y-59.602
X-45.587 Y-60.036
X-46.207 Y-60.45
X-46.839 Y-60.844
X-47.483 Y-61.218
X-48.139 Y-61.571
X-48.806 Y-61.904
X-49.483 Y-62.214
X-50.17 Y-62.503
X-50.866 Y-62.77
X-51.57 Y-63.014
X-52.281 Y-63.235
X-52.999 Y-63.434
X-53.723 Y-63.61
X-54.453 Y-63.762
X-55.186 Y-63.892
X-55.924 Y-63.998
X-56.664 Y-64.08
X-57.407 Y-64.139
X-58.151 Y-64.174
X-58.896 Y-64.185
X-59.641 Y-64.173
X-60.386 Y-64.137
X-61.128 Y-64.077
X-61.869 Y-63.995
X-62.606 Y-63.888
X-63.34 Y-63.759
X-64.069 Y-63.606
X-64.793 Y-63.429
X-65.511 Y-63.23
X-66.222 Y-63.008
X-66.926 Y-62.764
X-67.622 Y-62.497
X-68.309 Y-62.209
X-68.986 Y-61.899
X-69.654 Y-61.568
X-70.31 Y-61.216
X-70.956 Y-60.844
X-71.589 Y-60.451
X-72.209 Y-60.038
X-72.816 Y-59.606
X-73.41 Y-59.156
X-73.989 Y-58.687
X-74.553 Y-58.2
X-75.101 Y-57.696
X-75.633 Y-57.174
X-76.149 Y-56.637
X-76.647 Y-56.083
X-77.128 Y-55.513
X-77.59 Y-54.929
X-78.034 Y-54.331
X-78.459 Y-53.719
X-78.865 Y-53.094
X-79.251 Y-52.456
X-79.616 Y-51.807
X-79.961 Y-51.147
X-80.285 Y-50.476
X-80.587 Y-49.795
X-80.869 Y-49.105
X-81.128 Y-48.406
X-81.365 Y-47.7
X-81.581 Y-46.987
X-81.774 Y-46.267
X-81.945 Y-45.542
X-82.092 Y-44.812
X-82.217 Y-44.077
X-82.319 Y-43.339
X-82.397 Y-42.598
X-82.452 Y-41.855
X-82.484 Y-41.111
X-82.493 Y-40.366
X-82.478 Y-39.621
X-82.441 Y-38.877
X-82.38 Y-38.134
X-82.296 Y-37.394
X-82.188 Y-36.657
X-82.058 Y-35.923
X-81.904 Y-35.194
X-81.728 Y-34.47
X-81.53 Y-33.752
X-81.309 Y-33.04
X-81.067 Y-32.336
X-80.802 Y-31.639
X-80.516 Y-30.951
X-80.208 Y-30.273
X-79.88 Y-29.604
X-79.53 Y-28.946
X-79.16 Y-28.299
X-78.77 Y-27.664
X-78.361 Y-27.042
X-77.932 Y-26.432
X-77.485 Y-25.837
X-77.019 Y-25.255
X-76.536 Y-24.688
X-76.035 Y-24.137
X-75.517 Y-23.601
X-74.982 Y-23.082
X-74.432 Y-22.58
X-73.866 Y-22.095
X-73.286 Y-21.628
X-72.691 Y-21.179
X-72.082 Y-20.749
X-71.461 Y-20.338
X-70.827 Y-19.947
X-70.181 Y-19.576
X-69.523 Y-19.226
X-68.855 Y-18.896
X-68.177 Y-18.587
X-67.49 Y-18.299
X-66.794 Y-18.033
X-66.09 Y-17.789
X-65.379 Y-17.566
X-64.661 Y-17.366
X-63.938 Y-17.188
X-63.209 Y-17.033
X-62.476 Y-16.901
X-61.739 Y-16.791
X-60.999 Y-16.705
X-60.256 Y-16.641
X-59.513 Y-16.601
X-58.768 Y-16.583
X-58.023 Y-16.589
X-57.278 Y-16.618
X-56.535 Y-16.67
X-55.794 Y-16.746
X-55.055 Y-16.845
X-54.32 Y-16.967
X-53.589 Y-17.111
X-52.863 Y-17.278
X-52.142 Y-17.467
X-51.428 Y-17.678
X-50.72 Y-17.911
X-50.02 Y-18.167
X-49.329 Y-18.443
X-48.646 Y-18.741
X-47.972 Y-19.06
X-47.309 Y-19.4
X-46.656 Y-19.759
X-46.015 Y-20.139
X-45.386 Y-20.537
X-44.769 Y-20.955
X-44.166 Y-21.392
X-43.576 Y-21.847
X-43 Y-22.321
X-42.44 Y-22.811
X-41.894 Y-23.319
X-41.365 Y-23.843
X-40.852 Y-24.383
X-40.355 Y-24.939
X-39.875 Y-25.509
X-39.413 Y-26.093
X-38.969 Y-26.692
X-38.544 Y-27.303
X-38.137 Y-27.927
X-37.749 Y-28.564
X-37.381 Y-29.212
X-37.033 Y-29.87
X-36.705 Y-30.539
X-36.397 Y-31.218
X-36.11 Y-31.905
X-35.844 Y-32.601
X-35.599 Y-33.305
X-35.376 Y-34.016
X-35.175 Y-34.733
X-34.996 Y-35.457
X-34.84 Y-36.185
X-34.705 Y-36.918
X-34.592 Y-37.654
X-34.502 Y-38.394
X-34.434 Y-39.136
X-34.389 Y-39.879
X-34.367 Y-40.624
Y-41.369
X-34.39 Y-42.114
X-34.436 Y-42.858
X-34.504 Y-43.6
X-34.595 Y-44.339
X-34.708 Y-45.075
X-34.843 Y-45.808
X-35.001 Y-46.536
X-35.181 Y-47.259
X-35.383 Y-47.976
X-35.607 Y-48.687
X-35.853 Y-49.39
X-36.121 Y-50.086
X-36.409 Y-50.773
X-36.719 Y-51.45
X-37.048 Y-52.119
X-37.398 Y-52.776
X-37.768 Y-53.423
X-38.157 Y-54.058
X-38.566 Y-54.681
X-38.993 Y-55.292
X-39.439 Y-55.888
X-39.903 Y-56.471
X-40.385 Y-57.04
X-40.883 Y-57.594
X-41.398 Y-58.132
X-41.929 Y-58.655
X-42.476 Y-59.161
X-43.038 Y-59.65
X-43.615 Y-60.122
X-44.206 Y-60.575
X-44.811 Y-61.011
X-45.428 Y-61.427
X-46.058 Y-61.825
X-46.7 Y-62.203
X-47.353 Y-62.562
X-48.017 Y-62.901
X-48.69 Y-63.22
X-49.373 Y-63.518
X-50.064 Y-63.796
X-50.764 Y-64.052
X-51.471 Y-64.287
X-52.185 Y-64.5
X-52.905 Y-64.692
X-53.63 Y-64.862
X-54.361 Y-65.01
X-55.095 Y-65.136
X-55.833 Y-65.239
X-56.573 Y-65.321
X-57.316 Y-65.38
X-58.06 Y-65.416
X-58.805 Y-65.429
X-59.55 Y-65.42
X-60.295 Y-65.388
X-61.038 Y-65.334
X-61.779 Y-65.258
X-62.517 Y-65.159
X-63.253 Y-65.038
X-63.984 Y-64.896
X-64.71 Y-64.731
X-65.432 Y-64.544
X-66.147 Y-64.336
X-66.856 Y-64.106
X-67.557 Y-63.855
X-68.251 Y-63.583
X-68.936 Y-63.291
X-69.613 Y-62.978
X-70.279 Y-62.645
X-70.935 Y-62.292
X-71.581 Y-61.92
X-72.214 Y-61.528
X-72.836 Y-61.117
X-73.445 Y-60.688
X-74.041 Y-60.241
X-74.623 Y-59.776
X-75.191 Y-59.294
X-75.745 Y-58.795
X-76.284 Y-58.281
X-76.807 Y-57.75
X-77.313 Y-57.204
X-77.804 Y-56.643
X-78.277 Y-56.067
X-78.733 Y-55.478
X-79.171 Y-54.876
X-79.592 Y-54.26
X-79.993 Y-53.633
X-80.376 Y-52.994
X-80.74 Y-52.344
X-81.084 Y-51.683
X-81.408 Y-51.012
X-81.712 Y-50.331
X-81.995 Y-49.642
X-82.257 Y-48.945
X-82.498 Y-48.24
X-82.719 Y-47.528
X-82.918 Y-46.81
X-83.096 Y-46.087
X-83.252 Y-45.358
X-83.387 Y-44.626
X-83.5 Y-43.889
X-83.591 Y-43.15
X-83.66 Y-42.408
X-83.706 Y-41.664
X-83.731 Y-40.92
X-83.734 Y-40.174
X-83.715 Y-39.43
X-83.674 Y-38.686
X-83.611 Y-37.943
X-83.525 Y-37.203
X-83.418 Y-36.466
X-83.289 Y-35.732
X-83.137 Y-35.003
X-82.964 Y-34.278
X-82.769 Y-33.559
X-82.553 Y-32.846
X-82.316 Y-32.139
X-82.059 Y-31.44
X-81.781 Y-30.749
X-81.482 Y-30.066
X-81.163 Y-29.393
X-80.825 Y-28.729
X-80.467 Y-28.076
X-80.089 Y-27.433
X-79.693 Y-26.802
X-79.279 Y-26.183
X-78.846 Y-25.576
X-78.396 Y-24.983
X-77.929 Y-24.403
X-77.444 Y-23.837
X-76.943 Y-23.285
X-76.425 Y-22.749
X-75.892 Y-22.229
X-75.343 Y-21.725
X-74.78 Y-21.238
X-74.203 Y-20.767
X-73.611 Y-20.313
X-73.007 Y-19.878
X-72.39 Y-19.46
X-71.761 Y-19.06
X-71.121 Y-18.68
X-70.469 Y-18.319
X-69.807 Y-17.977
X-69.135 Y-17.655
X-68.454 Y-17.353
X-67.764 Y-17.071
X-67.066 Y-16.81
X-66.361 Y-16.569
X-65.649 Y-16.349
X-64.931 Y-16.15
X-64.208 Y-15.973
X-63.479 Y-15.817
X-62.746 Y-15.684
X-62.01 Y-15.572
X-61.27 Y-15.482
X-60.528 Y-15.414
X-59.784 Y-15.368
X-59.04 Y-15.343
X-58.295 Y-15.341
X-57.55 Y-15.361
X-56.806 Y-15.403
X-56.064 Y-15.467
X-55.323 Y-15.553
X-54.586 Y-15.66
X-53.853 Y-15.79
X-53.123 Y-15.94
X-52.398 Y-16.113
X-51.678 Y-16.306
X-50.965 Y-16.52
X-50.258 Y-16.755
X-49.558 Y-17.011
X-48.866 Y-17.287
X-48.183 Y-17.584
X-47.508 Y-17.901
X-46.844 Y-18.238
X-46.189 Y-18.594
X-45.545 Y-18.969
X-44.913 Y-19.362
X-44.292 Y-19.774
X-43.683 Y-20.204
X-43.087 Y-20.651
X-42.505 Y-21.115
X-41.936 Y-21.597
X-41.382 Y-22.095
X-40.842 Y-22.608
X-40.317 Y-23.137
X-39.808 Y-23.681
X-39.315 Y-24.24
X-38.838 Y-24.812
X-38.378 Y-25.398
X-37.935 Y-25.997
X-37.51 Y-26.609
X-37.102 Y-27.233
X-36.714 Y-27.869
X-36.344 Y-28.515
X-35.992 Y-29.172
X-35.66 Y-29.839
X-35.347 Y-30.515
X-35.054 Y-31.2
X-34.781 Y-31.893
X-34.527 Y-32.594
X-34.295 Y-33.302
X-34.083 Y-34.016
X-33.891 Y-34.736
X-33.721 Y-35.462
X-33.572 Y-36.191
X-33.443 Y-36.925
X-33.336 Y-37.663
X-33.25 Y-38.403
X-33.186 Y-39.145
X-33.143 Y-39.889
X-33.121 Y-40.634
X-33.122 Y-41.379
X-33.144 Y-42.123
X-33.188 Y-42.867
X-33.253 Y-43.609
X-33.34 Y-44.349
X-33.449 Y-45.087
X-33.578 Y-45.82
X-33.729 Y-46.55
X-33.901 Y-47.275
X-34.094 Y-47.994
X-34.308 Y-48.708
X-34.542 Y-49.415
X-34.798 Y-50.115
X-35.073 Y-50.808
X-35.368 Y-51.492
X-35.683 Y-52.167
X-36.017 Y-52.833
X-36.371 Y-53.489
X-36.743 Y-54.134
X-37.134 Y-54.768
X-37.543 Y-55.391
X-37.97 Y-56.002
X-38.415 Y-56.599
X-38.877 Y-57.184
X-39.356 Y-57.754
X-39.852 Y-58.311
X-40.363 Y-58.853
X-40.889 Y-59.38
X-41.431 Y-59.891
X-41.987 Y-60.387
X-42.558 Y-60.866
X-43.142 Y-61.329
X-43.739 Y-61.774
X-44.349 Y-62.202
X-44.971 Y-62.612
X-45.605 Y-63.004
X-46.25 Y-63.377
X-46.905 Y-63.732
X-47.57 Y-64.068
X-48.244 Y-64.385
X-48.928 Y-64.682
X-49.619 Y-64.959
X-50.319 Y-65.216
X-51.025 Y-65.452
X-51.739 Y-65.667
X-52.458 Y-65.863
X-53.182 Y-66.037
X-53.911 Y-66.19
X-54.644 Y-66.323
X-55.381 Y-66.435
X-56.121 Y-66.525
X-56.862 Y-66.594
X-57.606 Y-66.641
X-58.351 Y-66.667
X-59.096 Y-66.671
X-59.84 Y-66.654
X-60.585 Y-66.616
X-61.327 Y-66.557
X-62.068 Y-66.476
X-62.806 Y-66.374
X-63.541 Y-66.251
X-64.272 Y-66.107
X-64.999 Y-65.942
X-65.72 Y-65.757
X-66.436 Y-65.55
X-67.145 Y-65.322
X-67.848 Y-65.075
X-68.543 Y-64.807
X-69.231 Y-64.52
X-69.91 Y-64.214
X-70.58 Y-63.888
X-71.241 Y-63.543
X-71.891 Y-63.18
X-72.531 Y-62.797
X-73.159 Y-62.397
X-73.776 Y-61.979
X-74.38 Y-61.544
X-74.972 Y-61.091
X-75.551 Y-60.622
X-76.117 Y-60.137
X-76.668 Y-59.636
X-77.205 Y-59.12
X-77.728 Y-58.589
X-78.235 Y-58.043
X-78.726 Y-57.482
X-79.2 Y-56.908
X-79.658 Y-56.32
X-80.099 Y-55.72
X-80.523 Y-55.107
X-80.93 Y-54.483
X-81.318 Y-53.847
X-81.689 Y-53.201
X-82.041 Y-52.544
X-82.374 Y-51.877
X-82.688 Y-51.202
X-82.982 Y-50.517
X-83.257 Y-49.825
X-83.512 Y-49.125
X-83.748 Y-48.418
X-83.963 Y-47.705
X-84.158 Y-46.986
X-84.333 Y-46.261
X-84.487 Y-45.532
X-84.621 Y-44.799
X-84.734 Y-44.063
X-84.825 Y-43.324
X-84.896 Y-42.582
X-84.945 Y-41.838
X-84.973 Y-41.094
X-84.98 Y-40.349
X-84.967 Y-39.604
X-84.932 Y-38.86
X-84.877 Y-38.117
X-84.8 Y-37.375
X-84.702 Y-36.637
X-84.584 Y-35.901
X-84.444 Y-35.169
X-84.284 Y-34.442
X-84.103 Y-33.719
X-83.902 Y-33.002
X-83.681 Y-32.29
X-83.44 Y-31.585
X-83.179 Y-30.887
X-82.899 Y-30.197
X-82.599 Y-29.515
X-82.281 Y-28.841
X-81.943 Y-28.177
X-81.586 Y-27.523
X-81.21 Y-26.88
X-80.817 Y-26.247
X-80.406 Y-25.625
X-79.978 Y-25.016
X-79.533 Y-24.418
X-79.071 Y-23.833
X-78.593 Y-23.262
X-78.099 Y-22.704
X-77.589 Y-22.161
X-77.065 Y-21.632
X-76.525 Y-21.118
X-75.971 Y-20.62
X-75.403 Y-20.138
X-74.822 Y-19.671
X-74.228 Y-19.222
X-73.621 Y-18.789
X-73.003 Y-18.373
X-72.373 Y-17.975
X-71.733 Y-17.595
X-71.081 Y-17.233
X-70.42 Y-16.89
X-69.749 Y-16.567
X-69.069 Y-16.262
X-68.381 Y-15.976
X-67.685 Y-15.71
X-66.982 Y-15.463
X-66.272 Y-15.236
X-65.556 Y-15.03
X-64.835 Y-14.843
X-64.109 Y-14.677
X-63.378 Y-14.532
X-62.643 Y-14.407
X-61.905 Y-14.304
X-61.165 Y-14.221
X-60.422 Y-14.159
X-59.679 Y-14.117
X-58.934 Y-14.097
X-58.189 Y-14.098
X-57.444 Y-14.119
X-56.7 Y-14.162
X-55.958 Y-14.225
X-55.218 Y-14.31
X-54.48 Y-14.416
X-53.746 Y-14.542
X-53.015 Y-14.689
X-52.289 Y-14.857
X-51.568 Y-15.044
X-50.853 Y-15.252
X-50.143 Y-15.479
X-49.44 Y-15.726
X-48.745 Y-15.993
X-48.057 Y-16.28
X-47.377 Y-16.585
X-46.707 Y-16.91
X-46.045 Y-17.253
X-45.394 Y-17.614
X-44.753 Y-17.994
X-44.122 Y-18.391
X-43.503 Y-18.805
X-42.895 Y-19.236
X-42.3 Y-19.685
X-41.718 Y-20.149
X-41.149 Y-20.63
X-40.593 Y-21.127
X-40.052 Y-21.639
X-39.525 Y-22.165
X-39.013 Y-22.706
X-38.515 Y-23.261
X-38.034 Y-23.83
X-37.568 Y-24.411
X-37.118 Y-25.005
X-36.685 Y-25.611
X-36.269 Y-26.229
X-35.87 Y-26.859
X-35.489 Y-27.499
X-35.125 Y-28.149
X-34.78 Y-28.809
X-34.453 Y-29.479
X-34.144 Y-30.157
X-33.855 Y-30.843
X-33.584 Y-31.538
X-33.332 Y-32.239
X-33.1 Y-32.947
X-32.888 Y-33.661
X-32.695 Y-34.381
X-32.523 Y-35.106
X-32.371 Y-35.835
X-32.239 Y-36.568
X-32.128 Y-37.305
X-32.036 Y-38.044
X-31.965 Y-38.786
X-31.914 Y-39.529
X-31.884 Y-40.274
X-31.874 Y-41.019
X-31.886 Y-41.764
X-31.917 Y-42.508
X-31.97 Y-43.251
X-32.043 Y-43.993
X-32.136 Y-44.732
X-32.25 Y-45.468
X-32.384 Y-46.201
X-32.538 Y-46.93
X-32.712 Y-47.655
X-32.907 Y-48.374
X-33.121 Y-49.088
X-33.355 Y-49.795
X-33.609 Y-50.495
X-33.882 Y-51.189
X-34.174 Y-51.874
X-34.486 Y-52.551
X-34.815 Y-53.219
X-35.164 Y-53.878
X-35.53 Y-54.527
X-35.913 Y-55.165
X-36.315 Y-55.793
X-36.733 Y-56.409
X-37.169 Y-57.014
X-37.621 Y-57.606
X-38.09 Y-58.185
X-38.574 Y-58.751
X-39.074 Y-59.304
X-39.589 Y-59.842
X-40.118 Y-60.366
X-40.662 Y-60.876
X-41.22 Y-61.37
X-41.791 Y-61.849
X-42.375 Y-62.311
X-42.972 Y-62.757
X-43.581 Y-63.186
X-44.201 Y-63.598
X-44.833 Y-63.993
X-45.476 Y-64.371
X-46.128 Y-64.73
X-46.79 Y-65.072
X-47.462 Y-65.395
X-48.142 Y-65.7
X-48.83 Y-65.986
X-49.525 Y-66.252
X-50.228 Y-66.5
X-50.937 Y-66.728
X-51.653 Y-66.936
X-52.374 Y-67.125
X-53.099 Y-67.294
X-53.829 Y-67.443
X-54.563 Y-67.572
X-55.3 Y-67.681
X-56.04 Y-67.769
X-56.782 Y-67.837
X-57.525 Y-67.885
X-58.27 Y-67.912
X-59.015 Y-67.918
X-59.76 Y-67.904
X-60.504 Y-67.869
X-61.247 Y-67.815
X-61.988 Y-67.74
X-62.727 Y-67.644
X-63.463 Y-67.529
X-64.196 Y-67.394
X-64.925 Y-67.238
X-65.649 Y-67.063
X-66.368 Y-66.867
X-67.081 Y-66.652
X-67.789 Y-66.418
X-68.489 Y-66.164
X-69.183 Y-65.892
X-69.868 Y-65.601
X-70.546 Y-65.291
X-71.215 Y-64.963
X-71.875 Y-64.617
X-72.525 Y-64.253
X-73.165 Y-63.871
X-73.794 Y-63.472
X-74.412 Y-63.055
X-75.018 Y-62.622
X-75.612 Y-62.173
X-76.194 Y-61.708
X-76.763 Y-61.227
X-77.319 Y-60.731
X-77.862 Y-60.22
X-78.39 Y-59.695
X-78.904 Y-59.155
X-79.403 Y-58.602
X-79.886 Y-58.035
X-80.354 Y-57.456
X-80.807 Y-56.863
X-81.243 Y-56.259
X-81.662 Y-55.643
X-82.065 Y-55.017
X-82.451 Y-54.379
X-82.819 Y-53.732
X-83.17 Y-53.074
X-83.502 Y-52.408
X-83.817 Y-51.732
X-84.112 Y-51.048
X-84.389 Y-50.356
X-84.647 Y-49.657
X-84.885 Y-48.951
X-85.105 Y-48.24
X-85.306 Y-47.522
X-85.487 Y-46.799
X-85.648 Y-46.072
X-85.79 Y-45.34
X-85.913 Y-44.606
X-86.015 Y-43.867
X-86.097 Y-43.127
X-86.159 Y-42.384
X-86.201 Y-41.641
X-86.222 Y-40.896
X-86.224 Y-40.151
X-86.206 Y-39.406
X-86.168 Y-38.662
X-86.11 Y-37.919
X-86.032 Y-37.178
X-85.934 Y-36.44
X-85.815 Y-35.704
X-85.677 Y-34.972
X-85.518 Y-34.244
X-85.34 Y-33.52
X-85.143 Y-32.802
X-84.926 Y-32.089
X-84.69 Y-31.382
X-84.435 Y-30.682
X-84.162 Y-29.989
X-83.87 Y-29.304
X-83.559 Y-28.626
X-83.23 Y-27.958
X-82.884 Y-27.298
X-82.519 Y-26.648
X-82.138 Y-26.009
X-81.739 Y-25.379
X-81.323 Y-24.761
X-80.891 Y-24.154
X-80.443 Y-23.559
X-79.979 Y-22.975
X-79.5 Y-22.405
X-79.005 Y-21.848
X-78.496 Y-21.304
X-77.972 Y-20.775
X-77.433 Y-20.26
X-76.881 Y-19.76
X-76.315 Y-19.275
X-75.737 Y-18.805
X-75.146 Y-18.351
X-74.543 Y-17.913
X-73.929 Y-17.492
X-73.304 Y-17.087
X-72.667 Y-16.699
X-72.021 Y-16.328
X-71.365 Y-15.975
X-70.699 Y-15.64
X-70.025 Y-15.323
X-69.343 Y-15.025
X-68.652 Y-14.744
X-67.955 Y-14.483
X-67.25 Y-14.24
X-66.54 Y-14.016
X-65.823 Y-13.811
X-65.102 Y-13.625
X-64.376 Y-13.459
X-63.645 Y-13.313
X-62.911 Y-13.187
X-62.173 Y-13.081
X-61.433 Y-12.995
X-60.691 Y-12.929
X-59.947 Y-12.882
X-59.203 Y-12.856
X-58.458 Y-12.849
X-57.713 Y-12.863
X-56.968 Y-12.897
X-56.225 Y-12.95
X-55.484 Y-13.024
X-54.745 Y-13.118
X-54.008 Y-13.231
X-53.275 Y-13.364
X-52.546 Y-13.517
X-51.821 Y-13.689
X-51.101 Y-13.881
X-50.386 Y-14.091
X-49.678 Y-14.321
X-48.975 Y-14.569
X-48.28 Y-14.836
X-47.592 Y-15.122
X-46.912 Y-15.427
X-46.24 Y-15.749
X-45.577 Y-16.09
X-44.924 Y-16.448
X-44.28 Y-16.823
X-43.647 Y-17.215
X-43.024 Y-17.624
X-42.412 Y-18.049
X-41.812 Y-18.49
X-41.223 Y-18.947
X-40.647 Y-19.42
X-40.084 Y-19.908
X-39.534 Y-20.411
X-38.998 Y-20.928
X-38.475 Y-21.459
X-37.967 Y-22.004
X-37.473 Y-22.561
X-36.994 Y-23.132
X-36.53 Y-23.715
X-36.081 Y-24.31
X-35.649 Y-24.917
X-35.233 Y-25.534
X-34.833 Y-26.163
X-34.45 Y-26.803
X-34.085 Y-27.452
X-33.737 Y-28.111
X-33.406 Y-28.778
X-33.093 Y-29.454
X-32.797 Y-30.138
X-32.52 Y-30.83
X-32.261 Y-31.528
X-32.02 Y-32.234
X-31.799 Y-32.945
X-31.596 Y-33.662
X-31.412 Y-34.384
X-31.248 Y-35.11
X-31.102 Y-35.841
X-30.976 Y-36.576
X-30.869 Y-37.313
X-30.782 Y-38.053
X-30.714 Y-38.795
X-30.665 Y-39.538
X-30.636 Y-40.283
X-30.627 Y-41.028
X-30.638 Y-41.773
X-30.669 Y-42.517
X-30.719 Y-43.261
X-30.789 Y-44.002
X-30.879 Y-44.742
X-30.988 Y-45.479
X-31.117 Y-46.213
X-31.265 Y-46.943
X-31.432 Y-47.669
X-31.618 Y-48.391
X-31.823 Y-49.107
X-32.048 Y-49.817
X-32.291 Y-50.522
X-32.553 Y-51.219
X-32.833 Y-51.909
X-33.131 Y-52.592
X-33.448 Y-53.267
X-33.782 Y-53.933
X-34.133 Y-54.59
X-34.501 Y-55.237
X-34.887 Y-55.875
X-35.289 Y-56.502
X-35.707 Y-57.119
X-36.143 Y-57.723
X-36.594 Y-58.316
X-37.061 Y-58.897
X-37.542 Y-59.465
X-38.039 Y-60.021
X-38.551 Y-60.562
X-39.076 Y-61.091
X-39.615 Y-61.605
X-40.167 Y-62.105
X-40.733 Y-62.59
X-41.311 Y-63.061
X-41.901 Y-63.515
X-42.503 Y-63.954
X-43.117 Y-64.376
X-43.742 Y-64.782
X-44.377 Y-65.172
X-45.022 Y-65.545
X-45.676 Y-65.901
X-46.34 Y-66.24
X-47.012 Y-66.561
X-47.693 Y-66.864
X-48.381 Y-67.15
X-49.076 Y-67.417
X-49.779 Y-67.665
X-50.488 Y-67.895
X-51.202 Y-68.105
X-51.922 Y-68.297
X-52.647 Y-68.47
X-53.376 Y-68.624
X-54.109 Y-68.759
X-54.845 Y-68.875
X-55.583 Y-68.972
X-56.324 Y-69.049
X-57.067 Y-69.106
X-57.811 Y-69.144
X-58.556 Y-69.162
X-59.301 Y-69.161
X-60.046 Y-69.14
X-60.79 Y-69.1
X-61.533 Y-69.04
X-62.274 Y-68.961
X-63.012 Y-68.863
X-63.748 Y-68.745
X-64.48 Y-68.609
X-65.209 Y-68.453
X-65.933 Y-68.278
X-66.652 Y-68.084
X-67.366 Y-67.87
X-68.074 Y-67.639
X-68.776 Y-67.388
X-69.471 Y-67.12
X-70.159 Y-66.834
X-70.839 Y-66.53
X-71.511 Y-66.208
X-72.175 Y-65.869
X-72.829 Y-65.513
X-73.474 Y-65.14
X-74.109 Y-64.75
X-74.734 Y-64.343
X-75.347 Y-63.921
X-75.95 Y-63.482
X-76.54 Y-63.029
X-77.119 Y-62.56
X-77.686 Y-62.076
X-78.24 Y-61.578
X-78.781 Y-61.066
X-79.309 Y-60.539
X-79.822 Y-60
X-80.322 Y-59.447
X-80.806 Y-58.881
X-81.276 Y-58.302
X-81.73 Y-57.712
X-82.169 Y-57.11
X-82.592 Y-56.496
X-82.999 Y-55.873
X-83.39 Y-55.238
X-83.765 Y-54.594
X-84.123 Y-53.941
X-84.463 Y-53.278
X-84.786 Y-52.607
X-85.092 Y-51.927
X-85.38 Y-51.24
X-85.649 Y-50.545
X-85.901 Y-49.844
X-86.135 Y-49.137
X-86.35 Y-48.423
X-86.547 Y-47.705
X-86.725 Y-46.981
X-86.884 Y-46.253
X-87.025 Y-45.522
X-87.147 Y-44.787
X-87.25 Y-44.049
X-87.333 Y-43.308
X-87.397 Y-42.566
X-87.441 Y-41.822
X-87.467 Y-41.078
X-87.473 Y-40.333
X-87.46 Y-39.588
X-87.428 Y-38.843
X-87.377 Y-38.1
X-87.306 Y-37.358
X-87.217 Y-36.619
X-87.108 Y-35.882
X-86.98 Y-35.148
X-86.833 Y-34.417
X-86.668 Y-33.691
X-86.483 Y-32.969
X-86.28 Y-32.252
X-86.059 Y-31.541
X-85.819 Y-30.835
X-85.561 Y-30.136
X-85.286 Y-29.444
X-84.993 Y-28.759
X-84.682 Y-28.082
X-84.353 Y-27.413
X-84.008 Y-26.753
X-83.645 Y-26.102
X-83.265 Y-25.461
X-82.869 Y-24.83
X-82.457 Y-24.209
X-82.029 Y-23.599
X-81.586 Y-23
X-81.128 Y-22.413
X-80.654 Y-21.838
X-80.166 Y-21.275
X-79.664 Y-20.725
X-79.147 Y-20.188
X-78.617 Y-19.665
X-78.073 Y-19.155
X-77.516 Y-18.66
X-76.947 Y-18.18
X-76.365 Y-17.714
X-75.772 Y-17.263
X-75.167 Y-16.828
X-74.552 Y-16.408
X-73.925 Y-16.004
X-73.289 Y-15.617
X-72.643 Y-15.246
X-71.987 Y-14.892
X-71.322 Y-14.556
X-70.649 Y-14.237
X-69.968 Y-13.935
X-69.279 Y-13.651
X-68.583 Y-13.384
X-67.881 Y-13.136
X-67.172 Y-12.906
X-66.458 Y-12.693
X-65.739 Y-12.5
X-65.014 Y-12.324
X-64.286 Y-12.168
X-63.554 Y-12.031
X-62.818 Y-11.913
X-62.08 Y-11.814
X-61.339 Y-11.733
X-60.596 Y-11.672
X-59.852 Y-11.63
X-59.108 Y-11.607
X-58.363 Y-11.603
X-57.618 Y-11.618
X-56.874 Y-11.652
X-56.13 Y-11.706
X-55.389 Y-11.779
X-54.65 Y-11.871
X-53.913 Y-11.982
X-53.179 Y-12.112
X-52.449 Y-12.261
X-51.723 Y-12.429
X-51.002 Y-12.615
X-50.285 Y-12.819
X-49.574 Y-13.042
X-48.869 Y-13.282
X-48.17 Y-13.541
X-47.478 Y-13.817
X-46.794 Y-14.111
X-46.117 Y-14.423
X-45.449 Y-14.752
X-44.789 Y-15.098
X-44.138 Y-15.461
X-43.497 Y-15.84
X-42.865 Y-16.235
X-42.243 Y-16.646
X-41.633 Y-17.073
X-41.033 Y-17.515
X-40.445 Y-17.972
X-39.868 Y-18.444
X-39.304 Y-18.931
X-38.753 Y-19.432
X-38.215 Y-19.947
X-37.69 Y-20.476
X-37.178 Y-21.018
X-36.68 Y-21.572
X-36.197 Y-22.139
X-35.727 Y-22.717
X-35.273 Y-23.308
X-34.833 Y-23.909
X-34.409 Y-24.522
X-34.001 Y-25.145
X-33.608 Y-25.778
X-33.232 Y-26.421
X-32.872 Y-27.074
X-32.529 Y-27.735
X-32.203 Y-28.405
X-31.893 Y-29.083
X-31.601 Y-29.768
X-31.325 Y-30.46
X-31.068 Y-31.159
X-30.828 Y-31.865
X-30.606 Y-32.576
X-30.402 Y-33.293
X-30.217 Y-34.014
X-30.05 Y-34.741
X-29.902 Y-35.471
X-29.772 Y-36.204
X-29.661 Y-36.941
X-29.568 Y-37.68
X-29.494 Y-38.422
X-29.438 Y-39.165
X-29.401 Y-39.909
X-29.383 Y-40.654
X-29.384 Y-41.399
X-29.403 Y-42.143
X-29.442 Y-42.888
X-29.5 Y-43.63
X-29.576 Y-44.372
X-29.672 Y-45.11
X-29.785 Y-45.847
X-29.918 Y-46.58
X-30.068 Y-47.31
X-30.237 Y-48.035
X-30.425 Y-48.756
X-30.63 Y-49.473
X-30.854 Y-50.183
X-31.096 Y-50.888
X-31.356 Y-51.586
X-31.634 Y-52.277
X-31.929 Y-52.961
X-32.242 Y-53.638
X-32.571 Y-54.306
X-32.917 Y-54.966
X-33.28 Y-55.617
X-33.659 Y-56.258
X-34.054 Y-56.89
X-34.465 Y-57.512
X-34.891 Y-58.122
X-35.333 Y-58.722
X-35.791 Y-59.31
X-36.263 Y-59.887
X-36.749 Y-60.451
X-37.25 Y-61.003
X-37.764 Y-61.542
X-38.292 Y-62.068
X-38.832 Y-62.581
X-39.386 Y-63.08
X-39.952 Y-63.564
X-40.53 Y-64.034
X-41.12 Y-64.489
X-41.721 Y-64.929
X-42.333 Y-65.354
X-42.956 Y-65.762
X-43.59 Y-66.155
X-44.232 Y-66.532
X-44.884 Y-66.893
X-45.545 Y-67.237
X-46.214 Y-67.564
X-46.892 Y-67.875
X-47.576 Y-68.168
X-48.268 Y-68.444
X-48.967 Y-68.703
X-49.672 Y-68.943
X-50.383 Y-69.166
X-51.1 Y-69.37
X-51.821 Y-69.557
X-52.547 Y-69.726
X-53.277 Y-69.876
X-54.01 Y-70.008
X-54.746 Y-70.122
X-55.485 Y-70.217
X-56.226 Y-70.293
X-56.969 Y-70.351
X-57.713 Y-70.39
X-58.458 Y-70.41
X-59.203 Y-70.411
X-59.948 Y-70.393
X-60.692 Y-70.356
X-61.435 Y-70.301
X-62.177 Y-70.228
X-62.916 Y-70.136
X-63.653 Y-70.026
X-64.387 Y-69.897
X-65.117 Y-69.75
X-65.844 Y-69.584
X-66.566 Y-69.401
X-67.283 Y-69.199
X-67.995 Y-68.979
X-68.701 Y-68.741
X-69.401 Y-68.486
X-70.094 Y-68.214
X-70.781 Y-67.924
X-71.46 Y-67.617
X-72.131 Y-67.294
X-72.794 Y-66.954
X-73.448 Y-66.597
X-74.093 Y-66.225
X-74.729 Y-65.836
X-75.354 Y-65.43
X-75.969 Y-65.01
X-76.573 Y-64.574
X-77.167 Y-64.123
X-77.749 Y-63.658
X-78.319 Y-63.179
X-78.877 Y-62.685
X-79.423 Y-62.178
X-79.956 Y-61.658
X-80.476 Y-61.124
X-80.983 Y-60.578
X-81.476 Y-60.019
X-81.954 Y-59.448
X-82.418 Y-58.865
X-82.868 Y-58.271
X-83.303 Y-57.666
X-83.722 Y-57.05
X-84.126 Y-56.424
X-84.515 Y-55.789
X-84.888 Y-55.144
X-85.245 Y-54.49
X-85.585 Y-53.827
X-85.908 Y-53.156
X-86.215 Y-52.476
X-86.504 Y-51.79
X-86.776 Y-51.096
X-87.031 Y-50.396
X-87.268 Y-49.69
X-87.488 Y-48.978
X-87.69 Y-48.261
X-87.874 Y-47.539
X-88.041 Y-46.813
X-88.19 Y-46.083
X-88.32 Y-45.349
X-88.433 Y-44.613
X-88.526 Y-43.873
X-88.602 Y-43.132
X-88.659 Y-42.389
X-88.697 Y-41.645
X-88.717 Y-40.9
X-88.719 Y-40.155
X-88.702 Y-39.41
X-88.668 Y-38.666
X-88.614 Y-37.923
X-88.543 Y-37.181
X-88.453 Y-36.442
X-88.345 Y-35.705
X-88.218 Y-34.97
X-88.072 Y-34.24
X-87.909 Y-33.513
X-87.727 Y-32.79
X-87.528 Y-32.072
X-87.311 Y-31.36
X-87.077 Y-30.652
X-86.825 Y-29.951
X-86.556 Y-29.256
X-86.27 Y-28.568
X-85.967 Y-27.887
X-85.648 Y-27.214
X-85.311 Y-26.55
X-84.959 Y-25.893
X-84.59 Y-25.246
X-84.205 Y-24.608
X-83.804 Y-23.98
X-83.389 Y-23.362
X-82.958 Y-22.754
X-82.512 Y-22.157
X-82.052 Y-21.571
X-81.578 Y-20.996
X-81.089 Y-20.433
X-80.587 Y-19.883
X-80.071 Y-19.346
X-79.541 Y-18.821
X-78.999 Y-18.311
X-78.444 Y-17.813
X-77.877 Y-17.33
X-77.299 Y-16.86
X-76.709 Y-16.405
X-76.108 Y-15.965
X-75.496 Y-15.54
X-74.874 Y-15.129
X-74.242 Y-14.734
X-73.601 Y-14.355
X-72.95 Y-13.993
X-72.291 Y-13.646
X-71.623 Y-13.316
X-70.947 Y-13.002
X-70.263 Y-12.706
X-69.573 Y-12.426
X-68.876 Y-12.163
X-68.172 Y-11.917
X-67.463 Y-11.689
X-66.748 Y-11.478
X-66.029 Y-11.285
X-65.305 Y-11.11
X-64.576 Y-10.953
X-63.844 Y-10.814
X-63.109 Y-10.694
X-62.371 Y-10.592
X-61.631 Y-10.508
X-60.888 Y-10.442
X-60.145 Y-10.395
X-59.4 Y-10.366
X-58.655 Y-10.355
X-57.91 Y-10.362
X-57.166 Y-10.388
X-56.422 Y-10.432
X-55.68 Y-10.495
X-54.939 Y-10.576
X-54.201 Y-10.675
X-53.465 Y-10.793
X-52.732 Y-10.929
X-52.003 Y-11.082
X-51.278 Y-11.254
X-50.557 Y-11.443
X-49.842 Y-11.649
X-49.131 Y-11.873
X-48.426 Y-12.114
X-47.727 Y-12.373
X-47.035 Y-12.649
X-46.35 Y-12.942
X-45.673 Y-13.252
X-45.003 Y-13.578
X-44.341 Y-13.921
X-43.689 Y-14.28
X-43.045 Y-14.655
X-42.41 Y-15.045
X-41.785 Y-15.451
X-41.17 Y-15.871
X-40.565 Y-16.307
X-39.972 Y-16.757
X-39.389 Y-17.221
X-38.818 Y-17.7
X-38.259 Y-18.193
X-37.712 Y-18.699
X-37.178 Y-19.218
X-36.657 Y-19.75
X-36.148 Y-20.295
X-35.653 Y-20.851
X-35.171 Y-21.42
X-34.703 Y-22
X-34.249 Y-22.591
X-33.81 Y-23.192
X-33.386 Y-23.805
X-32.977 Y-24.427
X-32.583 Y-25.06
X-32.205 Y-25.702
X-31.842 Y-26.353
X-31.496 Y-27.012
X-31.165 Y-27.68
X-30.851 Y-28.356
X-30.553 Y-29.038
X-30.271 Y-29.728
X-30.006 Y-30.425
X-29.758 Y-31.127
X-29.528 Y-31.836
X-29.314 Y-32.55
X-29.119 Y-33.268
X-28.94 Y-33.992
X-28.78 Y-34.719
X-28.637 Y-35.451
X-28.511 Y-36.185
X-28.404 Y-36.922
X-28.314 Y-37.662
X-28.242 Y-38.404
X-28.188 Y-39.147
X-28.152 Y-39.891
X-28.134 Y-40.636
Y-41.381
X-28.153 Y-42.126
X-28.19 Y-42.87
X-28.245 Y-43.613
X-28.318 Y-44.354
X-28.409 Y-45.094
X-28.518 Y-45.831
X-28.645 Y-46.565
X-28.789 Y-47.296
X-28.951 Y-48.023
X-29.131 Y-48.746
X-29.328 Y-49.465
X-29.542 Y-50.178
X-29.774 Y-50.886
X-30.024 Y-51.588
X-30.29 Y-52.284
X-30.574 Y-52.973
X-30.874 Y-53.655
X-31.19 Y-54.33
X-31.522 Y-54.996
X-31.871 Y-55.655
X-32.235 Y-56.305
X-32.615 Y-56.946
X-33.011 Y-57.577
X-33.421 Y-58.199
X-33.847 Y-58.81
X-34.288 Y-59.411
X-34.744 Y-60
X-35.214 Y-60.579
X-35.697 Y-61.146
X-36.194 Y-61.7
X-36.705 Y-62.243
X-37.228 Y-62.773
X-37.764 Y-63.291
X-38.313 Y-63.795
X-38.873 Y-64.286
X-39.445 Y-64.763
X-40.029 Y-65.226
X-40.624 Y-65.675
X-41.23 Y-66.109
X-41.846 Y-66.528
X-42.472 Y-66.932
X-43.107 Y-67.321
X-43.752 Y-67.694
X-44.405 Y-68.052
X-45.067 Y-68.394
X-45.737 Y-68.72
X-46.415 Y-69.03
X-47.1 Y-69.323
X-47.792 Y-69.6
X-48.49 Y-69.859
X-49.195 Y-70.101
X-49.905 Y-70.326
X-50.621 Y-70.534
X-51.341 Y-70.724
X-52.066 Y-70.897
X-52.794 Y-71.053
X-53.526 Y-71.191
X-54.262 Y-71.312
X-55 Y-71.415
X-55.74 Y-71.5
X-56.482 Y-71.567
X-57.225 Y-71.616
X-57.97 Y-71.647
X-58.715 Y-71.66
X-59.46 Y-71.654
X-60.204 Y-71.631
X-60.948 Y-71.59
X-61.691 Y-71.532
X-62.432 Y-71.455
X-63.171 Y-71.361
X-63.908 Y-71.249
X-64.642 Y-71.12
X-65.372 Y-70.973
X-66.099 Y-70.808
X-66.821 Y-70.626
X-67.539 Y-70.425
X-68.251 Y-70.208
X-68.959 Y-69.974
X-69.66 Y-69.722
X-70.355 Y-69.454
X-71.044 Y-69.17
X-71.725 Y-68.869
X-72.4 Y-68.552
X-73.066 Y-68.219
X-73.725 Y-67.87
X-74.374 Y-67.506
X-75.015 Y-67.126
X-75.646 Y-66.73
X-76.268 Y-66.319
X-76.88 Y-65.894
X-77.481 Y-65.454
X-78.072 Y-65
X-78.652 Y-64.532
X-79.22 Y-64.05
X-79.777 Y-63.555
X-80.322 Y-63.047
X-80.855 Y-62.526
X-81.375 Y-61.993
X-81.882 Y-61.447
X-82.376 Y-60.889
X-82.856 Y-60.319
X-83.322 Y-59.738
X-83.774 Y-59.146
X-84.212 Y-58.543
X-84.636 Y-57.93
X-85.045 Y-57.308
X-85.439 Y-56.675
X-85.818 Y-56.034
X-86.181 Y-55.383
X-86.529 Y-54.725
X-86.861 Y-54.058
X-87.177 Y-53.383
X-87.477 Y-52.701
X-87.76 Y-52.011
X-88.026 Y-51.316
X-88.276 Y-50.614
X-88.509 Y-49.906
X-88.726 Y-49.193
X-88.925 Y-48.475
X-89.108 Y-47.753
X-89.273 Y-47.026
X-89.421 Y-46.296
X-89.552 Y-45.563
X-89.665 Y-44.826
X-89.76 Y-44.087
X-89.837 Y-43.346
X-89.896 Y-42.604
X-89.938 Y-41.86
X-89.962 Y-41.115
X-89.969 Y-40.37
X-89.958 Y-39.625
X-89.929 Y-38.88
X-89.883 Y-38.137
X-89.819 Y-37.394
X-89.738 Y-36.654
X-89.639 Y-35.915
X-89.522 Y-35.18
X-89.388 Y-34.447
X-89.236 Y-33.717
X-89.067 Y-32.992
X-88.88 Y-32.27
X-88.677 Y-31.554
X-88.456 Y-30.842
X-88.219 Y-30.136
X-87.965 Y-29.435
X-87.695 Y-28.741
X-87.409 Y-28.053
X-87.106 Y-27.372
X-86.787 Y-26.699
X-86.452 Y-26.034
X-86.1 Y-25.376
X-85.734 Y-24.728
X-85.352 Y-24.088
X-84.955 Y-23.458
X-84.543 Y-22.837
X-84.116 Y-22.226
X-83.676 Y-21.625
X-83.221 Y-21.035
X-82.753 Y-20.455
X-82.271 Y-19.887
X-81.775 Y-19.331
X-81.266 Y-18.786
X-80.745 Y-18.254
X-80.211 Y-17.735
X-79.664 Y-17.228
X-79.106 Y-16.735
X-78.536 Y-16.255
X-77.955 Y-15.788
X-77.364 Y-15.336
X-76.761 Y-14.897
X-76.149 Y-14.473
X-75.526 Y-14.063
X-74.895 Y-13.669
X-74.253 Y-13.289
X-73.603 Y-12.925
X-72.945 Y-12.577
X-72.278 Y-12.245
X-71.603 Y-11.928
X-70.921 Y-11.628
X-70.233 Y-11.344
X-69.537 Y-11.076
X-68.836 Y-10.824
X-68.129 Y-10.59
X-67.416 Y-10.372
X-66.699 Y-10.17
X-65.977 Y-9.986
X-65.251 Y-9.819
X-64.521 Y-9.67
X-63.788 Y-9.538
X-63.051 Y-9.424
X-62.313 Y-9.327
X-61.572 Y-9.248
X-60.829 Y-9.186
X-60.086 Y-9.142
X-59.341 Y-9.115
X-58.596 Y-9.105
X-57.851 Y-9.114
X-57.106 Y-9.14
X-56.363 Y-9.183
X-55.62 Y-9.245
X-54.879 Y-9.324
X-54.141 Y-9.422
X-53.404 Y-9.536
X-52.671 Y-9.668
X-51.941 Y-9.817
X-51.215 Y-9.983
X-50.493 Y-10.167
X-49.775 Y-10.367
X-49.062 Y-10.584
X-48.355 Y-10.817
X-47.653 Y-11.067
X-46.957 Y-11.334
X-46.268 Y-11.617
X-45.586 Y-11.917
X-44.911 Y-12.233
X-44.244 Y-12.564
X-43.584 Y-12.911
X-42.933 Y-13.273
X-42.291 Y-13.651
X-41.658 Y-14.043
X-41.034 Y-14.45
X-40.419 Y-14.872
X-39.815 Y-15.307
X-39.221 Y-15.757
X-38.638 Y-16.221
X-38.066 Y-16.699
X-37.506 Y-17.19
X-36.957 Y-17.694
X-36.42 Y-18.21
X-35.896 Y-18.74
X-35.383 Y-19.281
X-34.884 Y-19.834
X-34.397 Y-20.398
X-33.924 Y-20.973
X-33.464 Y-21.559
X-33.018 Y-22.156
X-32.586 Y-22.763
X-32.169 Y-23.38
X-31.766 Y-24.007
X-31.377 Y-24.643
X-31.004 Y-25.288
X-30.646 Y-25.941
X-30.303 Y-26.603
X-29.976 Y-27.272
X-29.664 Y-27.949
X-29.368 Y-28.632
X-29.088 Y-29.323
X-28.824 Y-30.019
X-28.576 Y-30.722
X-28.345 Y-31.43
X-28.13 Y-32.144
X-27.933 Y-32.862
X-27.752 Y-33.585
X-27.589 Y-34.312
X-27.442 Y-35.042
X-27.312 Y-35.776
X-27.199 Y-36.513
X-27.104 Y-37.252
X-27.025 Y-37.992
X-26.964 Y-38.735
X-26.92 Y-39.479
X-26.893 Y-40.223
X-26.883 Y-40.968
X-26.892 Y-41.713
X-26.917 Y-42.458
X-26.961 Y-43.202
X-27.021 Y-43.944
X-27.099 Y-44.685
X-27.194 Y-45.424
X-27.306 Y-46.161
X-27.435 Y-46.895
X-27.582 Y-47.625
X-27.745 Y-48.352
X-27.925 Y-49.075
X-28.122 Y-49.794
X-28.335 Y-50.508
X-28.566 Y-51.216
X-28.814 Y-51.919
X-29.078 Y-52.615
X-29.358 Y-53.306
X-29.654 Y-53.989
X-29.966 Y-54.666
X-30.294 Y-55.335
X-30.637 Y-55.997
X-30.995 Y-56.65
X-31.368 Y-57.295
X-31.756 Y-57.931
X-32.159 Y-58.557
X-32.577 Y-59.174
X-33.009 Y-59.781
X-33.456 Y-60.378
X-33.916 Y-60.964
X-34.389 Y-61.539
X-34.876 Y-62.103
X-35.376 Y-62.655
X-35.889 Y-63.196
X-36.414 Y-63.725
X-36.951 Y-64.241
X-37.5 Y-64.745
X-38.06 Y-65.236
X-38.632 Y-65.713
X-39.215 Y-66.177
X-39.809 Y-66.627
X-40.413 Y-67.063
X-41.028 Y-67.484
X-41.652 Y-67.892
X-42.285 Y-68.284
X-42.927 Y-68.662
X-43.578 Y-69.025
X-44.237 Y-69.373
X-44.904 Y-69.705
X-45.578 Y-70.022
X-46.259 Y-70.324
X-46.948 Y-70.609
X-47.642 Y-70.878
X-48.343 Y-71.13
X-49.05 Y-71.367
X-49.762 Y-71.586
X-50.479 Y-71.79
X-51.2 Y-71.976
X-51.925 Y-72.146
X-52.655 Y-72.299
X-53.387 Y-72.435
X-54.122 Y-72.555
X-54.861 Y-72.657
X-55.601 Y-72.742
X-56.343 Y-72.81
X-57.086 Y-72.86
X-57.83 Y-72.893
X-58.575 Y-72.908
X-59.32 Y-72.906
X-60.065 Y-72.887
X-60.809 Y-72.851
X-61.552 Y-72.798
X-62.294 Y-72.727
X-63.034 Y-72.64
X-63.772 Y-72.535
X-64.507 Y-72.414
X-65.239 Y-72.276
X-65.968 Y-72.12
X-66.693 Y-71.948
X-67.413 Y-71.759
X-68.129 Y-71.553
X-68.84 Y-71.33
X-69.546 Y-71.091
X-70.246 Y-70.837
X-70.94 Y-70.566
X-71.628 Y-70.279
X-72.309 Y-69.977
X-72.983 Y-69.659
X-73.649 Y-69.325
X-74.308 Y-68.977
X-74.958 Y-68.613
X-75.599 Y-68.234
X-76.232 Y-67.84
X-76.855 Y-67.431
X-77.468 Y-67.009
X-78.072 Y-66.572
X-78.665 Y-66.122
X-79.249 Y-65.658
X-79.821 Y-65.181
X-80.382 Y-64.691
X-80.932 Y-64.189
X-81.471 Y-63.674
X-81.997 Y-63.146
X-82.511 Y-62.607
X-83.013 Y-62.056
X-83.501 Y-61.494
X-83.977 Y-60.92
X-84.439 Y-60.336
X-84.888 Y-59.741
X-85.323 Y-59.136
X-85.744 Y-58.521
X-86.151 Y-57.897
X-86.543 Y-57.264
X-86.921 Y-56.622
X-87.285 Y-55.971
X-87.633 Y-55.313
X-87.966 Y-54.646
X-88.283 Y-53.972
X-88.584 Y-53.29
X-88.87 Y-52.602
X-89.139 Y-51.908
X-89.393 Y-51.207
X-89.631 Y-50.501
X-89.852 Y-49.79
X-90.058 Y-49.073
X-90.247 Y-48.353
X-90.419 Y-47.628
X-90.575 Y-46.899
X-90.715 Y-46.167
X-90.837 Y-45.432
X-90.942 Y-44.695
X-91.031 Y-43.955
X-91.102 Y-43.213
X-91.156 Y-42.47
X-91.194 Y-41.726
X-91.214 Y-40.981
X-91.218 Y-40.236
X-91.204 Y-39.491
X-91.174 Y-38.747
X-91.127 Y-38.003
X-91.063 Y-37.261
X-90.982 Y-36.52
X-90.883 Y-35.782
X-90.768 Y-35.046
X-90.635 Y-34.313
X-90.486 Y-33.583
X-90.32 Y-32.856
X-90.137 Y-32.134
X-89.938 Y-31.416
X-89.723 Y-30.703
X-89.492 Y-29.995
X-89.244 Y-29.292
X-88.981 Y-28.595
X-88.702 Y-27.904
X-88.407 Y-27.22
X-88.097 Y-26.542
X-87.771 Y-25.872
X-87.429 Y-25.21
X-87.073 Y-24.556
X-86.702 Y-23.91
X-86.316 Y-23.272
X-85.916 Y-22.644
X-85.501 Y-22.025
X-85.073 Y-21.415
X-84.631 Y-20.816
X-84.175 Y-20.226
X-83.707 Y-19.647
X-83.225 Y-19.079
X-82.73 Y-18.522
X-82.222 Y-17.976
X-81.702 Y-17.443
X-81.169 Y-16.922
X-80.625 Y-16.413
X-80.069 Y-15.917
X-79.503 Y-15.433
X-78.925 Y-14.962
X-78.337 Y-14.505
X-77.739 Y-14.061
X-77.13 Y-13.631
X-76.512 Y-13.214
X-75.885 Y-12.812
X-75.249 Y-12.425
X-74.604 Y-12.052
X-73.95 Y-11.694
X-73.289 Y-11.351
X-72.62 Y-11.024
X-71.943 Y-10.711
X-71.26 Y-10.415
X-70.57 Y-10.133
X-69.874 Y-9.868
X-69.172 Y-9.618
X-68.464 Y-9.384
X-67.752 Y-9.167
X-67.034 Y-8.965
X-66.312 Y-8.781
X-65.587 Y-8.613
X-64.857 Y-8.462
X-64.124 Y-8.327
X-63.388 Y-8.21
X-62.65 Y-8.109
X-61.91 Y-8.026
X-61.168 Y-7.958
X-60.424 Y-7.908
X-59.68 Y-7.875
X-58.935 Y-7.858
X-58.19 Y-7.859
X-57.445 Y-7.876
X-56.701 Y-7.91
X-55.958 Y-7.962
X-55.216 Y-8.031
X-54.476 Y-8.116
X-53.738 Y-8.219
X-53.002 Y-8.338
X-52.27 Y-8.474
X-51.54 Y-8.626
X-50.815 Y-8.795
X-50.093 Y-8.98
X-49.376 Y-9.181
X-48.663 Y-9.398
X-47.955 Y-9.632
X-47.253 Y-9.881
X-46.557 Y-10.147
X-45.868 Y-10.429
X-45.184 Y-10.726
X-44.508 Y-11.039
X-43.839 Y-11.368
X-43.178 Y-11.711
X-42.525 Y-12.069
X-41.879 Y-12.441
X-41.243 Y-12.828
X-40.615 Y-13.229
X-39.996 Y-13.644
X-39.387 Y-14.073
X-38.788 Y-14.516
X-38.198 Y-14.972
X-37.62 Y-15.442
X-37.052 Y-15.924
X-36.495 Y-16.419
X-35.95 Y-16.927
X-35.416 Y-17.446
X-34.894 Y-17.978
X-34.384 Y-18.521
X-33.886 Y-19.075
X-33.401 Y-19.641
X-32.928 Y-20.216
X-32.468 Y-20.803
X-32.022 Y-21.399
X-31.589 Y-22.006
X-31.17 Y-22.622
X-30.766 Y-23.248
X-30.375 Y-23.882
X-29.999 Y-24.526
X-29.638 Y-25.177
X-29.291 Y-25.836
X-28.959 Y-26.503
X-28.641 Y-27.177
X-28.339 Y-27.859
X-28.052 Y-28.546
X-27.781 Y-29.24
X-27.525 Y-29.94
X-27.285 Y-30.645
X-27.061 Y-31.356
X-26.853 Y-32.071
X-26.661 Y-32.791
X-26.486 Y-33.515
X-26.327 Y-34.243
X-26.184 Y-34.974
X-26.057 Y-35.708
X-25.947 Y-36.445
X-25.853 Y-37.184
X-25.776 Y-37.925
X-25.715 Y-38.668
X-25.67 Y-39.412
X-25.643 Y-40.156
X-25.633 Y-40.901
X-25.639 Y-41.646
X-25.663 Y-42.391
X-25.703 Y-43.135
X-25.76 Y-43.878
X-25.834 Y-44.619
X-25.924 Y-45.359
X-26.03 Y-46.096
X-26.153 Y-46.831
X-26.293 Y-47.563
X-26.449 Y-48.292
X-26.621 Y-49.017
X-26.809 Y-49.737
X-27.013 Y-50.454
X-27.234 Y-51.165
X-27.471 Y-51.872
X-27.724 Y-52.573
X-27.992 Y-53.268
X-28.277 Y-53.957
X-28.576 Y-54.639
X-28.891 Y-55.314
X-29.22 Y-55.982
X-29.565 Y-56.643
X-29.924 Y-57.296
X-30.297 Y-57.941
X-30.685 Y-58.577
X-31.087 Y-59.204
X-31.504 Y-59.821
X-31.935 Y-60.43
X-32.379 Y-61.028
X-32.836 Y-61.616
X-33.307 Y-62.193
X-33.79 Y-62.76
X-34.286 Y-63.316
X-34.795 Y-63.861
X-35.315 Y-64.394
X-35.847 Y-64.916
X-36.391 Y-65.425
X-36.945 Y-65.923
X-37.511 Y-66.407
X-38.088 Y-66.879
X-38.675 Y-67.337
X-39.273 Y-67.783
X-39.88 Y-68.214
X-40.497 Y-68.632
X-41.123 Y-69.036
X-41.758 Y-69.426
X-42.402 Y-69.801
X-43.053 Y-70.163
X-43.713 Y-70.509
X-44.38 Y-70.841
X-45.054 Y-71.158
X-45.735 Y-71.46
X-46.423 Y-71.746
X-47.117 Y-72.017
X-47.817 Y-72.271
X-48.523 Y-72.51
X-49.234 Y-72.733
X-49.95 Y-72.941
X-50.67 Y-73.132
X-51.394 Y-73.307
X-52.122 Y-73.466
X-52.853 Y-73.609
X-53.587 Y-73.736
X-54.324 Y-73.846
X-55.063 Y-73.94
X-55.804 Y-74.017
X-56.547 Y-74.078
X-57.291 Y-74.121
X-58.035 Y-74.148
X-58.78 Y-74.159
X-59.525 Y-74.153
X-60.27 Y-74.13
X-61.014 Y-74.091
X-61.757 Y-74.035
X-62.499 Y-73.963
X-63.238 Y-73.874
X-63.976 Y-73.769
X-64.711 Y-73.648
X-65.443 Y-73.511
X-66.172 Y-73.356
X-66.898 Y-73.186
X-67.619 Y-72.999
X-68.336 Y-72.796
X-69.048 Y-72.577
X-69.755 Y-72.342
X-70.457 Y-72.092
X-71.153 Y-71.826
X-71.843 Y-71.545
X-72.527 Y-71.249
X-73.204 Y-70.938
X-73.874 Y-70.612
X-74.536 Y-70.272
X-75.191 Y-69.916
X-75.838 Y-69.546
X-76.476 Y-69.162
X-77.105 Y-68.763
X-77.726 Y-68.35
X-78.337 Y-67.924
X-78.939 Y-67.485
X-79.531 Y-67.032
X-80.112 Y-66.567
X-80.684 Y-66.089
X-81.245 Y-65.598
X-81.794 Y-65.095
X-82.333 Y-64.581
X-82.86 Y-64.054
X-83.375 Y-63.515
X-83.878 Y-62.966
X-84.368 Y-62.405
X-84.846 Y-61.833
X-85.311 Y-61.251
X-85.763 Y-60.659
X-86.202 Y-60.057
X-86.628 Y-59.445
X-87.04 Y-58.825
X-87.439 Y-58.195
X-87.823 Y-57.557
X-88.194 Y-56.911
X-88.55 Y-56.256
X-88.891 Y-55.594
X-89.217 Y-54.924
X-89.529 Y-54.247
X-89.825 Y-53.564
X-90.106 Y-52.874
X-90.372 Y-52.178
X-90.623 Y-51.476
X-90.858 Y-50.769
X-91.077 Y-50.057
X-91.281 Y-49.34
X-91.469 Y-48.619
X-91.642 Y-47.894
X-91.798 Y-47.166
X-91.938 Y-46.434
X-92.062 Y-45.699
X-92.169 Y-44.962
X-92.26 Y-44.223
X-92.334 Y-43.481
X-92.392 Y-42.739
X-92.434 Y-41.995
X-92.459 Y-41.25
X-92.468 Y-40.505
X-92.461 Y-39.76
X-92.438 Y-39.015
X-92.398 Y-38.271
X-92.342 Y-37.528
X-92.27 Y-36.787
X-92.181 Y-36.047
X-92.076 Y-35.309
X-91.954 Y-34.574
X-91.816 Y-33.842
X-91.662 Y-33.113
X-91.492 Y-32.388
X-91.306 Y-31.666
X-91.104 Y-30.949
X-90.887 Y-30.236
X-90.654 Y-29.529
X-90.406 Y-28.826
X-90.142 Y-28.129
X-89.864 Y-27.438
X-89.569 Y-26.754
X-89.26 Y-26.076
X-88.936 Y-25.405
X-88.597 Y-24.742
X-88.243 Y-24.086
X-87.875 Y-23.438
X-87.493 Y-22.799
X-87.097 Y-22.168
X-86.687 Y-21.545
X-86.264 Y-20.932
X-85.827 Y-20.328
X-85.377 Y-19.734
X-84.915 Y-19.15
X-84.44 Y-18.576
X-83.952 Y-18.013
X-83.452 Y-17.461
X-82.939 Y-16.92
X-82.415 Y-16.391
X-81.879 Y-15.873
X-81.332 Y-15.367
X-80.774 Y-14.873
X-80.206 Y-14.392
X-79.627 Y-13.923
X-79.038 Y-13.467
X-78.439 Y-13.024
X-77.83 Y-12.594
X-77.212 Y-12.177
X-76.586 Y-11.774
X-75.95 Y-11.386
X-75.306 Y-11.012
X-74.653 Y-10.652
X-73.993 Y-10.306
X-73.326 Y-9.975
X-72.651 Y-9.659
X-71.969 Y-9.358
X-71.282 Y-9.072
X-70.588 Y-8.8
X-69.888 Y-8.544
X-69.183 Y-8.304
X-68.473 Y-8.078
X-67.758 Y-7.868
X-67.038 Y-7.675
X-66.315 Y-7.497
X-65.588 Y-7.335
X-64.857 Y-7.19
X-64.123 Y-7.06
X-63.387 Y-6.947
X-62.648 Y-6.85
X-61.907 Y-6.769
X-61.165 Y-6.704
X-60.422 Y-6.656
X-59.677 Y-6.623
X-58.932 Y-6.607
X-58.187
X-57.442 Y-6.624
X-56.698 Y-6.657
X-55.955 Y-6.707
X-55.213 Y-6.774
X-54.472 Y-6.856
X-53.734 Y-6.955
X-52.998 Y-7.07
X-52.264 Y-7.201
X-51.534 Y-7.348
X-50.807 Y-7.511
X-50.083 Y-7.69
X-49.364 Y-7.884
X-48.649 Y-8.094
X-47.939 Y-8.319
X-47.234 Y-8.56
X-46.534 Y-8.816
X-45.841 Y-9.088
X-45.153 Y-9.375
X-44.472 Y-9.677
X-43.798 Y-9.994
X-43.13 Y-10.326
X-42.47 Y-10.671
X-41.818 Y-11.031
X-41.174 Y-11.406
X-40.538 Y-11.794
X-39.91 Y-12.195
X-39.291 Y-12.61
X-38.682 Y-13.039
X-38.082 Y-13.481
X-37.492 Y-13.936
X-36.912 Y-14.403
X-36.343 Y-14.884
X-35.784 Y-15.376
X-35.236 Y-15.881
X-34.699 Y-16.398
X-34.173 Y-16.925
X-33.658 Y-17.464
X-33.156 Y-18.014
X-32.665 Y-18.575
X-32.187 Y-19.146
X-31.72 Y-19.727
X-31.267 Y-20.319
X-30.827 Y-20.92
X-30.399 Y-21.53
X-29.986 Y-22.15
X-29.585 Y-22.778
X-29.199 Y-23.415
X-28.826 Y-24.06
X-28.467 Y-24.713
X-28.123 Y-25.374
X-27.793 Y-26.042
X-27.477 Y-26.716
X-27.175 Y-27.398
X-26.889 Y-28.086
X-26.617 Y-28.779
X-26.36 Y-29.479
X-26.119 Y-30.184
X-25.893 Y-30.894
X-25.683 Y-31.609
X-25.489 Y-32.328
X-25.31 Y-33.051
X-25.146 Y-33.778
X-24.999 Y-34.508
X-24.867 Y-35.242
X-24.751 Y-35.978
X-24.65 Y-36.716
X-24.566 Y-37.456
X-24.497 Y-38.198
X-24.444 Y-38.941
X-24.408 Y-39.685
X-24.388 Y-40.43
X-24.384 Y-41.175
X-24.396 Y-41.92
X-24.424 Y-42.665
X-24.469 Y-43.408
X-24.529 Y-44.151
X-24.606 Y-44.892
X-24.698 Y-45.631
X-24.807 Y-46.368
X-24.931 Y-47.103
X-25.071 Y-47.835
X-25.227 Y-48.563
X-25.398 Y-49.289
X-25.586 Y-50.01
X-25.789 Y-50.726
X-26.008 Y-51.439
X-26.242 Y-52.146
X-26.492 Y-52.848
X-26.757 Y-53.544
X-27.037 Y-54.235
X-27.331 Y-54.919
X-27.641 Y-55.597
X-27.965 Y-56.268
X-28.303 Y-56.932
X-28.655 Y-57.588
X-29.022 Y-58.237
X-29.402 Y-58.878
X-29.797 Y-59.51
X-30.205 Y-60.133
X-30.626 Y-60.747
X-31.061 Y-61.352
X-31.509 Y-61.948
X-31.97 Y-62.533
X-32.443 Y-63.109
X-32.928 Y-63.674
X-33.426 Y-64.229
X-33.935 Y-64.772
X-34.456 Y-65.305
X-34.988 Y-65.826
X-35.532 Y-66.336
X-36.086 Y-66.834
X-36.651 Y-67.319
X-37.227 Y-67.792
X-37.813 Y-68.253
X-38.409 Y-68.7
X-39.014 Y-69.135
X-39.628 Y-69.556
X-40.252 Y-69.964
X-40.884 Y-70.358
X-41.524 Y-70.739
X-42.173 Y-71.106
X-42.829 Y-71.459
X-43.492 Y-71.798
X-44.163 Y-72.123
X-44.84 Y-72.433
X-45.525 Y-72.728
X-46.215 Y-73.008
X-46.911 Y-73.274
X-47.613 Y-73.524
X-48.32 Y-73.758
X-49.032 Y-73.978
X-49.749 Y-74.182
X-50.469 Y-74.371
X-51.194 Y-74.544
X-51.922 Y-74.702
X-52.653 Y-74.845
X-53.388 Y-74.971
X-54.124 Y-75.082
X-54.863 Y-75.177
X-55.604 Y-75.255
X-56.347 Y-75.318
X-57.09 Y-75.364
X-57.835 Y-75.394
X-58.58 Y-75.409
X-59.325 Y-75.407
X-60.07 Y-75.389
X-60.814 Y-75.355
X-61.557 Y-75.306
X-62.3 Y-75.24
X-63.04 Y-75.159
X-63.779 Y-75.062
X-64.515 Y-74.949
X-65.249 Y-74.821
X-65.98 Y-74.676
X-66.708 Y-74.516
X-67.432 Y-74.34
X-68.152 Y-74.149
X-68.868 Y-73.942
X-69.579 Y-73.72
X-70.285 Y-73.482
X-70.986 Y-73.23
X-71.682 Y-72.963
X-72.371 Y-72.681
X-73.055 Y-72.384
X-73.732 Y-72.073
X-74.402 Y-71.748
X-75.065 Y-71.408
X-75.721 Y-71.054
X-76.368 Y-70.685
X-77.008 Y-70.303
X-77.639 Y-69.907
X-78.262 Y-69.498
X-78.875 Y-69.076
X-79.48 Y-68.641
X-80.075 Y-68.192
X-80.661 Y-67.732
X-81.237 Y-67.259
X-81.802 Y-66.774
X-82.358 Y-66.277
X-82.902 Y-65.769
X-83.436 Y-65.249
X-83.958 Y-64.717
X-84.468 Y-64.175
X-84.967 Y-63.621
X-85.454 Y-63.057
X-85.929 Y-62.483
X-86.392 Y-61.899
X-86.841 Y-61.305
X-87.279 Y-60.702
X-87.703 Y-60.089
X-88.114 Y-59.468
X-88.513 Y-58.838
X-88.897 Y-58.2
X-89.268 Y-57.554
X-89.625 Y-56.9
X-89.968 Y-56.239
X-90.296 Y-55.57
X-90.61 Y-54.894
X-90.909 Y-54.212
X-91.194 Y-53.523
X-91.464 Y-52.829
X-91.72 Y-52.129
X-91.96 Y-51.424
X-92.185 Y-50.714
X-92.396 Y-49.999
X-92.591 Y-49.28
X-92.771 Y-48.557
X-92.936 Y-47.83
X-93.085 Y-47.1
X-93.219 Y-46.367
X-93.336 Y-45.632
X-93.438 Y-44.894
X-93.525 Y-44.154
X-93.595 Y-43.412
X-93.65 Y-42.669
X-93.689 Y-41.925
X-93.712 Y-41.18
X-93.72 Y-40.435
X-93.712 Y-39.69
X-93.688 Y-38.945
X-93.648 Y-38.201
X-93.593 Y-37.458
X-93.521 Y-36.717
X-93.434 Y-35.977
X-93.331 Y-35.239
X-93.212 Y-34.503
X-93.077 Y-33.771
X-92.927 Y-33.041
X-92.761 Y-32.314
X-92.58 Y-31.592
X-92.384 Y-30.873
X-92.173 Y-30.158
X-91.946 Y-29.449
X-91.705 Y-28.744
X-91.449 Y-28.044
X-91.178 Y-27.35
X-90.893 Y-26.662
X-90.592 Y-25.98
X-90.278 Y-25.304
X-89.949 Y-24.636
X-89.605 Y-23.975
X-89.248 Y-23.321
X-88.877 Y-22.675
X-88.492 Y-22.037
X-88.095 Y-21.407
X-87.683 Y-20.785
X-87.259 Y-20.173
X-86.822 Y-19.569
X-86.373 Y-18.975
X-85.911 Y-18.391
X-85.436 Y-17.816
X-84.95 Y-17.252
X-84.451 Y-16.698
X-83.941 Y-16.156
X-83.419 Y-15.624
X-82.886 Y-15.103
X-82.342 Y-14.594
X-81.787 Y-14.097
X-81.222 Y-13.611
X-80.647 Y-13.137
X-80.062 Y-12.676
X-79.467 Y-12.227
X-78.864 Y-11.79
X-78.251 Y-11.367
X-77.629 Y-10.956
X-76.998 Y-10.559
X-76.36 Y-10.176
X-75.713 Y-9.806
X-75.058 Y-9.45
X-74.396 Y-9.109
X-73.727 Y-8.781
X-73.051 Y-8.467
X-72.369 Y-8.168
X-71.68 Y-7.883
X-70.986 Y-7.613
X-70.286 Y-7.357
X-69.581 Y-7.116
X-68.871 Y-6.891
X-68.156 Y-6.68
X-67.437 Y-6.485
X-66.714 Y-6.305
X-65.988 Y-6.141
X-65.257 Y-5.992
X-64.524 Y-5.859
X-63.789 Y-5.741
X-63.051 Y-5.639
X-62.311 Y-5.553
X-61.569 Y-5.482
X-60.826 Y-5.427
X-60.082 Y-5.387
X-59.337 Y-5.363
X-58.592 Y-5.355
X-57.847 Y-5.363
X-57.102 Y-5.386
X-56.358 Y-5.425
X-55.615 Y-5.481
X-54.874 Y-5.552
X-54.134 Y-5.638
X-53.396 Y-5.741
X-52.66 Y-5.859
X-51.927 Y-5.992
X-51.197 Y-6.141
X-50.47 Y-6.305
X-49.747 Y-6.484
X-49.028 Y-6.678
X-48.313 Y-6.887
X-47.602 Y-7.112
X-46.897 Y-7.351
X-46.197 Y-7.606
X-45.502 Y-7.876
X-44.813 Y-8.16
X-44.131 Y-8.458
X-43.454 Y-8.771
X-42.785 Y-9.098
X-42.123 Y-9.439
X-41.467 Y-9.794
X-40.82 Y-10.163
X-40.18 Y-10.544
X-39.548 Y-10.94
X-38.925 Y-11.348
X-38.31 Y-11.769
X-37.705 Y-12.203
X-37.109 Y-12.65
X-36.522 Y-13.109
X-35.945 Y-13.581
X-35.378 Y-14.064
X-34.822 Y-14.56
X-34.276 Y-15.067
X-33.741 Y-15.585
X-33.216 Y-16.114
X-32.703 Y-16.654
X-32.201 Y-17.205
X-31.71 Y-17.765
X-31.231 Y-18.336
X-30.765 Y-18.917
X-30.31 Y-19.507
X-29.868 Y-20.107
X-29.439 Y-20.717
X-29.023 Y-21.335
X-28.62 Y-21.961
X-28.23 Y-22.596
X-27.854 Y-23.239
X-27.491 Y-23.89
X-27.141 Y-24.547
X-26.805 Y-25.213
X-26.483 Y-25.884
X-26.175 Y-26.563
X-25.881 Y-27.247
X-25.601 Y-27.938
X-25.336 Y-28.634
X-25.086 Y-29.336
X-24.85 Y-30.043
X-24.629 Y-30.754
X-24.423 Y-31.47
X-24.233 Y-32.191
X-24.057 Y-32.915
X-23.896 Y-33.642
X-23.751 Y-34.373
X-23.62 Y-35.107
X-23.505 Y-35.843
X-23.405 Y-36.581
X-23.321 Y-37.321
X-23.251 Y-38.063
X-23.198 Y-38.806
X-23.16 Y-39.55
X-23.138 Y-40.295
X-23.131 Y-41.04
X-23.141 Y-41.785
X-23.165 Y-42.53
X-23.206 Y-43.274
X-23.261 Y-44.017
X-23.333 Y-44.758
X-23.419 Y-45.498
X-23.521 Y-46.236
X-23.639 Y-46.972
X-23.771 Y-47.705
X-23.919 Y-48.436
X-24.082 Y-49.163
X-24.26 Y-49.886
X-24.453 Y-50.606
X-24.662 Y-51.321
X-24.885 Y-52.032
X-25.124 Y-52.738
X-25.377 Y-53.438
X-25.645 Y-54.134
X-25.927 Y-54.823
X-26.223 Y-55.507
X-26.534 Y-56.184
X-26.858 Y-56.855
X-27.197 Y-57.518
X-27.549 Y-58.175
X-27.915 Y-58.824
X-28.294 Y-59.465
X-28.687 Y-60.098
X-29.093 Y-60.723
X-29.513 Y-61.339
X-29.945 Y-61.946
X-30.389 Y-62.544
X-30.846 Y-63.132
X-31.316 Y-63.711
X-31.797 Y-64.279
X-32.29 Y-64.838
X-32.794 Y-65.387
X-33.31 Y-65.924
X-33.836 Y-66.451
X-34.374 Y-66.967
X-34.922 Y-67.472
X-35.481 Y-67.965
X-36.05 Y-68.446
X-36.629 Y-68.915
X-37.217 Y-69.372
X-37.815 Y-69.816
X-38.423 Y-70.248
X-39.039 Y-70.667
X-39.663 Y-71.073
X-40.296 Y-71.466
X-40.937 Y-71.846
X-41.586 Y-72.212
X-42.242 Y-72.566
X-42.905 Y-72.905
X-43.575 Y-73.23
X-44.252 Y-73.542
X-44.936 Y-73.839
X-45.625 Y-74.121
X-46.32 Y-74.389
X-47.021 Y-74.643
X-47.727 Y-74.882
X-48.437 Y-75.106
X-49.152 Y-75.315
X-49.871 Y-75.51
X-50.595 Y-75.689
X-51.321 Y-75.854
X-51.494 Y-75.889
X-51.543 Y-75.898
X-51.593 Y-75.903
X-51.642 Y-75.905
X-64.938
X-65.682 Y-75.867
X-66.423 Y-75.787
X-67.157 Y-75.657
X-67.884 Y-75.496
X-68.606 Y-75.311
X-69.322 Y-75.106
X-70.034 Y-74.885
X-70.74 Y-74.648
X-71.441 Y-74.396
X-72.137 Y-74.129
X-72.827 Y-73.848
X-73.511 Y-73.552
X-74.188 Y-73.242
X-74.859 Y-72.919
X-75.524 Y-72.581
X-76.181 Y-72.229
X-76.83 Y-71.864
X-77.472 Y-71.486
X-78.105 Y-71.094
X-78.731 Y-70.689
X-79.348 Y-70.272
X-79.956 Y-69.841
X-80.556 Y-69.399
X-81.146 Y-68.944
X-81.727 Y-68.478
X-82.298 Y-67.999
X-82.859 Y-67.509
X-83.411 Y-67.008
X-83.951 Y-66.495
X-84.481 Y-65.972
X-85 Y-65.437
X-85.508 Y-64.892
X-86.005 Y-64.336
X-86.489 Y-63.771
X-86.963 Y-63.195
X-87.424 Y-62.61
X-87.873 Y-62.016
X-88.31 Y-61.412
X-88.735 Y-60.8
X-89.147 Y-60.179
X-89.545 Y-59.55
X-89.931 Y-58.912
X-90.304 Y-58.267
X-90.663 Y-57.614
X-91.008 Y-56.954
X-91.34 Y-56.287
X-91.658 Y-55.613
X-91.961 Y-54.933
X-92.251 Y-54.246
X-92.527 Y-53.554
X-92.788 Y-52.856
X-93.035 Y-52.153
X-93.268 Y-51.446
X-93.486 Y-50.733
X-93.689 Y-50.016
X-93.878 Y-49.296
X-94.053 Y-48.571
X-94.212 Y-47.844
X-94.356 Y-47.113
X-94.485 Y-46.379
X-94.599 Y-45.642
X-94.698 Y-44.904
X-94.782 Y-44.164
X-94.85 Y-43.422
X-94.904 Y-42.679
X-94.942 Y-41.934
X-94.965 Y-41.19
X-94.972 Y-40.445
X-94.965 Y-39.7
X-94.942 Y-38.955
X-94.904 Y-38.211
X-94.85 Y-37.468
X-94.781 Y-36.726
X-94.697 Y-35.986
X-94.597 Y-35.247
X-94.482 Y-34.511
X-94.353 Y-33.777
X-94.208 Y-33.047
X-94.048 Y-32.319
X-93.873 Y-31.595
X-93.683 Y-30.874
X-93.479 Y-30.158
X-93.26 Y-29.445
X-93.027 Y-28.738
X-92.78 Y-28.035
X-92.518 Y-27.337
X-92.242 Y-26.645
X-91.952 Y-25.959
X-91.648 Y-25.279
X-91.329 Y-24.605
X-90.997 Y-23.938
X-90.652 Y-23.278
X-90.293 Y-22.625
X-89.921 Y-21.98
X-89.535 Y-21.342
X-89.137 Y-20.713
X-88.726 Y-20.091
X-88.302 Y-19.478
X-87.866 Y-18.874
X-87.418 Y-18.279
X-86.957 Y-17.693
X-86.485 Y-17.117
X-86 Y-16.551
X-85.504 Y-15.995
X-84.997 Y-15.45
X-84.478 Y-14.915
X-83.949 Y-14.39
X-83.409 Y-13.877
X-82.859 Y-13.375
X-82.298 Y-12.884
X-81.728 Y-12.404
X-81.148 Y-11.937
X-80.559 Y-11.481
X-79.96 Y-11.037
X-79.353 Y-10.606
X-78.737 Y-10.187
X-78.112 Y-9.781
X-77.479 Y-9.387
X-76.838 Y-9.007
X-76.19 Y-8.64
X-75.534 Y-8.287
X-74.871 Y-7.947
X-74.201 Y-7.62
X-73.525 Y-7.308
X-72.843 Y-7.009
X-72.154 Y-6.724
X-71.46 Y-6.453
X-70.761 Y-6.196
X-70.056 Y-5.954
X-69.346 Y-5.727
X-68.632 Y-5.514
X-67.914 Y-5.316
X-67.192 Y-5.133
X-67.114 Y-5.115
X-67.059 Y-5.104
X-67.003 Y-5.098
X-66.947 Y-5.095
X-51.561
X-50.817 Y-5.133
X-50.076 Y-5.209
X-49.343 Y-5.346
X-48.619 Y-5.519
X-47.901 Y-5.718
X-47.189 Y-5.937
X-46.482 Y-6.173
X-45.781 Y-6.426
X-45.086 Y-6.694
X-44.396 Y-6.976
X-43.713 Y-7.273
X-43.036 Y-7.584
X-42.365 Y-7.909
X-41.701 Y-8.247
X-41.044 Y-8.598
X-40.395 Y-8.963
X-39.752 Y-9.34
X-39.118 Y-9.731
X-38.491 Y-10.134
X-37.873 Y-10.55
X-37.263 Y-10.978
X-36.662 Y-11.419
X-36.071 Y-11.871
X-35.488 Y-12.336
X-34.916 Y-12.812
X-34.352 Y-13.3
X-33.799 Y-13.8
X-33.256 Y-14.31
X-32.724 Y-14.831
X-32.202 Y-15.363
X-31.691 Y-15.905
X-31.19 Y-16.457
X-30.701 Y-17.019
X-30.224 Y-17.59
X-29.758 Y-18.172
X-29.303 Y-18.762
X-28.861 Y-19.362
X-28.432 Y-19.971
X-28.015 Y-20.588
X-27.61 Y-21.214
X-27.219 Y-21.848
X-26.84 Y-22.49
X-26.474 Y-23.139
X-26.121 Y-23.795
X-25.782 Y-24.458
X-25.456 Y-25.128
X-25.143 Y-25.804
X-24.844 Y-26.487
X-24.558 Y-27.175
X-24.287 Y-27.869
X-24.029 Y-28.568
X-23.786 Y-29.272
X-23.557 Y-29.981
X-23.343 Y-30.695
X-23.143 Y-31.412
X-22.957 Y-32.134
X-22.786 Y-32.859
X-22.63 Y-33.588
X-22.488 Y-34.319
X-22.361 Y-35.053
X-22.248 Y-35.79
X-22.15 Y-36.528
X-22.067 Y-37.269
X-21.999 Y-38.011
X-21.946 Y-38.754
X-21.909 Y-39.498
X-21.886 Y-40.243
X-21.879 Y-40.988
X-21.886 Y-41.733
X-21.909 Y-42.477
X-21.947 Y-43.221
X-22 Y-43.965
X-22.068 Y-44.707
X-22.151 Y-45.447
X-22.249 Y-46.186
X-22.361 Y-46.922
X-22.488 Y-47.656
X-22.63 Y-48.388
X-22.787 Y-49.116
X-22.958 Y-49.841
X-23.144 Y-50.563
X-23.345 Y-51.28
X-23.56 Y-51.994
X-23.789 Y-52.702
X-24.033 Y-53.406
X-24.291 Y-54.105
X-24.563 Y-54.799
X-24.849 Y-55.487
X-25.149 Y-56.169
X-25.462 Y-56.845
X-25.789 Y-57.515
X-26.129 Y-58.178
X-26.482 Y-58.834
X-26.849 Y-59.482
X-27.229 Y-60.123
X-27.621 Y-60.757
X-28.027 Y-61.382
X-28.445 Y-61.998
X-28.876 Y-62.606
X-29.319 Y-63.205
X-29.774 Y-63.795
X-30.241 Y-64.376
X-30.719 Y-64.947
X-31.209 Y-65.508
X-31.71 Y-66.06
X-32.222 Y-66.601
X-32.745 Y-67.132
X-33.278 Y-67.653
X-33.821 Y-68.162
X-34.375 Y-68.661
X-34.939 Y-69.148
X-35.513 Y-69.623
X-36.096 Y-70.087
X-36.688 Y-70.539
X-37.289 Y-70.979
X-37.899 Y-71.407
X-38.518 Y-71.822
X-39.144 Y-72.225
X-39.779 Y-72.616
X-40.421 Y-72.993
X-41.071 Y-73.358
X-41.728 Y-73.71
X-42.392 Y-74.048
X-43.062 Y-74.373
X-43.739 Y-74.684
X-44.422 Y-74.982
X-45.111 Y-75.265
X-45.806 Y-75.534
X-46.506 Y-75.789
X-46.726 Y-75.865
X-46.804 Y-75.887
X-46.885 Y-75.9
X-46.966 Y-75.905
X-51.642
G2 X-51.763 Y-75.876 I0.011 J0.317
G1 X-51.827 Y-75.847 Z-3.157
X-51.888 Y-75.819 Z-3.134
X-51.943 Y-75.794 Z-3.096
X-51.989 Y-75.773 Z-3.045
X-52.023 Y-75.757 Z-2.985
X-52.045 Y-75.748 Z-2.918
X-52.052 Y-75.744 Z-2.848
G0 Z5.08
X-51.277 Y-5.319
Z-2.53
G1 Z-2.848 F5080
X-51.285 Y-5.316 Z-2.918
X-51.307 Y-5.309 Z-2.985
X-51.343 Y-5.297 Z-3.045
X-51.391 Y-5.281 Z-3.096
X-51.448 Y-5.262 Z-3.134
X-51.512 Y-5.241 Z-3.157
X-51.579 Y-5.219 Z-3.165
G2 X-51.561 Y-5.095 I0.02 J0.06
G1 X-47.158
X-46.626 Y-5.122
X-46.13 Y-5.187
X-45.462 Y-5.33
X-44.748 Y-5.544
X-44.047 Y-5.798
X-43.357 Y-6.078
X-42.675 Y-6.379
X-42.001 Y-6.696
X-41.335 Y-7.029
X-40.675 Y-7.375
X-40.022 Y-7.734
X-39.377 Y-8.107
X-38.739 Y-8.492
X-38.109 Y-8.889
X-37.486 Y-9.299
X-36.872 Y-9.721
X-36.266 Y-10.154
X-35.669 Y-10.6
X-35.081 Y-11.057
X-34.502 Y-11.526
X-33.932 Y-12.006
X-33.372 Y-12.497
X-32.821 Y-12.999
X-32.28 Y-13.511
X-31.749 Y-14.034
X-31.229 Y-14.567
X-30.719 Y-15.11
X-30.219 Y-15.663
X-29.731 Y-16.226
X-29.253 Y-16.798
X-28.787 Y-17.379
X-28.332 Y-17.969
X-27.889 Y-18.568
X-27.458 Y-19.176
X-27.039 Y-19.792
X-26.633 Y-20.416
X-26.239 Y-21.049
X-25.966 Y-21.505
X-25.924 Y-21.587
X-25.892 Y-21.672
X-25.872 Y-21.761
X-25.821 Y-22.062
X-25.791 Y-22.231
X-25.69 Y-22.739
X-25.649 Y-22.908
X-25.597 Y-23.077
X-25.532 Y-23.246
X-25.509 Y-23.296
X-25.484 Y-23.345
X-25.227 Y-23.754
X-24.888 Y-24.261
X-24.807 Y-24.371
X-24.76 Y-24.43
X-24.483 Y-24.786
X-24.131 Y-25.322
X-23.773 Y-25.975
X-23.456 Y-26.65
X-23.168 Y-27.337
X-22.9 Y-28.032
X-22.65 Y-28.734
X-22.416 Y-29.441
X-22.197 Y-30.153
X-21.993 Y-30.87
X-21.803 Y-31.59
X-21.626 Y-32.314
X-21.464 Y-33.041
X-21.317 Y-33.772
X-21.183 Y-34.505
X-21.064 Y-35.24
X-20.958 Y-35.978
X-20.868 Y-36.717
X-20.791 Y-37.458
X-20.729 Y-38.201
X-20.682 Y-38.944
X-20.649 Y-39.689
X-20.631 Y-40.434
X-20.627 Y-41.179
X-20.638 Y-41.924
X-20.664 Y-42.668
X-20.705 Y-43.412
X-20.759 Y-44.155
X-20.829 Y-44.897
X-20.912 Y-45.637
X-21.01 Y-46.376
X-21.122 Y-47.113
X-21.249 Y-47.847
X-21.39 Y-48.578
X-21.545 Y-49.307
X-21.715 Y-50.033
X-21.899 Y-50.755
X-22.097 Y-51.473
X-22.309 Y-52.187
X-22.534 Y-52.897
X-22.774 Y-53.603
X-23.028 Y-54.303
X-23.295 Y-54.999
X-23.47 Y-55.429
X-23.538 Y-55.559
X-23.631 Y-55.673
X-23.744 Y-55.766
X-24.129 Y-56.025
X-24.299 Y-56.14
X-24.427 Y-56.231
X-24.637 Y-56.428
X-24.76 Y-56.57
X-24.807 Y-56.629
X-24.888 Y-56.739
X-25.227 Y-57.246
X-25.484 Y-57.655
X-25.509 Y-57.704
X-25.532 Y-57.754
X-25.597 Y-57.923
X-25.649 Y-58.092
X-25.69 Y-58.261
X-25.791 Y-58.769
X-25.849 Y-59.107
X-25.878 Y-59.276
X-25.88 Y-59.304
X-25.899 Y-59.456
X-25.974 Y-59.79
X-26.107 Y-60.218
X-26.336 Y-60.787
X-26.668 Y-61.454
X-27.044 Y-62.097
X-27.448 Y-62.723
X-27.871 Y-63.337
X-28.309 Y-63.939
X-28.762 Y-64.531
X-29.227 Y-65.113
X-29.703 Y-65.686
X-30.191 Y-66.249
X-30.69 Y-66.802
X-31.2 Y-67.345
X-31.72 Y-67.879
X-32.251 Y-68.402
X-32.791 Y-68.915
X-33.342 Y-69.417
X-33.902 Y-69.908
X-34.471 Y-70.389
X-35.05 Y-70.858
X-35.638 Y-71.315
X-36.235 Y-71.761
X-36.84 Y-72.196
X-37.454 Y-72.618
X-38.076 Y-73.029
X-38.705 Y-73.427
X-39.342 Y-73.813
X-39.987 Y-74.187
X-40.639 Y-74.549
X-41.297 Y-74.897
X-41.962 Y-75.233
X-42.634 Y-75.555
X-43.252 Y-75.838
X-43.351 Y-75.875
X-43.454 Y-75.897
X-43.559 Y-75.905
X-46.966
G2 X-47.086 Y-75.876 I0.011 J0.317
G1 X-47.151 Y-75.847 Z-3.157
X-47.212 Y-75.819 Z-3.134
X-47.267 Y-75.794 Z-3.096
X-47.312 Y-75.773 Z-3.045
X-47.347 Y-75.757 Z-2.985
X-47.368 Y-75.748 Z-2.918
X-47.375 Y-75.744 Z-2.848
G0 Z5.08
X-26.124 Y-59.57
Z-2.53
G1 Z-2.848 F5080
X-26.121 Y-59.563 Z-2.918
X-26.112 Y-59.541 Z-2.985
X-26.097 Y-59.507 Z-3.045
X-26.078 Y-59.46 Z-3.096
X-26.055 Y-59.405 Z-3.134
X-26.029 Y-59.343 Z-3.157
X-26.002 Y-59.277 Z-3.165
G2 X-25.88 Y-59.304 I0.058 J-0.024
G1 X-25.891 Y-59.445
X-25.89 Y-59.614
X-25.874 Y-59.784
X-25.845 Y-59.953
X-25.779 Y-60.291
X-25.745 Y-60.46
X-25.709 Y-60.692
X-25.697 Y-60.855
X-25.698 Y-61.053
X-25.72 Y-61.298
X-25.766 Y-61.573
X-25.853 Y-61.916
X-25.995 Y-62.333
X-26.23 Y-62.876
X-26.58 Y-63.534
X-26.976 Y-64.165
X-27.401 Y-64.777
X-27.847 Y-65.374
X-28.309 Y-65.959
X-28.784 Y-66.533
X-29.271 Y-67.097
X-29.769 Y-67.651
X-30.278 Y-68.195
X-30.797 Y-68.729
X-31.327 Y-69.253
X-31.866 Y-69.767
X-32.416 Y-70.27
X-32.974 Y-70.763
X-33.542 Y-71.246
X-34.119 Y-71.717
X-34.704 Y-72.178
X-35.299 Y-72.627
X-35.901 Y-73.066
X-36.512 Y-73.492
X-37.131 Y-73.908
X-37.757 Y-74.311
X-38.391 Y-74.703
X-39.032 Y-75.083
X-39.679 Y-75.451
X-40.334 Y-75.807
X-40.362 Y-75.821
X-40.471 Y-75.867
X-40.586 Y-75.895
X-40.704 Y-75.905
X-43.559
G2 X-43.68 Y-75.876 I0.011 J0.317
G1 X-43.744 Y-75.847 Z-3.157
X-43.805 Y-75.819 Z-3.134
X-43.86 Y-75.794 Z-3.096
X-43.906 Y-75.773 Z-3.045
X-43.94 Y-75.757 Z-2.985
X-43.962 Y-75.748 Z-2.918
X-43.969 Y-75.744 Z-2.848
G0 Z5.08
X-25.906 Y-60.783
Z-2.53
G1 Z-2.848 F5080
X-25.905 Y-60.775 Z-2.918
X-25.902 Y-60.752 Z-2.985
X-25.898 Y-60.714 Z-3.045
X-25.892 Y-60.665 Z-3.096
X-25.885 Y-60.605 Z-3.134
X-25.877 Y-60.538 Z-3.157
X-25.869 Y-60.468 Z-3.165
G2 X-25.745 Y-60.46 I0.063 J-0.007
G1 X-25.653 Y-60.903
X-25.633 Y-60.968
X-25.578 Y-61.137
X-25.484 Y-61.346
X-25.441 Y-61.417
X-25.368 Y-61.551
X-25.313 Y-61.693
X-25.273 Y-61.84
X-25.244 Y-62.008
X-25.227 Y-62.184
X-25.224 Y-62.393
X-25.242 Y-62.652
X-25.284 Y-62.934
X-25.361 Y-63.268
X-25.489 Y-63.672
X-25.695 Y-64.175
X-26.012 Y-64.801
X-26.401 Y-65.437
X-26.825 Y-66.049
X-27.274 Y-66.644
X-27.741 Y-67.225
X-28.222 Y-67.793
X-28.716 Y-68.351
X-29.221 Y-68.899
X-29.737 Y-69.437
X-30.263 Y-69.964
X-30.798 Y-70.482
X-31.344 Y-70.99
X-31.898 Y-71.487
X-32.462 Y-71.975
X-33.034 Y-72.451
X-33.616 Y-72.918
X-34.205 Y-73.373
X-34.803 Y-73.818
X-35.409 Y-74.252
X-36.022 Y-74.675
X-36.643 Y-75.086
X-37.272 Y-75.486
X-37.777 Y-75.796
X-37.899 Y-75.855
X-38.029 Y-75.892
X-38.164 Y-75.905
X-40.704
G2 X-40.824 Y-75.876 I0.011 J0.317
G1 X-40.889 Y-75.847 Z-3.157
X-40.95 Y-75.819 Z-3.134
X-41.004 Y-75.794 Z-3.096
X-41.05 Y-75.773 Z-3.045
X-41.085 Y-75.757 Z-2.985
X-41.106 Y-75.748 Z-2.918
X-41.113 Y-75.744 Z-2.848
G0 Z5.08
X-25.485 Y-61.775
Z-2.53
G1 Z-2.848 F5080
X-25.486 Y-61.768 Z-2.918
X-25.492 Y-61.745 Z-2.985
X-25.5 Y-61.708 Z-3.045
X-25.511 Y-61.659 Z-3.096
X-25.525 Y-61.6 Z-3.134
X-25.54 Y-61.535 Z-3.157
X-25.556 Y-61.466 Z-3.165
G2 X-25.441 Y-61.417 I0.062 J0.014
G1 X-25.406 Y-61.475
X-25.074 Y-61.983
X-24.961 Y-62.152
X-24.895 Y-62.245
X-24.813 Y-62.373
X-24.742 Y-62.508
X-24.686 Y-62.65
X-24.642 Y-62.803
