%
(1001)
(all-bottom0)
(T5  D=3.175 CR=0 - ZMIN=-8 - flat end mill)
G90
G17
G21
G28 G91 Z0
G90

(Drill5)
M9
T5 M6
S16000 M3
G54
M7
G0 X-173.5 Y-67.5
Z15.24
Z5.08
G1 Z-6 F304.8
G0 Z5.08
Z15.24

(2D Pocket12)
M7
X-193.196 Y-86.638
Z15.24
Z5.08
G1 Z-2.349 F762
G19 G3 Y-86.32 Z-2.667 J0.318 K0
G1 Y-82.481
Y-80.128
G17 G2 X-192.872 Y-79.804 I0.324 J0
G1 X-192.378
G2 X-192.054 Y-80.128 I0 J-0.324
G1 Y-82.486
G2 X-192.257 Y-82.689 I-0.203 J0
G1 X-194.164 Y-82.684
G2 X-194.367 Y-82.481 I0 J0.203
G1 Y-78.958
G2 X-194.042 Y-78.633 I0.324 J0
G1 X-191.208
G2 X-190.883 Y-78.958 I0 J-0.324
G1 Y-82.485
G2 X-191.087 Y-82.688 I-0.203 J0
G1 X-196.709 Y-82.686
G2 X-196.913 Y-82.483 I0 J0.203
G1 Y-76.088
X-188.337
Y-82.484
G2 X-188.512 Y-82.685 I-0.203 J0
G1 X-192.964 Y-83.329
G2 X-193.196 Y-83.128 I-0.029 J0.201
G19 G2 Y-82.81 Z-2.984 J0 K-0.317
G1 Z-5.016
G3 Y-82.493 Z-5.333 J0.317 K0
G1 Y-82.481
Y-80.128
G17 G2 X-192.872 Y-79.804 I0.324 J0
G1 X-192.378
G2 X-192.054 Y-80.128 I0 J-0.324
G1 Y-82.486
G2 X-192.257 Y-82.689 I-0.203 J0
G1 X-194.164 Y-82.684
G2 X-194.367 Y-82.481 I0 J0.203
G1 Y-78.958
G2 X-194.042 Y-78.633 I0.324 J0
G1 X-191.208
G2 X-190.883 Y-78.958 I0 J-0.324
G1 Y-82.485
G2 X-191.087 Y-82.688 I-0.203 J0
G1 X-196.709 Y-82.686
G2 X-196.913 Y-82.483 I0 J0.203
G1 Y-76.088
X-188.337
Y-82.484
G2 X-188.512 Y-82.685 I-0.203 J0
G1 X-192.964 Y-83.329
G2 X-193.196 Y-83.128 I-0.029 J0.201
G19 G2 Y-82.81 Z-5.651 J0 K-0.317
G1 Z-7.682
G3 Y-82.493 Z-8 J0.317 K0
G1 Y-82.481
Y-80.128
G17 G2 X-192.872 Y-79.804 I0.324 J0
G1 X-192.378
G2 X-192.054 Y-80.128 I0 J-0.324
G1 Y-82.486
G2 X-192.257 Y-82.689 I-0.203 J0
G1 X-194.164 Y-82.684
G2 X-194.367 Y-82.481 I0 J0.203
G1 Y-78.958
G2 X-194.042 Y-78.633 I0.324 J0
G1 X-191.208
G2 X-190.883 Y-78.958 I0 J-0.324
G1 Y-82.485
G2 X-191.087 Y-82.688 I-0.203 J0
G1 X-196.709 Y-82.686
G2 X-196.913 Y-82.483 I0 J0.203
G1 Y-76.088
X-188.337
Y-82.484
G2 X-188.341 Y-82.534 I-0.318 J0
G1 X-188.59 Y-84.102
X-188.601 Y-84.172 Z-7.992
X-188.611 Y-84.238 Z-7.969
X-188.621 Y-84.297 Z-7.931
X-188.629 Y-84.347 Z-7.88
X-188.635 Y-84.384 Z-7.82
X-188.638 Y-84.408 Z-7.753
X-188.639 Y-84.416 Z-7.682
G0 Z15.24
M9
G28 G91 Z0
G28 X0 Y0
M30
%
