%
(1001)
(planck-acetyl-top)
(T5  D=3.175 CR=0 - ZMIN=-11 - flat end mill)
G90
G17
G21
G28 G91 Z0
G90

(Adaptive1)
M9
T5 M6
S16000 M3
G54
M7
G0 X-102.486 Y-39.769
Z15.24
Z2.861
G1 Z2.543 F1524
G2 X-101.912 Y-42.731 Z2.378 I0.287 J-1.481 F711.2
X-102.486 Y-39.769 Z2.212 I-0.287 J1.481
X-101.912 Y-42.731 Z2.047 I0.287 J-1.481
X-102.486 Y-39.769 Z1.881 I-0.287 J1.481
X-101.912 Y-42.731 Z1.716 I0.287 J-1.481
X-102.486 Y-39.769 Z1.55 I-0.287 J1.481
X-101.912 Y-42.731 Z1.385 I0.287 J-1.481
X-102.486 Y-39.769 Z1.22 I-0.287 J1.481
X-101.912 Y-42.731 Z1.054 I0.287 J-1.481
X-102.486 Y-39.769 Z0.889 I-0.287 J1.481
X-101.912 Y-42.731 Z0.723 I0.287 J-1.481
X-102.486 Y-39.769 Z0.558 I-0.287 J1.481
X-101.912 Y-42.731 Z0.392 I0.287 J-1.481
X-102.486 Y-39.769 Z0.227 I-0.287 J1.481
X-101.912 Y-42.731 Z0.061 I0.287 J-1.481
X-102.486 Y-39.769 Z-0.104 I-0.287 J1.481
X-101.912 Y-42.731 Z-0.27 I0.287 J-1.481
X-102.486 Y-39.769 Z-0.435 I-0.287 J1.481
X-101.912 Y-42.731 Z-0.6 I0.287 J-1.481
X-102.486 Y-39.769 Z-0.766 I-0.287 J1.481
X-101.912 Y-42.731 Z-0.931 I0.287 J-1.481
X-102.486 Y-39.769 Z-1.097 I-0.287 J1.481
X-101.912 Y-42.731 Z-1.262 I0.287 J-1.481
X-102.486 Y-39.769 Z-1.428 I-0.287 J1.481
X-101.912 Y-42.731 Z-1.593 I0.287 J-1.481
X-102.486 Y-39.769 Z-1.759 I-0.287 J1.481
X-101.912 Y-42.731 Z-1.924 I0.287 J-1.481
X-102.486 Y-39.769 Z-2.089 I-0.287 J1.481
X-101.912 Y-42.731 Z-2.255 I0.287 J-1.481
X-102.486 Y-39.769 Z-2.42 I-0.287 J1.481
X-101.912 Y-42.731 Z-2.586 I0.287 J-1.481
X-102.486 Y-39.769 Z-2.751 I-0.287 J1.481
X-101.912 Y-42.731 Z-2.917 I0.287 J-1.481
X-102.486 Y-39.769 Z-3.082 I-0.287 J1.481
X-100.691 Y-41.25 Z-3.175 I0.287 J-1.481
X-103.707 I-1.508 J0
X-100.691 I1.508 J0
G1 X-100.671 Y-41.995 F5080
G2 X-101.015 Y-43.043 I-1.04 J-0.24
X-103.13 Y-43.416 I-1.336 J1.393
X-103.856 Y-39.507 I0.867 J2.183
X-99.948 Y-40.379 I1.666 J-1.73
X-99.605 Y-42.073 I-3.148 J-1.518
X-102.255 Y-44.525 I-2.686 J0.246
X-105.424 Y-42.326 I-0.142 J3.179
X-99.664 Y-38.953 I3.223 J1.101
X-98.804 Y-43.207 I-2.979 J-2.816
X-103.481 Y-45.444 I-3.604 J1.526
X-106.49 Y-39.933 I1.131 J4.195
X-99.149 Y-37.935 I4.294 J-1.293
X-98.09 Y-44.236 I-3.368 J-3.806
X-104.503 Y-46.266 I-4.355 J2.614
X-107.279 Y-38.851 I2.165 J5.037
X-98.442 Y-37.049 I5.088 J-2.379
X-97.598 Y-45.527 I-4.018 J-4.681
X-105.336 Y-47.146 I-4.864 J3.946
X-108.371 Y-38.459 I3.001 J5.922
X-98.205 Y-35.756 I6.179 J-2.77
X-96.985 Y-46.605 I-4.236 J-5.969
X-105.759 Y-48.249 I-5.484 J5.036
X-109.909 Y-39.297 I3.406 J7.017
X-98.174 Y-34.366 I7.715 J-1.93
X-96.012 Y-47.301 I-4.25 J-7.359
X-105.496 Y-49.661 I-6.456 J5.706
X-111.308 Y-42.056 I3.104 J8.396
X-99.076 Y-32.627 I9.104 J0.838
X-93.697 Y-37.508 I-3.231 J-8.966
X-99.999 Y-51.093 I-8.677 J-4.229
X-109.594 Y-48.418 I-2.487 J9.625
X-112.508 Y-40.267 I7.206 J7.174
X-101.116 Y-30.929 I10.3 J-0.947
X-92.826 Y-36.559 I-1.141 J-10.598
X-100.783 Y-52.485 I-9.549 J-5.18
X-108.61 Y-50.782 I-1.724 J10.915
X-113.577 Y-39.143 I6.257 J9.55
X-109.486 Y-32.24 I11.321 J-2.046
X-96.223 Y-31.306 I7.3 J-9.021
X-92.169 Y-48.206 I-6.208 J-10.426
X-107.911 Y-52.572 I-10.309 J6.608
X-114.956 Y-40.419 I5.518 J11.317
X-111.446 Y-32.397 I12.622 J-0.744
X-96.367 Y-29.837 I9.258 J-8.84
X-93.661 Y-51.79 I-6.048 J-11.889
X-112.496 Y-50.661 I-8.834 J10.298
X-116.183 Y-40.433 I10.056 J9.404
X-96.061 Y-28.628 I13.986 J-0.787
X-88.177 Y-44.777 I-6.336 J-13.092
X-102.74 Y-56.274 I-14.23 J3.054
X-115.875 Y-47.899 I0.264 J14.903
X-98.805 Y-26.379 I13.656 J6.699
X-87.857 Y-35.638 I-3.448 J-15.179
X-99.694 Y-57.261 I-14.516 J-6.105
X-115.877 Y-50.338 I-2.801 J15.828
X-114.523 Y-30.312 I13.575 J9.141
X-92.868 Y-27.636 I12.344 J-10.937
X-101.555 Y-58.713 I-9.534 J-14.088
X-117.643 Y-49.823 I-0.924 J17.331
X-100.249 Y-23.643 I15.416 J8.626
X-86.515 Y-32.776 I-1.965 J-17.848
X-100.16 Y-59.824 I-15.869 J-8.96
X-119.19 Y-49.526 I-2.327 J18.433
X-106.96 Y-22.909 I16.942 J8.334
X-87.485 Y-29.208 I4.788 J-18.452
X-100.68 Y-61.124 I-14.906 J-12.523
X-120.253 Y-50.17 I-1.804 J19.741
X-99.212 Y-21.286 I18.028 J8.973
X-83.405 Y-33.49 I-3.021 J-20.252
X-99.399 Y-62.216 I-18.973 J-8.252
X-121.5 Y-50.437 I-3.091 J20.824
X-102.891 Y-19.836 I19.264 J9.244
X-84.397 Y-29.172 I0.704 J-21.592
X-99.263 Y-63.451 I-17.99 J-12.561
X-121.533 Y-52.97 I-3.229 J22.039
X-116.824 Y-23.935 I19.252 J11.777
X-87.953 Y-23.58 I14.651 J-17.339
X-101.75 Y-64.914 I-14.447 J-18.147
X-124.718 Y-49.153 I-0.728 J23.555
X-97.19 Y-17.871 I22.499 J7.955
X-79.452 Y-33.355 I-5.06 J-23.699
X-97.961 Y-65.751 I-22.921 J-8.39
X-123.583 Y-54.378 I-4.537 J24.327
X-121.038 Y-24.591 I21.281 J13.183
X-87.896 Y-20.531 I18.861 J-16.663
X-101.205 Y-67.381 I-14.505 J-21.195
X-127.552 Y-48.452 I-1.27 J26.033
X-103.277 Y-14.875 I25.319 J7.258
X-79.477 Y-27.614 I1.081 J-26.583
X-98.9 Y-68.421 I-22.907 J-14.123
X-123.947 Y-58.201 I-3.604 J26.971
X-113.62 Y-16.081 I21.68 J17.011
X-83.14 Y-21.168 I11.455 J-25.222
X-99.924 Y-69.79 I-19.256 J-20.561
X-129.49 Y-50.591 I-2.556 J28.429
X-101.217 Y-12.377 I27.261 J9.397
X-77.215 Y-26.533 I-0.984 J-29.094
X-98.346 Y-70.862 I-25.171 J-15.203
X-126.895 Y-58.411 I-4.154 J29.43
X-116.545 Y-14.749 I24.625 J17.221
X-82.423 Y-18.458 I14.378 J-26.542
X-100.081 Y-72.307 I-19.975 J-23.27
X-132.098 Y-50.653 I-2.398 J30.952
X-106.649 Y-10.181 I29.859 J9.462
X-77.07 Y-22.315 I4.47 J-31.222
X-98.46 Y-73.397 I-25.32 J-19.417
X-128.48 Y-60.486 I-4.04 J31.962
X-116.215 Y-11.781 I26.214 J19.296
X-80.101 Y-17.176 I14.05 J-29.52
X-99.404 Y-74.758 I-22.296 J-24.552
X-133.961 Y-52.924 I-3.079 J33.392
X-104.763 Y-7.462 I31.725 J11.732
X-74.433 Y-21.675 I2.58 J-33.961
X-97.724 Y-75.822 I-27.956 J-20.058
X-131.706 Y-60.213 I-4.773 J34.403
X-121.224 Y-11.713 I29.432 J19.022
X-80.127 Y-13.867 I19.055 J-29.568
X-99.338 Y-77.264 I-22.271 J-27.86
X-103.112 Y-77.372 I-2.566 J23.701
X-115.476 Y-74.972 I0.268 J34.432
X-136.463 Y-29.047 I13.101 J33.745
X-106.318 Y-5.095 I34.221 J-12.125
G1 X-99.322
G2 X-93.433 Y-5.928 I-0.601 J-25.49
X-65.733 Y-37.504 I-8.866 J-35.716
X-88.401 Y-75.881 I-36.61 J-4.259
G1 X-88.494 Y-75.898
X-88.589 Y-75.905
X-91.367
G3 X-93.197 Y-76.772 I-0.111 J-2.13
G2 X-94.195 Y-77.399 I-1.814 J1.78
G1 X-94.32 Y-77.405
G2 X-94.375 Y-77.398 Z-3.063 I0.011 J0.317 F1524
X-94.626 Y-77.076 Z-2.175 I0.066 J0.311 F5080
X-94.482 Y-76.821 I0.317 J-0.011
G1 X-93.528 Y-76.201
G2 X-93.166 Y-76.212 I0.173 J-0.266
X-93.07 Y-76.609 Z-3.063 I-0.189 J-0.255
X-93.099 Y-76.656 Z-3.175 I-0.285 J0.141 F1524
G3 X-93.501 Y-77.309 I2.693 J-2.107 F5080
G1 X-93.567 Y-77.35
X-93.61 Y-77.374
X-93.652 Y-77.391
X-93.694 Y-77.4
X-93.737 Y-77.404
X-101.917 Y-77.405
X-102.041 F1524
X-102.243 F5080
X-102.368 F1524
X-110.661 F5080
G2 X-113.235 Y-77.031 I0.182 J10.308
X-121.413 Y-73.482 I9.334 J32.71
X-132.581 Y-19.047 I19.084 J32.278
X-112.659 Y-5.09 I30.293 J-22.045
G1 X-112.588 Y-5.095
X-106.318
G2 X-106.277 Y-5.1 Z-3.092 I-0.011 J-0.317 F1524
G1 X-106.263 Y-5.101 Z-3.063
X-105.823 Y-5.149 Z-2.175 F5080
X-99.473 Y-5.836
G3 X-99.131 Y-5.446 I0.034 J0.316
X-99.339 Y-5.219 Z-2.821 I-0.309 J-0.074
G2 X-99.37 Y-5.12 Z-3.063 I0.02 J0.06
X-99.322 Y-5.095 Z-3.175 I0.05 J-0.039 F1524
G1 X-93.06 F5080
G2 X-90.259 Y-5.573 I-0.169 J-9.436
X-82.18 Y-9.345 I-10.614 J-33.272
X-85.247 Y-75.827 I-20.218 J-32.379
G1 X-85.355 Y-75.869
X-85.467 Y-75.896
X-85.581 Y-75.905
X-88.589
G2 X-88.644 Y-75.898 Z-3.063 I0.011 J0.317 F1524
X-88.894 Y-75.607 Z-2.237 I0.066 J0.311 F5080
G1 X-88.896 Y-75.576 Z-2.175
X-93.365 Y-5.433
X-93.366 Y-5.424
G2 X-93.115 Y-5.102 Z-3.063 I0.317 J0.011
X-93.06 Y-5.095 Z-3.175 I0.066 J-0.311 F1524
G1 X-89.167 F5080
X-88.743 Y-5.117
X-88.302 Y-5.175
G2 X-85.615 Y-6.072 I-2.16 J-10.94
X-74.145 Y-14.23 I-16.012 J-34.654
X-82.584 Y-75.809 I-28.247 J-27.497
G1 X-82.701 Y-75.861
X-82.825 Y-75.893
X-82.952 Y-75.905
X-85.581
G2 X-85.637 Y-75.898 Z-3.063 I0.011 J0.317 F1524
X-85.887 Y-75.603 Z-2.229 I0.066 J0.311 F5080
G1 X-85.889 Y-75.576 Z-2.175
X-89.473 Y-5.429
Y-5.424
G2 X-89.222 Y-5.102 Z-3.063 I0.317 J0.011
X-89.167 Y-5.095 Z-3.175 I0.066 J-0.311 F1524
G1 X-86.121 F5080
X-85.732 Y-5.115
X-85.388 Y-5.16
X-84.944 Y-5.255
G2 X-82.323 Y-6.365 I-3.097 J-10.961
X-72.445 Y-14.204 I-19.049 J-34.148
X-80.158 Y-75.786 I-29.946 J-27.523
G1 X-80.287 Y-75.849
X-80.425 Y-75.891
X-80.568 Y-75.905
X-82.952
G2 X-83.008 Y-75.898 Z-3.063 I0.011 J0.317 F1524
X-83.259 Y-75.602 Z-2.225 I0.066 J0.311 F5080
G1 X-83.26 Y-75.576 Z-2.175
X-86.427 Y-5.427
Y-5.424
G2 X-86.176 Y-5.102 Z-3.063 I0.317 J0.011
X-86.121 Y-5.095 Z-3.175 I0.066 J-0.311 F1524
G1 X-83.413 F5080
G2 X-81.962 Y-5.369 I-0.093 J-4.467
X-79.381 Y-6.693 I-4.226 J-11.423
X-69.066 Y-16.285 I-22.233 J-34.251
X-77.919 Y-75.772 I-33.329 J-25.442
G1 X-78.053 Y-75.843
X-78.198 Y-75.889
X-78.348 Y-75.905
X-80.568
G2 X-80.623 Y-75.898 Z-3.063 I0.011 J0.317 F1524
X-80.874 Y-75.6 Z-2.223 I0.066 J0.311 F5080
G1 X-80.875 Y-75.576 Z-2.175
X-83.719 Y-5.424
G2 X-83.468 Y-5.102 Z-3.063 I0.317 J0.011
X-83.413 Y-5.095 Z-3.175 I0.066 J-0.311 F1524
G1 X-80.874 F5080
G2 X-79.718 Y-5.326 I-0.161 J-3.815
G1 X-79.203 Y-5.526
G2 X-76.657 Y-7.064 I-5.825 J-12.519
X-62.874 Y-24.335 I-25.337 J-34.355
X-75.8 Y-75.748 I-39.496 J-17.401
G1 X-75.941 Y-75.833
X-76.096 Y-75.886
X-76.259 Y-75.905
X-78.348
G2 X-78.403 Y-75.898 Z-3.063 I0.011 J0.317 F1524
X-78.654 Y-75.599 Z-2.22 I0.066 J0.311 F5080
G1 X-78.655 Y-75.576 Z-2.175
X-81.18 Y-5.424
G2 X-80.929 Y-5.102 Z-3.063 I0.317 J0.011
X-80.874 Y-5.095 Z-3.175 I0.066 J-0.311 F1524
G1 X-78.674 F5080
G2 X-77.135 Y-5.479 I-0.167 J-3.949
X-74.699 Y-6.999 I-4.831 J-10.453
X-66.471 Y-15.569 I-26.098 J-33.292
X-73.786 Y-75.733 I-35.923 J-26.159
G1 X-73.932 Y-75.825
X-74.094 Y-75.884
X-74.265 Y-75.905
X-76.259
G2 X-76.314 Y-75.898 Z-3.063 I0.011 J0.317 F1524
X-76.565 Y-75.598 Z-2.219 I0.066 J0.311 F5080
G1 X-76.566 Y-75.576 Z-2.175
X-78.98 Y-5.424
G2 X-78.729 Y-5.102 Z-3.063 I0.317 J0.011
X-78.674 Y-5.095 Z-3.175 I0.066 J-0.311 F1524
G1 X-76.643 F5080
G2 X-75.138 Y-5.448 I-0.065 J-3.666
G1 X-74.636 Y-5.69
G2 X-72.223 Y-7.428 I-6.765 J-11.933
X-61.416 Y-21.525 I-29.44 J-33.761
X-71.855 Y-75.715 I-40.956 J-20.211
G1 X-72.004 Y-75.818
X-72.172 Y-75.883
X-72.351 Y-75.905
X-74.265
G2 X-74.321 Y-75.898 Z-3.063 I0.011 J0.317 F1524
X-74.572 Y-75.598 Z-2.218 I0.066 J0.311 F5080
G1 Y-75.576 Z-2.175
X-76.949 Y-5.424
G2 X-76.698 Y-5.102 Z-3.063 I0.317 J0.011
X-76.643 Y-5.095 Z-3.175 I0.066 J-0.311 F1524
G1 X-74.612 F5080
G2 X-73.217 Y-5.421 I-0.06 J-3.408
G1 X-72.774 Y-5.634
G2 X-70.449 Y-7.351 I-5.957 J-10.496
X-62.824 Y-16.467 I-29.972 J-32.82
X-69.987 Y-75.698 I-39.561 J-25.264
G1 X-70.139 Y-75.81
X-70.314 Y-75.88
X-70.501 Y-75.905
X-72.351
G2 X-72.406 Y-75.898 Z-3.063 I0.011 J0.317 F1524
X-72.658 Y-75.597 Z-2.217 I0.066 J0.311 F5080
G1 Y-75.576 Z-2.175
X-74.918 Y-5.424
Y-5.423 Z-2.176
G2 X-74.667 Y-5.102 Z-3.063 I0.317 J0.01
X-74.612 Y-5.095 Z-3.175 I0.066 J-0.311 F1524
G1 X-72.581 F5080
G2 X-70.96 Y-5.594 I-0.209 J-3.564
G1 X-70.454 Y-5.888
G2 X-68.173 Y-7.799 I-8.324 J-12.25
X-58.494 Y-21.826 I-33.354 J-33.368
X-68.186 Y-75.691 I-43.88 J-19.91
G1 X-68.339 Y-75.807
X-68.516 Y-75.88
X-68.706 Y-75.905
X-70.501
G2 X-70.556 Y-75.898 Z-3.063 I0.011 J0.317 F1524
X-70.807 Y-75.597 Z-2.216 I0.066 J0.311 F5080
G1 X-70.808 Y-75.576 Z-2.175
X-72.887 Y-5.424
Y-5.422 Z-2.178
G2 X-72.636 Y-5.102 Z-3.063 I0.317 J0.009
X-72.581 Y-5.095 Z-3.175 I0.066 J-0.311 F1524
G1 X-70.719 F5080
G2 X-69.181 Y-5.564 I-0.183 J-3.359
G1 X-68.725 Y-5.829
G2 X-66.472 Y-7.76 I-7.367 J-10.872
X-59.024 Y-17.958 I-33.989 J-32.643
X-66.419 Y-75.672 I-43.354 J-23.776
G1 X-66.575 Y-75.798
X-66.759 Y-75.877
X-66.957 Y-75.905
X-68.706
G2 X-68.761 Y-75.898 Z-3.063 I0.011 J0.317 F1524
X-69.012 Y-75.596 Z-2.215 I0.066 J0.311 F5080
G1 X-69.013 Y-75.576 Z-2.175
X-71.026 Y-5.424
Y-5.422 Z-2.178
G2 X-70.774 Y-5.102 Z-3.063 I0.317 J0.009
X-70.719 Y-5.095 Z-3.175 I0.066 J-0.311 F1524
G1 X-68.858 F5080
G2 X-67.354 Y-5.586 I-0.236 J-3.27
G1 X-66.909 Y-5.855
G2 X-64.712 Y-7.82 I-7.399 J-10.483
X-57.833 Y-17.518 I-35.232 J-32.282
X-64.696 Y-75.657 I-44.541 J-24.216
G1 X-64.854 Y-75.791
X-65.043 Y-75.875
X-65.249 Y-75.905
X-66.957
G2 X-67.013 Y-75.898 Z-3.063 I0.011 J0.317 F1524
X-67.264 Y-75.596 Z-2.214 I0.066 J0.311 F5080
G1 Y-75.576 Z-2.175
X-69.164 Y-5.424
Y-5.421 Z-2.179
G2 X-68.913 Y-5.102 Z-3.063 I0.317 J0.009
X-68.858 Y-5.095 Z-3.175 I0.066 J-0.311 F1524
G1 X-67.165 F5080
G2 X-65.742 Y-5.518 I-0.133 J-3.054
G1 X-65.344 Y-5.749
G2 X-63.218 Y-7.63 I-6.187 J-9.132
X-57.93 Y-14.822 I-33.901 J-30.47
X-63.012 Y-75.647 I-44.449 J-26.911
G1 X-63.173 Y-75.786
X-63.365 Y-75.874
X-63.575 Y-75.905
X-65.249
G2 X-65.304 Y-75.898 Z-3.063 I0.011 J0.317 F1524
X-65.555 Y-75.596 Z-2.214 I0.066 J0.311 F5080
G1 Y-75.576 Z-2.175
X-67.471 Y-5.424
X-67.472 Y-5.421 Z-2.179
G2 X-67.22 Y-5.102 Z-3.063 I0.317 J0.009
X-67.165 Y-5.095 Z-3.175 I0.066 J-0.311 F1524
G1 X-65.473 F5080
G2 X-64.06 Y-5.508 I-0.107 J-2.992
G1 X-63.691 Y-5.722
G2 X-61.614 Y-7.587 I-5.766 J-8.511
X-56.824 Y-14.222 I-33.666 J-29.356
X-61.372 Y-75.653 I-45.553 J-27.511
G1 X-61.533 Y-75.788
X-61.724 Y-75.875
X-61.932 Y-75.905
X-63.575
G2 X-63.63 Y-75.898 Z-3.063 I0.011 J0.317 F1524
X-63.881 Y-75.596 Z-2.214 I0.066 J0.311 F5080
G1 X-63.882 Y-75.576 Z-2.175
X-65.779 Y-5.424
Y-5.421 Z-2.18
G2 X-65.528 Y-5.102 Z-3.063 I0.317 J0.009
X-65.473 Y-5.095 Z-3.175 I0.066 J-0.311 F1524
G1 X-63.78 F5080
G2 X-62.417 Y-5.494 I-0.108 J-2.903
G1 X-62.066 Y-5.698
G2 X-60.046 Y-7.53 I-5.419 J-8
X-55.733 Y-13.594 I-32.863 J-27.94
X-59.728 Y-75.622 I-46.644 J-28.139
G1 X-59.89 Y-75.774
X-60.09 Y-75.871
X-60.31 Y-75.905
X-61.932
G2 X-61.987 Y-75.898 Z-3.063 I0.011 J0.317 F1524
X-62.238 Y-75.596 Z-2.213 I0.066 J0.311 F5080
G1 X-62.239 Y-75.576 Z-2.175
X-64.087 Y-5.424
Y-5.421 Z-2.18
G2 X-63.835 Y-5.102 Z-3.063 I0.317 J0.008
X-63.78 Y-5.095 Z-3.175 I0.066 J-0.311 F1524
G1 X-62.088 F5080
G2 X-60.775 Y-5.494 I-0.142 J-2.831
G1 X-60.428 Y-5.699
G2 X-58.463 Y-7.517 I-5.308 J-7.707
X-54.62 Y-13.003 I-31.88 J-26.414
X-58.136 Y-75.625 I-47.756 J-28.729
G1 X-58.301 Y-75.774
X-58.5 Y-75.871
X-58.72 Y-75.905
X-60.31
G2 X-60.365 Y-75.898 Z-3.063 I0.011 J0.317 F1524
X-60.616 Y-75.595 Z-2.213 I0.066 J0.311 F5080
G1 Y-75.576 Z-2.175
X-62.394 Y-5.424
Y-5.421 Z-2.181
G2 X-62.143 Y-5.102 Z-3.063 I0.317 J0.008
X-62.088 Y-5.095 Z-3.175 I0.066 J-0.311 F1524
G1 X-60.472 F5080
G2 X-59.196 Y-5.475 I-0.125 J-2.754
G1 X-58.867 Y-5.667
X-58.474 Y-5.944
G2 X-56.49 Y-8.008 I-7.084 J-8.798
X-52.092 Y-14.911 I-37.838 J-28.963
X-56.565 Y-75.631 I-50.293 J-26.82
G1 X-56.731 Y-75.777
X-56.929 Y-75.872
X-57.146 Y-75.905
X-58.72
G2 X-58.775 Y-75.898 Z-3.063 I0.011 J0.317 F1524
X-59.026 Y-75.595 Z-2.213 I0.066 J0.311 F5080
G1 X-59.027 Y-75.576 Z-2.175
X-60.778 Y-5.424
Y-5.421 Z-2.181
G2 X-60.527 Y-5.102 Z-3.063 I0.317 J0.008
X-60.472 Y-5.095 Z-3.175 I0.066 J-0.311 F1524
G1 X-58.872 F5080
G2 X-57.306 Y-5.655 I-0.174 J-2.957
G1 X-56.932 Y-5.913
G2 X-54.981 Y-7.96 I-6.685 J-8.324
X-50.667 Y-14.916 I-37.974 J-28.364
X-54.98 Y-75.591 I-51.718 J-26.815
X-55.584 Y-75.904 I-0.604 J0.424
G1 X-57.146 Y-75.905
G2 X-57.201 Y-75.898 Z-3.063 I0.011 J0.317 F1524
X-57.452 Y-75.595 Z-2.212 I0.066 J0.311 F5080
G1 X-57.453 Y-75.576 Z-2.175
X-59.178 Y-5.424
X-59.179 Y-5.421 Z-2.181
G2 X-58.927 Y-5.102 Z-3.063 I0.317 J0.008
X-58.872 Y-5.095 Z-3.175 I0.066 J-0.311 F1524
G1 X-57.349 F5080
G2 X-55.761 Y-5.641 I-0.104 J-2.885
G1 X-55.405 Y-5.886
G2 X-53.483 Y-7.916 I-6.315 J-7.9
X-49.59 Y-14.259 I-36.879 J-27.006
X-53.439 Y-75.588 I-52.797 J-27.471
X-54.049 Y-75.905 I-0.614 J0.437
G1 X-55.584
G2 X-55.639 Y-75.898 Z-3.063 I0.011 J0.317 F1524
X-55.891 Y-75.595 Z-2.213 I0.066 J0.311 F5080
G1 Y-75.576 Z-2.175
X-57.655 Y-5.424
Y-5.421 Z-2.181
G2 X-57.404 Y-5.102 Z-3.063 I0.317 J0.008
X-57.349 Y-5.095 Z-3.175 I0.066 J-0.311 F1524
G1 X-55.733 F5080
G2 X-54.227 Y-5.63 I-0.162 J-2.846
G1 X-53.885 Y-5.864
G2 X-52.003 Y-7.868 I-6.059 J-7.577
X-48.519 Y-13.589 I-35.235 J-25.38
X-51.92 Y-75.593 I-53.868 J-28.14
X-52.533 Y-75.905 I-0.626 J0.47
G1 X-54.049
G2 X-54.105 Y-75.898 Z-3.063 I0.011 J0.317 F1524
X-54.356 Y-75.595 Z-2.212 I0.066 J0.311 F5080
G1 Y-75.576 Z-2.175
X-56.039 Y-5.424
Y-5.42 Z-2.181
G2 X-55.788 Y-5.102 Z-3.063 I0.317 J0.008
X-55.733 Y-5.095 Z-3.175 I0.066 J-0.311 F1524
G1 X-54.133 F5080
G2 X-52.906 Y-5.495 I-0.161 J-2.578
G1 X-52.587 Y-5.693
X-52.232 Y-5.959
G2 X-50.37 Y-8.049 I-6.671 J-7.818
X-46.651 Y-14.495 I-38.217 J-26.343
X-50.429 Y-75.62 I-55.724 J-27.235
G1 X-50.598 Y-75.771
X-50.799 Y-75.87
X-51.021 Y-75.905
X-52.533
G2 X-52.588 Y-75.898 Z-3.063 I0.011 J0.317 F1524
X-52.839 Y-75.594 Z-2.211 I0.066 J0.311 F5080
G1 Y-75.576 Z-2.175
X-54.44 Y-5.424
Y-5.42 Z-2.182
G2 X-54.189 Y-5.102 Z-3.063 I0.317 J0.007
X-54.133 Y-5.095 Z-3.175 I0.066 J-0.311 F1524
G1 X-52.61 F5080
G2 X-51.392 Y-5.491 I-0.152 J-2.54
G1 X-51.082 Y-5.684
X-50.737 Y-5.944
G2 X-48.891 Y-8.036 I-6.447 J-7.549
X-45.564 Y-13.85 I-36.798 J-24.913
X-48.931 Y-75.618 I-56.813 J-27.879
G1 X-49.101 Y-75.77
X-49.304 Y-75.87
X-49.527 Y-75.905
X-51.021
G2 X-51.077 Y-75.898 Z-3.063 I0.011 J0.317 F1524
X-51.328 Y-75.594 Z-2.211 I0.066 J0.311 F5080
G1 Y-75.576 Z-2.175
X-52.916 Y-5.424
X-52.917 Y-5.42 Z-2.182
G2 X-52.665 Y-5.102 Z-3.063 I0.317 J0.007
X-52.61 Y-5.095 Z-3.175 I0.066 J-0.311 F1524
G1 X-51.163 F5080
G2 X-49.721 Y-5.597 I-0.128 J-2.692
G1 X-49.391 Y-5.823
X-49.022 Y-6.13
G2 X-47.215 Y-8.334 I-7.626 J-8.093
X-43.682 Y-14.885 I-40.857 J-26.264
X-47.377 Y-75.508 I-58.693 J-26.846
G1 X-47.448 Y-75.6
X-47.612 Y-75.764
X-47.818 Y-75.868
X-48.046 Y-75.905
X-49.527
G2 X-49.582 Y-75.898 Z-3.063 I0.011 J0.317 F1524
X-49.833 Y-75.595 Z-2.212 I0.066 J0.311 F5080
G1 X-49.834 Y-75.576 Z-2.175
X-51.469 Y-5.424
Y-5.42 Z-2.182
G2 X-51.218 Y-5.102 Z-3.063 I0.317 J0.007
X-51.163 Y-5.095 Z-3.175 I0.066 J-0.311 F1524
G1 X-49.64 F5080
G2 X-48.206 Y-5.612 I-0.155 J-2.677
G1 X-47.889 Y-5.833
G2 X-46.144 Y-7.755 I-5.501 J-6.75
X-43.539 Y-12.268 I-30.038 J-20.347
X-45.934 Y-75.556 I-58.829 J-29.463
G1 X-45.979 Y-75.602
X-46.143 Y-75.765
X-46.348 Y-75.869
X-46.576 Y-75.905
X-48.046
G2 X-48.101 Y-75.898 Z-3.063 I0.011 J0.317 F1524
X-48.353 Y-75.594 Z-2.211 I0.066 J0.311 F5080
G1 Y-75.576 Z-2.175
X-49.946 Y-5.424
Y-5.42 Z-2.182
G2 X-49.695 Y-5.102 Z-3.063 I0.317 J0.007
X-49.64 Y-5.095 Z-3.175 I0.066 J-0.311 F1524
G1 X-48.21 F5080
G2 X-46.749 Y-5.6 I-0.091 J-2.635
G1 X-46.447 Y-5.807
X-46.084 Y-6.111
G2 X-44.313 Y-8.313 I-7.176 J-7.584
X-41.204 Y-14.248 I-39.494 J-24.472
X-44.248 Y-75.175 I-61.168 J-27.484
G1 X-44.497 Y-75.573
G2 X-45.115 Y-75.905 I-0.62 J0.415
G1 X-46.576
G2 X-46.631 Y-75.898 Z-3.063 I0.011 J0.317 F1524
X-46.882 Y-75.595 Z-2.212 I0.066 J0.311 F5080
G1 X-46.883 Y-75.576 Z-2.175
X-48.516 Y-5.424
Y-5.42 Z-2.182
G2 X-48.265 Y-5.102 Z-3.063 I0.317 J0.007
X-48.21 Y-5.095 Z-3.175 I0.066 J-0.311 F1524
G1 X-46.687 F5080
G2 X-45.278 Y-5.599 I-0.143 J-2.621
G1 X-44.975 Y-5.81
X-44.621 Y-6.108
G2 X-42.869 Y-8.313 I-7.076 J-7.422
X-39.814 Y-14.276 I-39.535 J-24.022
X-42.862 Y-75.286 I-62.55 J-27.457
G1 X-43.043 Y-75.563
G2 X-43.667 Y-75.905 I-0.624 J0.4
G1 X-45.115
G2 X-45.17 Y-75.898 Z-3.063 I0.011 J0.317 F1524
X-45.421 Y-75.594 Z-2.211 I0.066 J0.311 F5080
G1 X-45.422 Y-75.576 Z-2.175
X-46.993 Y-5.424
Y-5.42 Z-2.182
G2 X-46.742 Y-5.102 Z-3.063 I0.317 J0.007
X-46.687 Y-5.095 Z-3.175 I0.066 J-0.311 F1524
G1 X-45.163 F5080
G2 X-43.977 Y-5.495 I-0.156 J-2.425
G1 X-43.706 Y-5.667
X-43.378 Y-5.919
G2 X-41.695 Y-7.905 I-5.809 J-6.63
X-39.234 Y-12.498 I-31.048 J-19.586
X-41.244 Y-74.967 I-63.12 J-29.236
G1 X-41.53 Y-75.462
G2 X-42.045 Y-75.883 I-0.73 J0.369
G1 X-42.223 Y-75.905
X-43.667
G2 X-43.722 Y-75.898 Z-3.063 I0.011 J0.317 F1524
X-43.973 Y-75.594 Z-2.21 I0.066 J0.311 F5080
G1 X-43.974 Y-75.576 Z-2.175
X-45.47 Y-5.424
Y-5.42 Z-2.183
G2 X-45.219 Y-5.102 Z-3.063 I0.317 J0.007
X-45.163 Y-5.095 Z-3.175 I0.066 J-0.311 F1524
G1 X-43.809 F5080
G2 X-42.417 Y-5.568 I-0.082 J-2.532
G1 X-42.121 Y-5.77
X-41.789 Y-6.046
G2 X-40.095 Y-8.174 I-6.516 J-6.926
X-37.409 Y-13.489 I-35.982 J-21.522
X-40.017 Y-75.346 I-64.943 J-28.245
G1 X-40.163 Y-75.563
G2 X-40.786 Y-75.905 I-0.624 J0.4
G1 X-42.223
G2 X-42.278 Y-75.898 Z-3.063 I0.011 J0.317 F1524
X-42.53 Y-75.594 Z-2.211 I0.066 J0.311 F5080
G1 Y-75.576 Z-2.175
X-44.116 Y-5.424
Y-5.42 Z-2.182
G2 X-43.865 Y-5.102 Z-3.063 I0.317 J0.007
X-43.809 Y-5.095 Z-3.175 I0.066 J-0.311 F1524
G1 X-42.286 F5080
G2 X-40.888 Y-5.625 I-0.175 J-2.57
G1 X-40.568 Y-5.859
X-40.239 Y-6.15
G2 X-38.544 Y-8.389 I-7.18 J-7.194
X-35.645 Y-14.429 I-40.25 J-23.039
X-38.408 Y-75.003 I-66.704 J-27.307
G1 X-38.664 Y-75.456
G2 X-39.18 Y-75.882 I-0.733 J0.361
G1 X-39.36 Y-75.905
X-40.786
G2 X-40.842 Y-75.898 Z-3.063 I0.011 J0.317 F1524
X-41.093 Y-75.594 Z-2.21 I0.066 J0.311 F5080
G1 Y-75.576 Z-2.175
X-42.593 Y-5.424
Y-5.42 Z-2.183
G2 X-42.341 Y-5.102 Z-3.063 I0.317 J0.007
X-42.286 Y-5.095 Z-3.175 I0.066 J-0.311 F1524
G1 X-40.932 F5080
G2 X-39.525 Y-5.581 I-0.078 J-2.509
G1 X-39.251 Y-5.771
X-38.915 Y-6.054
G2 X-37.27 Y-8.158 I-6.377 J-6.677
X-34.661 Y-13.511 I-35.512 J-20.62
X-36.912 Y-74.85 I-67.677 J-28.227
G1 X-37.202 Y-75.388
X-37.315 Y-75.564
G2 X-37.938 Y-75.905 I-0.623 J0.4
G1 X-39.36
G2 X-39.415 Y-75.898 Z-3.063 I0.011 J0.317 F1524
X-39.667 Y-75.594 Z-2.211 I0.066 J0.311 F5080
G1 Y-75.576 Z-2.175
X-41.239 Y-5.424
Y-5.42 Z-2.182
G2 X-40.987 Y-5.102 Z-3.063 I0.317 J0.007
X-40.932 Y-5.095 Z-3.175 I0.066 J-0.311 F1524
G1 X-39.409 F5080
G2 X-38.021 Y-5.632 I-0.183 J-2.535
G1 X-37.706 Y-5.866
X-37.383 Y-6.155
G2 X-35.719 Y-8.402 I-7.062 J-6.971
X-33.183 Y-13.79 I-38.08 J-21.212
X-35.669 Y-75.185 I-69.159 J-27.947
G1 X-35.884 Y-75.541
G2 X-36.524 Y-75.905 I-0.645 J0.389
G1 X-37.938
G2 X-37.993 Y-75.898 Z-3.063 I0.011 J0.317 F1524
X-38.244 Y-75.594 Z-2.21 I0.066 J0.311 F5080
G1 X-38.245 Y-75.576 Z-2.175
X-39.715 Y-5.424
Y-5.419 Z-2.183
G2 X-39.464 Y-5.102 Z-3.063 I0.317 J0.007
X-39.409 Y-5.095 Z-3.175 I0.066 J-0.311 F1524
G1 X-38.055 F5080
G2 X-36.693 Y-5.573 I-0.101 J-2.469
G1 X-36.426 Y-5.758
X-36.098 Y-6.034
G2 X-34.495 Y-8.1 I-6.148 J-6.426
X-32.231 Y-12.794 I-32.103 J-18.378
X-34.146 Y-74.95 I-70.088 J-28.948
G1 X-34.393 Y-75.408
X-34.491 Y-75.562
G2 X-35.116 Y-75.905 I-0.625 J0.399
G1 X-36.524
G2 X-36.579 Y-75.898 Z-3.063 I0.011 J0.317 F1524
X-36.83 Y-75.594 Z-2.211 I0.066 J0.311 F5080
G1 X-36.831 Y-75.576 Z-2.175
X-38.361 Y-5.424
Y-5.42 Z-2.183
G2 X-38.11 Y-5.102 Z-3.063 I0.317 J0.007
X-38.055 Y-5.095 Z-3.175 I0.066 J-0.311 F1524
G1 X-36.608 F5080
G2 X-35.277 Y-5.576 I-0.133 J-2.452
G1 X-34.976 Y-5.789
X-34.676 Y-6.047
G2 X-33.061 Y-8.161 I-6.251 J-6.45
X-30.837 Y-12.874 I-32.621 J-18.277
X-32.813 Y-75.089 I-71.476 J-28.868
G1 X-33.035 Y-75.479
G2 X-33.715 Y-75.905 I-0.686 J0.339
G1 X-35.116
G2 X-35.171 Y-75.898 Z-3.063 I0.011 J0.317 F1524
X-35.422 Y-75.594 Z-2.21 I0.066 J0.311 F5080
G1 Y-75.576 Z-2.175
X-36.914 Y-5.424
Y-5.42 Z-2.183
G2 X-36.663 Y-5.102 Z-3.063 I0.317 J0.007
X-36.608 Y-5.095 Z-3.175 I0.066 J-0.311 F1524
G1 X-35.178 F5080
G2 X-33.83 Y-5.603 I-0.16 J-2.466
G1 X-33.527 Y-5.825
X-33.222 Y-6.093
G2 X-31.617 Y-8.251 I-6.462 J-6.485
X-29.435 Y-12.983 I-33.403 J-18.27
X-31.178 Y-74.579 I-72.88 J-28.759
G1 X-31.506 Y-75.248
X-31.691 Y-75.565
G2 X-32.315 Y-75.905 I-0.625 J0.404
G1 X-33.715
G2 X-33.77 Y-75.898 Z-3.063 I0.011 J0.317 F1524
X-34.021 Y-75.594 Z-2.21 I0.066 J0.311 F5080
G1 X-34.022 Y-75.576 Z-2.175
X-35.484 Y-5.424
Y-5.419 Z-2.183
G2 X-35.233 Y-5.102 Z-3.063 I0.317 J0.007
X-35.178 Y-5.095 Z-3.175 I0.066 J-0.311 F1524
G1 X-33.824 F5080
G2 X-32.498 Y-5.558 I-0.1 J-2.416
X-31.181 Y-6.809 I-3.057 J-4.538
X-29.651 Y-9.36 I-11.05 J-8.361
X-26.653 Y-16.98 I-53.622 J-25.5
X-30.032 Y-75.105 I-75.671 J-24.761
G1 X-30.242 Y-75.476
G2 X-30.923 Y-75.905 I-0.687 J0.336
G1 X-32.315
G2 X-32.37 Y-75.898 Z-3.063 I0.011 J0.317 F1524
X-32.621 Y-75.594 Z-2.21 I0.066 J0.311 F5080
G1 Y-75.576 Z-2.175
X-34.13 Y-5.424
Y-5.42 Z-2.183
G2 X-33.879 Y-5.102 Z-3.063 I0.317 J0.007
X-33.824 Y-5.095 Z-3.175 I0.066 J-0.311 F1524
G1 X-32.377 F5080
G2 X-31.042 Y-5.599 I-0.155 J-2.433
G1 X-30.748 Y-5.814
X-30.447 Y-6.08
G2 X-28.875 Y-8.207 I-6.288 J-6.293
X-26.74 Y-12.961 I-32.397 J-17.405
X-28.445 Y-74.66 I-75.552 J-28.785
G1 X-28.734 Y-75.261
X-28.909 Y-75.563
G2 X-29.533 Y-75.905 I-0.625 J0.402
G1 X-30.923
G2 X-30.978 Y-75.898 Z-3.063 I0.011 J0.317 F1524
X-31.229 Y-75.594 Z-2.21 I0.066 J0.311 F5080
G1 Y-75.576 Z-2.175
X-32.683 Y-5.424
Y-5.419 Z-2.184
G2 X-32.432 Y-5.102 Z-3.063 I0.317 J0.007
X-32.377 Y-5.095 Z-3.175 I0.066 J-0.311 F1524
G1 X-31.023 F5080
G2 X-29.718 Y-5.555 I-0.109 J-2.39
X-28.425 Y-6.789 I-3.009 J-4.45
X-26.912 Y-9.349 I-10.663 J-8.029
X-23.997 Y-17.002 I-53.679 J-24.831
X-27.009 Y-74.531 I-78.317 J-24.743
G1 X-27.32 Y-75.2
X-27.506 Y-75.533
G2 X-28.15 Y-75.905 I-0.648 J0.379
G1 X-29.533
G2 X-29.588 Y-75.898 Z-3.063 I0.011 J0.317 F1524
X-29.84 Y-75.594 Z-2.21 I0.066 J0.311 F5080
G1 Y-75.576 Z-2.175
X-31.329 Y-5.424
Y-5.42 Z-2.183
G2 X-31.078 Y-5.102 Z-3.063 I0.317 J0.007
X-31.023 Y-5.095 Z-3.175 I0.066 J-0.311 F1524
G1 X-29.593 F5080
G2 X-28.265 Y-5.601 I-0.158 J-2.411
G1 X-27.975 Y-5.815
X-27.678 Y-6.079
G2 X-26.13 Y-8.197 I-6.202 J-6.158
X-24.044 Y-12.972 I-31.769 J-16.724
X-19.294 Y-49.608 I-78.101 J-28.752
X-25.74 Y-74.765 I-82.485 J7.731
G1 X-25.987 Y-75.284
X-26.154 Y-75.573
G2 X-26.771 Y-75.905 I-0.618 J0.41
G1 X-28.15
G2 X-28.205 Y-75.898 Z-3.063 I0.011 J0.317 F1524
X-28.456 Y-75.594 Z-2.21 I0.066 J0.311 F5080
G1 X-28.457 Y-75.576 Z-2.175
X-29.899 Y-5.424
Y-5.419 Z-2.184
G2 X-29.648 Y-5.102 Z-3.063 I0.317 J0.007
X-29.593 Y-5.095 Z-3.175 I0.066 J-0.311 F1524
G1 X-28.239 F5080
G2 X-26.936 Y-5.567 I-0.123 J-2.376
X-25.651 Y-6.813 I-3.038 J-4.417
X-24.164 Y-9.388 I-10.634 J-7.86
X-21.553 Y-16.36 I-52.217 J-23.531
X-24.325 Y-74.676 I-80.759 J-25.385
G1 X-24.596 Y-75.249
X-24.767 Y-75.554
G2 X-25.398 Y-75.905 I-0.632 J0.393
G1 X-26.771
G2 X-26.826 Y-75.898 Z-3.063 I0.011 J0.317 F1524
X-27.077 Y-75.594 Z-2.21 I0.066 J0.311 F5080
G1 X-27.078 Y-75.576 Z-2.175
X-28.545 Y-5.424
Y-5.419 Z-2.183
G2 X-28.294 Y-5.102 Z-3.063 I0.317 J0.007
X-28.239 Y-5.095 Z-3.175 I0.066 J-0.311 F1524
G1 X-26.885 F5080
G2 X-25.608 Y-5.536 I-0.094 J-2.346
X-24.364 Y-6.706 I-2.833 J-4.258
X-22.867 Y-9.256 I-9.79 J-7.464
X-20.271 Y-16.234 I-50.819 J-22.872
X-22.922 Y-74.59 I-82.015 J-25.513
G1 X-23.204 Y-75.205
X-23.38 Y-75.526
G2 X-24.029 Y-75.905 I-0.652 J0.372
G1 X-25.398
G2 X-25.453 Y-75.898 Z-3.063 I0.011 J0.317 F1524
X-25.704 Y-75.594 Z-2.21 I0.066 J0.311 F5080
G1 X-25.705 Y-75.576 Z-2.175
X-27.191 Y-5.424
Y-5.42 Z-2.183
G2 X-26.94 Y-5.102 Z-3.063 I0.317 J0.007
X-26.885 Y-5.095 Z-3.175 I0.066 J-0.311 F1524
G1 X-25.531 F5080
G2 X-24.244 Y-5.531 I-0.074 J-2.336
X-23.016 Y-6.682 I-2.776 J-4.194
X-21.531 Y-9.209 I-9.497 J-7.279
X-19.183 Y-15.485 I-47.971 J-21.525
X-21.558 Y-74.589 I-83.094 J-26.262
G1 X-21.834 Y-75.197
X-22.009 Y-75.517
G2 X-22.663 Y-75.905 I-0.659 J0.366
G1 X-24.029
G2 X-24.084 Y-75.898 Z-3.063 I0.011 J0.317 F1524
X-24.335 Y-75.594 Z-2.21 I0.066 J0.311 F5080
G1 Y-75.576 Z-2.175
X-25.837 Y-5.424
Y-5.42 Z-2.183
G2 X-25.586 Y-5.102 Z-3.063 I0.317 J0.007
X-25.531 Y-5.095 Z-3.175 I0.066 J-0.311 F1524
G1 X-24.177 F5080
G2 X-22.879 Y-5.53 I-0.059 J-2.331
X-21.662 Y-6.67 I-2.759 J-4.165
X-20.188 Y-9.186 I-9.318 J-7.147
X-17.866 Y-15.471 I-47.634 J-21.171
X-20.205 Y-74.609 I-84.389 J-26.277
G1 X-20.473 Y-75.198
X-20.645 Y-75.514
G2 X-21.3 Y-75.905 I-0.661 J0.364
G1 X-22.663
G2 X-22.718 Y-75.898 Z-3.063 I0.011 J0.317 F1524
X-22.969 Y-75.594 Z-2.21 I0.066 J0.311 F5080
G1 Y-75.576 Z-2.175
X-24.483 Y-5.424
Y-5.42 Z-2.183
G2 X-24.232 Y-5.102 Z-3.063 I0.317 J0.007
X-24.177 Y-5.095 Z-3.175 I0.066 J-0.311 F1524
G1 X-22.73 F5080
G2 X-21.426 Y-5.588 I-0.146 J-2.359
X-20.178 Y-6.829 I-3.033 J-4.298
X-18.728 Y-9.426 I-10.305 J-7.456
X-16.252 Y-16.447 I-52.586 J-22.492
X-18.687 Y-74.204 I-86.01 J-25.304
G1 X-18.974 Y-74.892
X-19.177 Y-75.323
X-19.297 Y-75.532
G2 X-19.939 Y-75.905 I-0.643 J0.368
G1 X-21.3
G2 X-21.355 Y-75.898 Z-3.063 I0.011 J0.317 F1524
X-21.607 Y-75.594 Z-2.21 I0.066 J0.311 F5080
G1 Y-75.576 Z-2.175
X-23.036 Y-5.424
Y-5.419 Z-2.184
G2 X-22.785 Y-5.102 Z-3.063 I0.317 J0.006
X-22.73 Y-5.095 Z-3.175 I0.066 J-0.311 F1524
G1 X-21.376 F5080
G2 X-20.09 Y-5.571 I-0.131 J-2.33
X-18.848 Y-6.79 I-2.942 J-4.238
X-17.402 Y-9.379 I-10.01 J-7.292
X-14.949 Y-16.409 I-52.043 J-22.099
X-17.332 Y-74.196 I-87.288 J-25.344
G1 X-17.616 Y-74.885
X-17.819 Y-75.321
X-17.939 Y-75.53
G2 X-18.582 Y-75.905 I-0.644 J0.366
G1 X-19.939
G2 X-19.995 Y-75.898 Z-3.063 I0.011 J0.317 F1524
X-20.246 Y-75.594 Z-2.21 I0.066 J0.311 F5080
G1 Y-75.576 Z-2.175
X-21.682 Y-5.424
Y-5.419 Z-2.184
G2 X-21.431 Y-5.102 Z-3.063 I0.317 J0.006
X-21.376 Y-5.095 Z-3.175 I0.066 J-0.311 F1524
G1 X-20.022 F5080
G2 X-18.743 Y-5.563 I-0.123 J-2.32
X-17.52 Y-6.756 I-2.878 J-4.174
X-16.081 Y-9.325 I-9.736 J-7.141
X-13.857 Y-15.646 I-48.881 J-20.747
X-15.976 Y-74.179 I-88.368 J-26.106
G1 X-16.257 Y-74.869
X-16.46 Y-75.308
X-16.611 Y-75.578
G2 X-17.226 Y-75.905 I-0.614 J0.414
G1 X-18.582
G2 X-18.638 Y-75.898 Z-3.063 I0.011 J0.317 F1524
X-18.889 Y-75.594 Z-2.21 I0.066 J0.311 F5080
G1 Y-75.576 Z-2.175
X-20.328 Y-5.424
Y-5.419 Z-2.184
G2 X-20.077 Y-5.102 Z-3.063 I0.317 J0.007
X-20.022 Y-5.095 Z-3.175 I0.066 J-0.311 F1524
G1 X-18.668 F5080
G2 X-17.396 Y-5.558 I-0.119 J-2.309
X-16.185 Y-6.735 I-2.844 J-4.136
X-14.755 Y-9.288 I-9.522 J-7.013
X-12.551 Y-15.617 I-48.35 J-20.382
X-14.629 Y-74.178 I-89.646 J-26.137
X-15.256 Y-75.576 I-8.563 J3.007
X-15.874 Y-75.905 I-0.621 J0.42
G1 X-17.226
G2 X-17.281 Y-75.898 Z-3.063 I0.011 J0.317 F1524
X-17.532 Y-75.594 Z-2.21 I0.066 J0.311 F5080
G1 X-17.533 Y-75.576 Z-2.175
X-18.974 Y-5.424
X-18.975 Y-5.419 Z-2.184
G2 X-18.723 Y-5.102 Z-3.063 I0.317 J0.007
X-18.668 Y-5.095 Z-3.175 I0.066 J-0.311 F1524
G1 X-17.314 F5080
G2 X-16.045 Y-5.557 I-0.119 J-2.303
X-14.841 Y-6.73 I-2.839 J-4.119
X-13.42 Y-9.276 I-9.405 J-6.921
X-11.239 Y-15.612 I-48.087 J-20.093
X-13.292 Y-74.2 I-90.931 J-26.144
G1 X-13.569 Y-74.892
X-13.758 Y-75.305
X-13.909 Y-75.575
G2 X-14.525 Y-75.905 I-0.616 J0.411
G1 X-15.874
G2 X-15.929 Y-75.898 Z-3.063 I0.011 J0.317 F1524
X-16.181 Y-75.594 Z-2.21 I0.066 J0.311 F5080
G1 Y-75.576 Z-2.175
X-17.62 Y-5.424
X-17.621 Y-5.419 Z-2.184
G2 X-17.369 Y-5.102 Z-3.063 I0.317 J0.007
X-17.314 Y-5.095 Z-3.175 I0.066 J-0.311 F1524
G1 X-15.96 F5080
G2 X-14.691 Y-5.561 I-0.124 J-2.299
X-13.49 Y-6.738 I-2.851 J-4.112
X-12.078 Y-9.284 I-9.374 J-6.861
X-9.922 Y-15.628 I-48.056 J-19.87
X-11.965 Y-74.242 I-92.222 J-26.129
G1 X-12.242 Y-74.934
X-12.423 Y-75.326
X-12.535 Y-75.527
G2 X-13.181 Y-75.905 I-0.646 J0.363
G1 X-14.525
G2 X-14.58 Y-75.898 Z-3.063 I0.011 J0.317 F1524
X-14.831 Y-75.594 Z-2.21 I0.066 J0.311 F5080
G1 X-14.832 Y-75.576 Z-2.175
X-16.267 Y-5.424
Y-5.419 Z-2.184
G2 X-16.015 Y-5.102 Z-3.063 I0.317 J0.006
X-15.96 Y-5.095 Z-3.175 I0.066 J-0.311 F1524
G1 X-14.606 F5080
G2 X-13.334 Y-5.568 I-0.131 J-2.298
X-12.134 Y-6.755 I-2.877 J-4.112
X-10.732 Y-9.308 I-9.412 J-6.827
X-8.602 Y-15.661 I-48.217 J-19.7
X-5.096 Y-38.248 I-93.034 J-26.01
G1 X-5.095 Y-43.969
X-5.133 Y-44.713
G2 X-5.516 Y-51.404 I-62.253 J0.208
X-10.756 Y-74.601 I-95.684 J9.425
G1 X-10.999 Y-75.164
X-11.155 Y-75.469
G2 X-11.838 Y-75.906 I-0.696 J0.335
G1 X-13.181 Y-75.905
G2 X-13.236 Y-75.898 Z-3.063 I0.011 J0.317 F1524
X-13.487 Y-75.576 Z-2.175 I0.066 J0.311 F5080
X-13.478 Y-75.512 I0.317 J-0.011
G1 X-5.721 Y-43.904
G2 X-5.424 Y-43.663 I0.308 J-0.076
X-5.102 Y-43.914 Z-3.063 I0.011 J-0.317
X-5.095 Y-43.969 Z-3.175 I-0.311 J-0.066 F1524
G1 Y-56.491 F5080
G2 X-5.662 Y-60.919 I-24.56 J0.891
X-9.404 Y-74.558 I-91.996 J17.909
G1 X-9.643 Y-75.128
X-9.809 Y-75.458
G2 X-10.498 Y-75.905 I-0.694 J0.316
G1 X-11.838
G2 X-11.893 Y-75.898 Z-3.063 I0.011 J0.317 F1524
X-12.144 Y-75.576 Z-2.175 I0.066 J0.311 F5080
X-12.128 Y-75.486 I0.317 J-0.011
G1 X-5.714 Y-56.401
G2 X-5.424 Y-56.185 I0.301 J-0.101
X-5.102 Y-56.436 Z-3.063 I0.011 J-0.317
X-5.095 Y-56.491 Z-3.175 I-0.311 J-0.066 F1524
G1 Y-62.921 F5080
G2 X-5.492 Y-65.869 I-13.486 J0.315
X-8.027 Y-74.438 I-79.171 J18.762
G1 X-8.28 Y-75.076
X-8.452 Y-75.425
G2 X-8.97 Y-75.88 I-0.74 J0.32
G1 X-9.159 Y-75.905
X-10.498
G2 X-10.553 Y-75.898 Z-3.063 I0.011 J0.317 F1524
X-10.804 Y-75.576 Z-2.175 I0.066 J0.311 F5080
X-10.781 Y-75.469 I0.317 J-0.011
G1 X-5.708 Y-62.814
G2 X-5.424 Y-62.615 I0.295 J-0.118
X-5.102 Y-62.866 Z-3.063 I0.011 J-0.317
X-5.095 Y-62.921 Z-3.175 I-0.311 J-0.066 F1524
G1 Y-67.998 F5080
X-5.131 Y-68.697
G2 X-5.775 Y-71.602 I-14.85 J1.769
X-6.939 Y-75.068 I-37.627 J10.711
G1 X-7.112 Y-75.417
G2 X-7.633 Y-75.88 I-0.746 J0.316
G1 X-7.823 Y-75.905
X-9.159
G2 X-9.214 Y-75.898 Z-3.063 I0.011 J0.317 F1524
X-9.465 Y-75.576 Z-2.175 I0.066 J0.311 F5080
X-9.433 Y-75.447 I0.317 J-0.011
G1 X-5.698 Y-67.869
G2 X-5.424 Y-67.692 I0.285 J-0.14
X-5.102 Y-67.943 Z-3.063 I0.011 J-0.317
X-5.095 Y-67.998 Z-3.175 I-0.311 J-0.066 F1524
G1 Y-72.228 F5080
G2 X-5.703 Y-75.187 I-7.974 J0.097
G1 X-5.838 Y-75.462
G2 X-6.522 Y-75.905 I-0.694 J0.322
G1 X-6.577 Y-75.898 Z-3.063 F1524
G2 X-6.828 Y-75.576 Z-2.175 I0.066 J0.311 F5080
X-6.813 Y-75.488 I0.317 J-0.011
G1 X-5.714 Y-72.14
G2 X-5.424 Y-71.922 I0.302 J-0.099
X-5.102 Y-72.173 Z-3.063 I0.011 J-0.317
X-5.095 Y-72.228 Z-3.175 I-0.311 J-0.066 F1524
G1 Y-75.198 F5080
G2 X-5.745 Y-75.905 I-0.654 J-0.051
G1 X-5.8 Y-75.898 Z-3.063 F1524
G2 X-6.051 Y-75.576 Z-2.175 I0.066 J0.311 F5080
X-5.976 Y-75.382 I0.317 J-0.011
G1 X-5.655 Y-75.004
G2 X-5.424 Y-74.892 I0.242 J-0.206
X-5.102 Y-75.143 Z-3.063 I0.011 J-0.317
X-5.095 Y-75.198 Z-3.175 I-0.311 J-0.066 F1524
X-5.118 Y-75.698 I-1.713 J-0.175 F5080
G1 X-5.143 Y-75.739
X-5.175 Y-75.782
X-5.198 Y-75.806
X-5.222 Y-75.826
X-5.264 Y-75.856
X-5.306 Y-75.879
X-5.349 Y-75.893
X-5.391 Y-75.902
X-5.56 Y-75.905
X-7.823
G2 X-7.878 Y-75.898 Z-3.063 I0.011 J0.317 F1524
X-8.128 Y-75.618 Z-2.258 I0.066 J0.311 F5080
G1 X-8.132 Y-75.577 Z-2.175
X-14.911 Y-5.443
X-14.912 Y-5.434
X-14.913 Y-5.424
G2 X-14.661 Y-5.102 Z-3.063 I0.317 J0.011
X-14.606 Y-5.095 Z-3.175 I0.066 J-0.311 F1524
G1 X-13.252 F5080
G2 X-11.976 Y-5.578 I-0.14 J-2.299
X-10.773 Y-6.781 I-2.915 J-4.119
X-9.382 Y-9.346 I-9.511 J-6.816
X-7.279 Y-15.708 I-48.555 J-19.578
X-5.095 Y-25.7 I-86.355 J-24.109
G1 Y-38.248
G2 X-5.102 Y-38.303 Z-3.063 I-0.317 J0.011 F1524
X-5.424 Y-38.554 Z-2.175 I-0.311 J0.066 F5080
X-5.722 Y-38.31 I0.011 J0.317
G1 X-13.55 Y-5.486
G2 X-13.559 Y-5.424 I0.309 J0.074
X-13.307 Y-5.102 Z-3.063 I0.317 J0.011
X-13.252 Y-5.095 Z-3.175 I0.066 J-0.311 F1524
G1 X-11.991 F5080
G2 X-10.454 Y-5.717 I-0.096 J-2.447
G1 X-10.193 Y-5.929
X-9.882 Y-6.238
G2 X-8.464 Y-8.423 I-6.511 J-5.78
X-6.662 Y-13.312 I-31.621 J-14.429
X-5.093 Y-19.18 I-75.125 J-23.228
G1 X-5.095 Y-19.237
Y-25.7
G2 X-5.102 Y-25.756 Z-3.063 I-0.317 J0.011 F1524
X-5.424 Y-26.007 Z-2.175 I-0.311 J0.066 F5080
X-5.715 Y-25.787 I0.011 J0.317
G1 X-12.282 Y-5.511
G2 X-12.298 Y-5.424 I0.302 J0.098
X-12.047 Y-5.102 Z-3.063 I0.317 J0.011
X-11.991 Y-5.095 Z-3.175 I0.066 J-0.311 F1524
G1 X-10.637 F5080
G2 X-9.143 Y-5.696 I-0.105 J-2.422
X-7.881 Y-7.092 I-3.433 J-4.373
X-6.556 Y-9.755 I-11.514 J-7.386
X-5.093 Y-14.171 I-42.572 J-16.558
G1 X-5.095 Y-14.242
Y-19.237
G2 X-5.102 Y-19.292 Z-3.063 I-0.317 J0.011 F1524
X-5.424 Y-19.543 Z-2.175 I-0.311 J0.066 F5080
X-5.71 Y-19.338 I0.011 J0.317
G1 X-10.923 Y-5.525
G2 X-10.944 Y-5.424 I0.297 J0.112
X-10.693 Y-5.102 Z-3.063 I0.317 J0.011
X-10.638 Y-5.095 Z-3.175 I0.066 J-0.311 F1524
G1 X-9.284 F5080
G2 X-7.805 Y-5.697 I-0.125 J-2.425
X-6.545 Y-7.095 I-3.434 J-4.363
X-5.093 Y-10.146 I-11.457 J-7.326
G1 X-5.095 Y-10.237
Y-14.242
G2 X-5.102 Y-14.297 Z-3.063 I-0.317 J0.011 F1524
X-5.424 Y-14.548 Z-2.175 I-0.311 J0.066 F5080
X-5.704 Y-14.358 I0.011 J0.317
G1 X-9.563 Y-5.54
G2 X-9.59 Y-5.424 I0.291 J0.127
X-9.339 Y-5.102 Z-3.063 I0.317 J0.011
X-9.284 Y-5.095 Z-3.175 I0.066 J-0.311 F1524
G1 X-7.93 F5080
G2 X-6.674 Y-5.547 I-0.106 J-2.266
X-5.53 Y-6.654 I-2.707 J-3.943
G1 X-5.233 Y-7.069
X-5.158 Y-7.202
X-5.111 Y-7.347
X-5.095 Y-7.499
G2 X-5.102 Y-7.554 Z-3.063 I-0.317 J0.011 F1524
X-5.424 Y-7.805 Z-2.175 I-0.311 J0.066 F5080
X-5.615 Y-7.732 I0.011 J0.317
G1 X-8.121 Y-5.657
G2 X-8.236 Y-5.424 I0.202 J0.245
X-7.985 Y-5.102 Z-3.063 I0.317 J0.011
X-7.93 Y-5.095 Z-3.175 I0.066 J-0.311 F1524
G1 X-6.576 F5080
G2 X-5.297 Y-5.596 I-0.089 J-2.11
G1 X-5.188 Y-5.748
X-5.119 Y-5.921
X-5.095 Y-6.106
G2 X-5.102 Y-6.161 Z-3.063 I-0.317 J0.011 F1524
X-5.424 Y-6.412 Z-2.175 I-0.311 J0.066 F5080
X-5.575 Y-6.368 I0.011 J0.317
G1 X-6.726 Y-5.686
G2 X-6.882 Y-5.424 I0.162 J0.273
X-6.631 Y-5.102 Z-3.063 I0.317 J0.011
X-6.576 Y-5.095 Z-3.175 I0.066 J-0.311 F1524
G1 X-5.56 F5080
X-5.391 Y-5.098
X-5.349 Y-5.107
X-5.306 Y-5.121
X-5.264 Y-5.144
X-5.222 Y-5.174
X-5.198 Y-5.194
X-5.175 Y-5.218
X-5.143 Y-5.261
X-5.121 Y-5.303
X-5.106 Y-5.345
X-5.098 Y-5.387
X-5.095 Y-5.557
Y-10.237
G2 X-5.124 Y-10.358 I-0.317 J0.011 F1524
G1 X-5.153 Y-10.422 Z-3.167
X-5.181 Y-10.483 Z-3.144
X-5.206 Y-10.538 Z-3.106
X-5.227 Y-10.584 Z-3.055
X-5.243 Y-10.618 Z-2.995
X-5.252 Y-10.64 Z-2.928
X-5.256 Y-10.647 Z-2.858
G0 Z-2.54
X-110.945 Y-77.181
G1 Z-2.858 F1524
X-110.937 Y-77.184 Z-2.928
X-110.915 Y-77.191 Z-2.995
X-110.879 Y-77.203 Z-3.055
X-110.831 Y-77.219 Z-3.106
X-110.774 Y-77.238 Z-3.144
X-110.71 Y-77.259 Z-3.167
X-110.643 Y-77.281 Z-3.175
G2 X-110.661 Y-77.405 I-0.02 J-0.06
G1 X-114.723 F5080
X-115.256 Y-77.378
X-115.723 Y-77.317
G2 X-118.443 Y-76.423 I2.283 J11.536
X-129.976 Y-68.359 I15.462 J34.394
X-116.588 Y-5.121 I27.708 J27.17
G1 X-116.496 Y-5.101
X-116.403 Y-5.095
X-112.588
G2 X-112.533 Y-5.102 Z-3.063 I-0.011 J-0.317 F1524
X-112.282 Y-5.422 Z-2.178 I-0.066 J-0.311 F5080
G1 Y-5.424 Z-2.175
X-114.416 Y-77.076
X-114.417 Y-77.097 Z-2.216
G2 X-114.668 Y-77.398 Z-3.063 I-0.317 J0.009
X-114.723 Y-77.405 Z-3.175 I-0.066 J0.311 F1524
G1 X-117.939 F5080
X-118.335 Y-77.385
X-118.691 Y-77.338
X-119.151 Y-77.24
G2 X-121.801 Y-76.128 I3.208 J11.363
X-133.19 Y-66.66 I18.77 J34.163
X-119.709 Y-5.126 I30.925 J25.469
G1 X-119.6 Y-5.104
X-119.49 Y-5.095
X-116.403
G2 X-116.348 Y-5.102 Z-3.063 I-0.011 J-0.317 F1524
X-116.096 Y-5.42 Z-2.183 I-0.066 J-0.311 F5080
G1 Y-5.424 Z-2.175
X-117.632 Y-77.076
Y-77.094 Z-2.21
G2 X-117.883 Y-77.398 Z-3.063 I-0.317 J0.007
X-117.939 Y-77.405 Z-3.175 I-0.066 J0.311 F1524
G1 X-120.646 F5080
G2 X-122.183 Y-77.121 I0.062 J4.644
X-124.787 Y-75.794 I4.343 J11.741
X-136.848 Y-63.801 I21.866 J34.052
X-122.436 Y-5.135 I34.587 J22.606
G1 X-122.31 Y-5.107
X-122.182 Y-5.095
X-119.49
G2 X-119.435 Y-5.102 Z-3.063 I-0.011 J-0.317 F1524
X-119.184 Y-5.418 Z-2.186 I-0.066 J-0.311 F5080
G1 Y-5.424 Z-2.175
X-120.34 Y-77.076
Y-77.092 Z-2.207
G2 X-120.591 Y-77.398 Z-3.063 I-0.317 J0.005
X-120.646 Y-77.405 Z-3.175 I-0.066 J0.311 F1524
G1 X-123.185 F5080
G2 X-124.446 Y-77.165 I0.093 J3.937
X-126.911 Y-75.855 I3.62 J9.778
X-135.092 Y-68.295 I22.813 J32.897
X-124.905 Y-5.146 I32.819 J27.102
G1 X-124.768 Y-5.109
X-124.627 Y-5.095
X-122.182
G2 X-122.127 Y-5.102 Z-3.063 I-0.011 J-0.317 F1524
X-121.876 Y-5.417 Z-2.188 I-0.066 J-0.311 F5080
G1 Y-5.424 Z-2.175
X-122.879 Y-77.076
Y-77.092 Z-2.206
G2 X-123.13 Y-77.398 Z-3.063 I-0.317 J0.004
X-123.185 Y-77.405 Z-3.175 I-0.066 J0.311 F1524
G1 X-125.385 F5080
G2 X-127.051 Y-77.01 I0.079 J4.05
X-129.499 Y-75.488 I4.911 J10.627
X-138.17 Y-66.321 I25.678 J32.971
X-127.188 Y-5.149 I35.896 J25.128
G1 X-127.04 Y-5.111
X-126.89 Y-5.095
X-124.627
G2 X-124.572 Y-5.102 Z-3.063 I-0.011 J-0.317 F1524
X-124.321 Y-5.416 Z-2.19 I-0.066 J-0.311 F5080
G1 Y-5.424 Z-2.175
X-125.079 Y-77.076
Y-77.091 Z-2.203
G2 X-125.33 Y-77.398 Z-3.063 I-0.317 J0.003
X-125.385 Y-77.405 Z-3.175 I-0.066 J0.311 F1524
G1 X-127.586 F5080
G2 X-129.046 Y-77.051 I0.115 J3.665
G1 X-129.555 Y-76.806
G2 X-131.972 Y-75.071 I6.885 J12.142
X-142.441 Y-61.641 I28.87 J33.3
X-129.468 Y-5.248 I40.173 J20.447
G1 X-129.334 Y-5.163
X-129.183 Y-5.113
X-129.025 Y-5.095
X-126.89
G2 X-126.835 Y-5.102 Z-3.063 I-0.011 J-0.317 F1524
X-126.584 Y-5.416 Z-2.191 I-0.066 J-0.311 F5080
G1 Y-5.424 Z-2.175
X-127.279 Y-77.076
Y-77.09 Z-2.203
G2 X-127.53 Y-77.398 Z-3.063 I-0.317 J0.003
X-127.586 Y-77.405 Z-3.175 I-0.066 J0.311 F1524
G1 X-129.616 F5080
G2 X-130.974 Y-77.079 I0.098 J3.399
G1 X-131.423 Y-76.863
G2 X-133.757 Y-75.143 I6.015 J10.603
X-141.382 Y-66.027 I29.532 J32.452
X-131.519 Y-5.265 I39.105 J24.834
G1 X-131.381 Y-5.171
X-131.223 Y-5.115
X-131.056 Y-5.095
X-129.025
G2 X-128.969 Y-5.102 Z-3.063 I-0.011 J-0.317 F1524
X-128.718 Y-5.415 Z-2.191 I-0.066 J-0.311 F5080
G1 Y-5.424 Z-2.175
X-129.31 Y-77.076
Y-77.09 Z-2.202
G2 X-129.561 Y-77.398 Z-3.063 I-0.317 J0.003
X-129.616 Y-77.405 Z-3.175 I-0.066 J0.311 F1524
G1 X-131.647 F5080
G2 X-132.883 Y-77.083 I0.171 J3.189
G1 X-133.311 Y-76.871
G2 X-135.57 Y-75.141 I5.733 J9.825
X-142.181 Y-67.105 I30.371 J31.726
X-133.487 Y-5.282 I39.898 J25.912
G1 X-133.346 Y-5.178
X-133.181 Y-5.116
X-133.006 Y-5.095
X-131.056
G2 X-131.001 Y-5.102 Z-3.063 I-0.011 J-0.317 F1524
X-130.749 Y-5.415 Z-2.191 I-0.066 J-0.311 F5080
G1 Y-5.424 Z-2.175
X-131.341 Y-77.076
Y-77.09 Z-2.202
G2 X-131.592 Y-77.398 Z-3.063 I-0.317 J0.003
X-131.647 Y-77.405 Z-3.175 I-0.066 J0.311 F1524
G1 X-133.509 F5080
G2 X-135.067 Y-76.911 I0.224 J3.413
G1 X-135.542 Y-76.63
G2 X-137.79 Y-74.683 I7.793 J11.27
X-145.902 Y-63.147 I34.02 J32.541
X-135.389 Y-5.297 I43.627 J21.952
G1 X-135.242 Y-5.186
X-135.071 Y-5.118
X-134.888 Y-5.095
X-133.006
G2 X-132.951 Y-5.102 Z-3.063 I-0.011 J-0.317 F1524
X-132.699 Y-5.415 Z-2.192 I-0.066 J-0.311 F5080
G1 Y-5.424 Z-2.175
X-133.203 Y-77.076
Y-77.089 Z-2.201
G2 X-133.454 Y-77.398 Z-3.063 I-0.317 J0.002
X-133.509 Y-77.405 Z-3.175 I-0.066 J0.311 F1524
G1 X-135.201 F5080
G2 X-136.766 Y-76.956 I0.073 J3.209
G1 X-137.19 Y-76.711
G2 X-139.372 Y-74.809 I6.727 J9.922
X-145.549 Y-66.431 I33.807 J31.388
X-137.224 Y-5.307 I43.267 J25.236
G1 X-137.076 Y-5.19
X-136.9 Y-5.12
X-136.713 Y-5.095
X-134.888
G2 X-134.832 Y-5.102 Z-3.063 I-0.011 J-0.317 F1524
X-134.581 Y-5.414 Z-2.194 I-0.066 J-0.311 F5080
G1 Y-5.424 Z-2.175
X-134.895 Y-77.076
Y-77.089 Z-2.2
G2 X-135.146 Y-77.398 Z-3.063 I-0.317 J0.001
X-135.202 Y-77.405 Z-3.175 I-0.066 J0.311 F1524
G1 X-137.063 F5080
G2 X-138.477 Y-76.974 I0.172 J3.103
G1 X-138.869 Y-76.747
G2 X-140.994 Y-74.863 I6.242 J9.183
X-146.277 Y-67.667 I33.639 J30.233
X-139.018 Y-5.324 I43.991 J26.472
G1 X-138.867 Y-5.198
X-138.686 Y-5.122
X-138.49 Y-5.095
X-136.713
G2 X-136.658 Y-5.102 Z-3.063 I-0.011 J-0.317 F1524
X-136.406 Y-5.414 Z-2.194 I-0.066 J-0.311 F5080
G1 X-136.407 Y-5.424 Z-2.175
X-136.757 Y-77.076
Y-77.089 Z-2.2
G2 X-137.008 Y-77.398 Z-3.063 I-0.317 J0.002
X-137.063 Y-77.405 Z-3.175 I-0.066 J0.311 F1524
G1 X-138.756 F5080
G2 X-139.374 Y-77.284 I-0.05 J1.39
G1 X-139.544 Y-77.156
X-139.671 Y-76.985
G2 X-139.691 Y-76.934 Z-3.063 I0.285 J0.141 F1524
X-139.528 Y-76.56 Z-2.175 I0.305 J0.089 F5080
X-139.271 Y-76.549 I0.141 J-0.284
G1 X-138.651 Y-76.792
G2 X-138.449 Y-77.076 I-0.116 J-0.296
X-138.701 Y-77.398 Z-3.063 I-0.317 J-0.011
X-138.756 Y-77.405 Z-3.175 I-0.066 J0.311 F1524
G1 X-139.263 Y-77.404 F5080
X-139.306 Y-77.4
X-139.348 Y-77.391
X-139.39 Y-77.374
X-139.433 Y-77.35
X-139.49 Y-77.305
X-139.51 Y-77.284
G3 X-139.787 Y-76.796 I-8.533 J-4.523
X-140.989 Y-75.959 I-1.79 J-1.288
G1 X-141.249 Y-75.822
X-141.557 Y-75.637
X-141.943 Y-75.359
G2 X-143.94 Y-73.275 I7.806 J9.481
X-150.707 Y-61.742 I39.486 J30.92
X-140.764 Y-5.331 I48.439 J20.544
G1 X-140.61 Y-5.202
X-140.425 Y-5.123
X-140.226 Y-5.095
X-138.49
G2 X-138.435 Y-5.102 Z-3.063 I-0.011 J-0.317 F1524
X-138.184 Y-5.423 Z-2.177 I-0.066 J-0.311 F5080
G1 Y-5.424 Z-2.175
X-140.386 Y-75.737
G2 X-140.397 Y-75.811 I-0.317 J0.01
X-140.732 Y-76.043 Z-3.063 I-0.306 J0.084
X-140.787 Y-76.033 Z-3.175 I0.029 J0.316 F1524
G3 X-141.895 Y-75.91 I-0.846 J-2.553 F5080
G2 X-143.373 Y-75.357 I0.223 J2.847
G1 X-143.752 Y-75.088
G2 X-145.694 Y-73.021 I7.246 J8.752
X-151.037 Y-64.085 I39.217 J29.516
X-142.475 Y-5.344 I48.758 J22.888
G1 X-142.319 Y-5.209
X-142.131 Y-5.124
X-141.926 Y-5.095
X-140.226
G2 X-140.171 Y-5.102 Z-3.063 I-0.011 J-0.317 F1524
X-139.92 Y-5.42 Z-2.182 I-0.066 J-0.311 F5080
G1 Y-5.424 Z-2.175
X-141.588 Y-75.576
X-141.589 Y-75.595 Z-2.212
G2 X-141.84 Y-75.898 Z-3.063 I-0.317 J0.008
X-141.895 Y-75.905 Z-3.175 I-0.066 J0.311 F1524
G1 X-143.325 F5080
G2 X-144.89 Y-75.368 I0.096 J2.83
G1 X-145.249 Y-75.122
G2 X-147.177 Y-73.091 I6.455 J8.059
X-151.449 Y-66.109 I36.99 J27.427
X-144.142 Y-5.34 I49.168 J24.912
G1 X-143.986 Y-5.207
X-143.799 Y-5.124
X-143.596 Y-5.095
X-141.926
G2 X-141.871 Y-5.102 Z-3.063 I-0.011 J-0.317 F1524
X-141.62 Y-5.419 Z-2.184 I-0.066 J-0.311 F5080
G1 Y-5.424 Z-2.175
X-143.019 Y-75.576
Y-75.594 Z-2.209
G2 X-143.27 Y-75.898 Z-3.063 I-0.317 J0.006
X-143.325 Y-75.905 Z-3.175 I-0.066 J0.311 F1524
G1 X-144.942 F5080
G2 X-146.465 Y-75.351 I0.18 J2.868
G1 X-146.812 Y-75.11
G2 X-148.717 Y-73.07 I6.371 J7.856
X-152.561 Y-66.698 I36.16 J26.165
X-145.808 Y-5.369 I50.279 J25.5
G1 X-145.65 Y-5.221
X-145.454 Y-5.127
X-145.238 Y-5.095
X-143.596
G2 X-143.54 Y-5.102 Z-3.063 I-0.011 J-0.317 F1524
X-143.289 Y-5.419 Z-2.185 I-0.066 J-0.311 F5080
G1 Y-5.424 Z-2.175
X-144.635 Y-75.576
Y-75.593 Z-2.209
G2 X-144.886 Y-75.898 Z-3.063 I-0.317 J0.006
X-144.942 Y-75.905 Z-3.175 I-0.066 J0.311 F1524
G1 X-146.465 F5080
G2 X-147.96 Y-75.379 I0.146 J2.803
G1 X-148.298 Y-75.147
G2 X-150.159 Y-73.162 I5.937 J7.429
X-153.606 Y-67.419 I34.137 J24.396
X-147.427 Y-5.372 I51.321 J26.221
G1 X-147.267 Y-5.222
X-147.069 Y-5.128
X-146.852 Y-5.095
X-145.238
G2 X-145.183 Y-5.102 Z-3.063 I-0.011 J-0.317 F1524
X-144.932 Y-5.418 Z-2.186 I-0.066 J-0.311 F5080
G1 Y-5.424 Z-2.175
X-146.158 Y-75.576
Y-75.593 Z-2.208
G2 X-146.41 Y-75.898 Z-3.063 I-0.317 J0.006
X-146.465 Y-75.905 Z-3.175 I-0.066 J0.311 F1524
G1 X-148.064 F5080
G2 X-149.287 Y-75.505 I0.161 J2.561
G1 X-149.601 Y-75.31
X-149.954 Y-75.043
G2 X-151.803 Y-72.955 I6.584 J7.689
X-155.471 Y-66.48 I37.158 J25.328
X-149.036 Y-5.389 I53.18 J25.282
G1 X-148.875 Y-5.23
X-148.673 Y-5.13
X-148.449 Y-5.095
X-146.852
G2 X-146.797 Y-5.102 Z-3.063 I-0.011 J-0.317 F1524
X-146.546 Y-5.418 Z-2.186 I-0.066 J-0.311 F5080
G1 Y-5.424 Z-2.175
X-147.757 Y-75.576
X-147.758 Y-75.593 Z-2.208
G2 X-148.009 Y-75.898 Z-3.063 I-0.317 J0.005
X-148.064 Y-75.905 Z-3.175 I-0.066 J0.311 F1524
G1 X-149.511 F5080
G2 X-150.963 Y-75.4 I0.127 J2.708
G1 X-151.298 Y-75.171
X-151.673 Y-74.859
G2 X-153.491 Y-72.648 I7.754 J8.229
X-157.338 Y-65.423 I40.64 J26.276
X-150.62 Y-5.401 I55.042 J24.226
G1 X-150.459 Y-5.236
X-150.254 Y-5.131
X-150.025 Y-5.095
X-148.449
G2 X-148.394 Y-5.102 Z-3.063 I-0.011 J-0.317 F1524
X-148.143 Y-5.418 Z-2.187 I-0.066 J-0.311 F5080
G1 Y-5.424 Z-2.175
X-149.205 Y-75.576
Y-75.592 Z-2.206
G2 X-149.456 Y-75.898 Z-3.063 I-0.317 J0.005
X-149.511 Y-75.905 Z-3.175 I-0.066 J0.311 F1524
G1 X-151.034 F5080
G2 X-152.469 Y-75.394 I0.147 J2.685
G1 X-152.784 Y-75.177
G2 X-154.54 Y-73.262 I5.463 J6.772
X-157.489 Y-68.09 I31.196 J21.214
X-152.18 Y-5.405 I55.184 J26.893
G1 X-152.017 Y-5.238
X-151.81 Y-5.132
X-151.58 Y-5.095
X-150.025
G2 X-149.97 Y-5.102 Z-3.063 I-0.011 J-0.317 F1524
X-149.719 Y-5.417 Z-2.188 I-0.066 J-0.311 F5080
G1 Y-5.424 Z-2.175
X-150.728 Y-75.576
Y-75.592 Z-2.206
G2 X-150.979 Y-75.898 Z-3.063 I-0.317 J0.005
X-151.034 Y-75.905 Z-3.175 I-0.066 J0.311 F1524
G1 X-152.464 F5080
G2 X-153.944 Y-75.399 I0.08 J2.651
G1 X-154.25 Y-75.188
X-154.614 Y-74.884
G2 X-156.394 Y-72.679 I7.251 J7.671
X-159.805 Y-66.064 I39.689 J24.66
X-153.716 Y-5.399 I57.5 J24.867
G1 X-153.55 Y-5.237
X-153.343 Y-5.132
X-153.115 Y-5.095
X-151.58
G2 X-151.525 Y-5.102 Z-3.063 I-0.011 J-0.317 F1524
X-151.274 Y-5.417 Z-2.189 I-0.066 J-0.311 F5080
G1 Y-5.424 Z-2.175
X-152.158 Y-75.576
Y-75.591 Z-2.205
G2 X-152.409 Y-75.898 Z-3.063 I-0.317 J0.004
X-152.464 Y-75.905 Z-3.175 I-0.066 J0.311 F1524
G1 X-153.988 F5080
G2 X-155.406 Y-75.408 I0.123 J2.623
G1 X-155.708 Y-75.2
X-156.062 Y-74.903
G2 X-157.822 Y-72.707 I6.991 J7.406
X-160.882 Y-66.747 I38.137 J23.345
X-155.238 Y-5.391 I58.575 J25.549
G1 X-155.07 Y-5.234
X-154.865 Y-5.131
X-154.639 Y-5.095
X-153.115
G2 X-153.059 Y-5.102 Z-3.063 I-0.011 J-0.317 F1524
X-152.808 Y-5.417 Z-2.189 I-0.066 J-0.311 F5080
G1 Y-5.424 Z-2.175
X-153.681 Y-75.576
Y-75.591 Z-2.205
G2 X-153.933 Y-75.898 Z-3.063 I-0.317 J0.004
X-153.988 Y-75.905 Z-3.175 I-0.066 J0.311 F1524
G1 X-155.511 F5080
G2 X-156.945 Y-75.359 I0.187 J2.649
G1 X-157.267 Y-75.125
X-157.62 Y-74.814
G2 X-159.351 Y-72.558 I7.585 J7.612
X-162.619 Y-65.871 I41.043 J24.203
X-156.742 Y-5.378 I60.304 J24.674
G1 X-156.577 Y-5.227
X-156.377 Y-5.129
X-156.156 Y-5.095
X-154.639
G2 X-154.584 Y-5.102 Z-3.063 I-0.011 J-0.317 F1524
X-154.332 Y-5.417 Z-2.189 I-0.066 J-0.311 F5080
G1 X-154.333 Y-5.424 Z-2.175
X-155.204 Y-75.576
Y-75.591 Z-2.205
G2 X-155.456 Y-75.898 Z-3.063 I-0.317 J0.004
X-155.511 Y-75.905 Z-3.175 I-0.066 J0.311 F1524
G1 X-156.958 F5080
G2 X-158.365 Y-75.381 I0.163 J2.59
G1 X-158.656 Y-75.174
X-159.01 Y-74.868
G2 X-160.721 Y-72.652 I7.057 J7.217
X-163.667 Y-66.635 I38.724 J22.687
X-158.248 Y-5.384 I61.347 J25.438
G1 X-158.081 Y-5.23
X-157.879 Y-5.13
X-157.656 Y-5.095
X-156.156
G2 X-156.101 Y-5.102 Z-3.063 I-0.011 J-0.317 F1524
X-155.85 Y-5.416 Z-2.189 I-0.066 J-0.311 F5080
G1 Y-5.424 Z-2.175
X-156.651 Y-75.576
X-156.652 Y-75.591 Z-2.204
G2 X-156.903 Y-75.898 Z-3.063 I-0.317 J0.004
X-156.958 Y-75.905 Z-3.175 I-0.066 J0.311 F1524
G1 X-158.388 F5080
G2 X-159.769 Y-75.407 I0.137 J2.546
G1 X-160.056 Y-75.206
X-160.396 Y-74.917
G2 X-162.078 Y-72.757 I6.633 J6.899
X-164.706 Y-67.414 I35.735 J20.897
X-159.74 Y-5.388 I62.377 J26.217
G1 X-159.571 Y-5.232
X-159.368 Y-5.13
X-159.143 Y-5.095
X-157.656
G2 X-157.601 Y-5.102 Z-3.063 I-0.011 J-0.317 F1524
X-157.349 Y-5.416 Z-2.19 I-0.066 J-0.311 F5080
G1 X-157.35 Y-5.424 Z-2.175
X-158.081 Y-75.576
X-158.082 Y-75.591 Z-2.203
G2 X-158.333 Y-75.898 Z-3.063 I-0.317 J0.003
X-158.388 Y-75.905 Z-3.175 I-0.066 J0.311 F1524
G1 X-159.835 F5080
G2 X-161.204 Y-75.407 I0.145 J2.53
G1 X-161.501 Y-75.196
X-161.829 Y-74.915
G2 X-163.5 Y-72.745 I6.607 J6.816
X-166.084 Y-67.38 I35.787 J20.542
X-161.244 Y-5.43 I63.746 J26.184
X-160.615 Y-5.095 I0.643 J-0.449
G1 X-159.143
G2 X-159.087 Y-5.102 Z-3.063 I-0.011 J-0.317 F1524
X-158.836 Y-5.416 Z-2.19 I-0.066 J-0.311 F5080
G1 Y-5.424 Z-2.175
X-159.529 Y-75.576
Y-75.59 Z-2.203
G2 X-159.78 Y-75.898 Z-3.063 I-0.317 J0.003
X-159.835 Y-75.905 Z-3.175 I-0.066 J0.311 F1524
G1 X-161.265 F5080
G2 X-162.627 Y-75.409 I0.142 J2.51
G1 X-162.92 Y-75.201
X-163.245 Y-74.922
G2 X-164.888 Y-72.777 I6.45 J6.646
X-167.437 Y-67.395 I35.289 J20.007
X-162.868 Y-5.692 I65.089 J26.201
G1 X-162.701 Y-5.431
G2 X-162.081 Y-5.095 I0.62 J-0.406
G1 X-160.615
G2 X-160.56 Y-5.102 Z-3.063 I-0.011 J-0.317 F1524
X-160.309 Y-5.416 Z-2.191 I-0.066 J-0.311 F5080
G1 Y-5.424 Z-2.175
X-160.959 Y-75.576
Y-75.59 Z-2.203
G2 X-161.21 Y-75.898 Z-3.063 I-0.317 J0.003
X-161.265 Y-75.905 Z-3.175 I-0.066 J0.311 F1524
G1 X-162.619 F5080
G2 X-164.003 Y-75.436 I0.066 J2.473
G1 X-164.285 Y-75.24
X-164.602 Y-74.974
G2 X-166.212 Y-72.907 I6.05 J6.371
X-168.465 Y-68.209 I31.368 J17.935
X-164.344 Y-5.727 I66.098 J27.017
G1 X-164.163 Y-5.436
G2 X-163.539 Y-5.095 I0.624 J-0.4
G1 X-162.081
G2 X-162.026 Y-5.102 Z-3.063 I-0.011 J-0.317 F1524
X-161.774 Y-5.415 Z-2.192 I-0.066 J-0.311 F5080
G1 Y-5.424 Z-2.175
X-162.313 Y-75.576
Y-75.59 Z-2.202
G2 X-162.564 Y-75.898 Z-3.063 I-0.317 J0.002
X-162.619 Y-75.905 Z-3.175 I-0.066 J0.311 F1524
G1 X-164.142 F5080
G2 X-165.521 Y-75.366 I0.185 J2.506
G1 X-165.826 Y-75.138
X-166.146 Y-74.849
G2 X-167.766 Y-72.63 I6.855 J6.708
X-170.219 Y-67.204 I36.424 J19.733
X-165.675 Y-5.519 I67.852 J26.011
X-165.165 Y-5.117 I0.735 J-0.408
G1 X-164.988 Y-5.095
X-163.539
G2 X-163.484 Y-5.102 Z-3.063 I-0.011 J-0.317 F1524
X-163.233 Y-5.416 Z-2.191 I-0.066 J-0.311 F5080
G1 Y-5.424 Z-2.175
X-163.836 Y-75.576
Y-75.59 Z-2.202
G2 X-164.087 Y-75.898 Z-3.063 I-0.317 J0.003
X-164.142 Y-75.905 Z-3.175 I-0.066 J0.311 F1524
G1 X-165.496 F5080
G2 X-166.828 Y-75.431 I0.115 J2.434
G1 X-167.09 Y-75.249
X-167.413 Y-74.976
G2 X-168.982 Y-72.933 I5.971 J6.21
X-171.178 Y-68.209 I30.582 J17.094
X-167.165 Y-5.606 I68.783 J27.021
G1 X-167.049 Y-5.428
G2 X-166.431 Y-5.095 I0.618 J-0.408
G1 X-164.988
G2 X-164.933 Y-5.102 Z-3.063 I-0.011 J-0.317 F1524
X-164.681 Y-5.415 Z-2.192 I-0.066 J-0.311 F5080
G1 Y-5.424 Z-2.175
X-165.19 Y-75.576
Y-75.589 Z-2.201
G2 X-165.441 Y-75.898 Z-3.063 I-0.317 J0.002
X-165.496 Y-75.905 Z-3.175 I-0.066 J0.311 F1524
G1 X-166.85 F5080
G2 X-168.189 Y-75.455 I0.063 J2.404
X-169.5 Y-74.223 I2.979 J4.483
X-171.033 Y-71.674 I10.697 J8.173
X-173.999 Y-64.042 I51.206 J24.289
X-168.603 Y-5.61 I71.624 J22.851
G1 X-168.485 Y-5.432
G2 X-167.864 Y-5.095 I0.621 J-0.404
G1 X-166.431
G2 X-166.375 Y-5.102 Z-3.063 I-0.011 J-0.317 F1524
X-166.124 Y-5.415 Z-2.193 I-0.066 J-0.311 F5080
G1 Y-5.424 Z-2.175
X-166.544 Y-75.576
Y-75.589 Z-2.201
G2 X-166.795 Y-75.898 Z-3.063 I-0.317 J0.002
X-166.85 Y-75.905 Z-3.175 I-0.066 J0.311 F1524
G1 X-168.297 F5080
G2 X-169.602 Y-75.442 I0.117 J2.402
G1 X-169.892 Y-75.238
X-170.178 Y-74.995
G2 X-171.742 Y-72.946 I5.819 J6.062
X-173.883 Y-68.196 I30.096 J16.423
X-174.42 Y-15.652 I71.404 J27.005
X-170.012 Y-5.579 I70.488 J-24.844
G1 X-169.909 Y-5.431
G2 X-169.288 Y-5.096 I0.62 J-0.405
G1 X-167.864 Y-5.095
G2 X-167.809 Y-5.102 Z-3.063 I-0.011 J-0.317 F1524
X-167.558 Y-5.415 Z-2.193 I-0.066 J-0.311 F5080
G1 Y-5.424 Z-2.175
X-167.991 Y-75.576
Y-75.589 Z-2.201
G2 X-168.242 Y-75.898 Z-3.063 I-0.318 J0.002
X-168.297 Y-75.905 Z-3.175 I-0.066 J0.311 F1524
G1 X-169.727 F5080
G2 X-171.063 Y-75.394 I0.162 J2.426
G1 X-171.357 Y-75.177
X-171.654 Y-74.912
G2 X-173.209 Y-72.784 I6.255 J6.202
X-175.299 Y-68.011 I31.562 J16.663
X-171.574 Y-5.85 I72.871 J26.825
G1 X-171.357 Y-5.474
G2 X-170.707 Y-5.095 I0.657 J-0.379
G1 X-169.288
G2 X-169.233 Y-5.102 Z-3.063 I-0.011 J-0.317 F1524
X-168.982 Y-5.415 Z-2.193 I-0.066 J-0.311 F5080
G1 Y-5.424 Z-2.175
X-169.421 Y-75.576
Y-75.589 Z-2.201
G2 X-169.672 Y-75.898 Z-3.063 I-0.318 J0.002
X-169.727 Y-75.905 Z-3.175 I-0.066 J0.311 F1524
G1 X-171.081 F5080
G2 X-172.387 Y-75.434 I0.12 J2.382
X-173.674 Y-74.19 I3.036 J4.427
X-175.166 Y-71.617 I10.624 J7.882
X-177.775 Y-64.645 I50.384 J22.831
X-173.036 Y-5.945 I75.382 J23.455
G1 X-172.809 Y-5.532
G2 X-172.302 Y-5.118 I0.718 J-0.361
G1 X-172.121 Y-5.095
X-170.707
G2 X-170.652 Y-5.102 Z-3.063 I-0.011 J-0.317 F1524
X-170.4 Y-5.415 Z-2.193 I-0.066 J-0.311 F5080
G1 Y-5.424 Z-2.175
X-170.775 Y-75.576
Y-75.589 Z-2.2
G2 X-171.026 Y-75.898 Z-3.063 I-0.318 J0.002
X-171.081 Y-75.905 Z-3.175 I-0.066 J0.311 F1524
G1 X-172.435 F5080
G2 X-173.72 Y-75.463 I0.089 J2.351
X-174.968 Y-74.29 I2.84 J4.273
X-176.47 Y-71.738 I9.818 J7.493
X-179.059 Y-64.758 I49.254 J22.246
X-174.47 Y-6.001 I76.644 J23.571
G1 X-174.238 Y-5.567
G2 X-173.712 Y-5.118 I0.75 J-0.346
G1 X-173.529 Y-5.095
X-172.121
G2 X-172.066 Y-5.102 Z-3.063 I-0.011 J-0.317 F1524
X-171.815 Y-5.414 Z-2.194 I-0.066 J-0.311 F5080
G1 Y-5.424 Z-2.175
X-172.129 Y-75.576
Y-75.589 Z-2.2
G2 X-172.38 Y-75.898 Z-3.063 I-0.317 J0.001
X-172.435 Y-75.905 Z-3.175 I-0.066 J0.311 F1524
G1 X-173.789 F5080
G2 X-175.086 Y-75.468 I0.067 J2.343
X-176.318 Y-74.314 I2.784 J4.207
X-177.806 Y-71.784 I9.526 J7.304
X-180.367 Y-64.794 I48.843 J21.858
X-175.863 Y-5.988 I77.928 J23.608
G1 X-175.638 Y-5.565
G2 X-175.114 Y-5.118 I0.747 J-0.345
G1 X-174.931 Y-5.095
X-173.529
G2 X-173.474 Y-5.102 Z-3.063 I-0.011 J-0.317 F1524
X-173.223 Y-5.414 Z-2.194 I-0.066 J-0.311 F5080
G1 Y-5.424 Z-2.175
X-173.483 Y-75.576
Y-75.588 Z-2.199
G2 X-173.734 Y-75.898 Z-3.063 I-0.317 J0.001
X-173.789 Y-75.905 Z-3.175 I-0.066 J0.311 F1524
G1 X-175.236 F5080
G2 X-176.547 Y-75.408 I0.149 J2.372
X-177.815 Y-74.144 I3.084 J4.36
X-179.268 Y-71.549 I10.589 J7.633
X-181.761 Y-64.534 I51.157 J22.138
X-177.136 Y-5.725 I79.326 J23.347
G1 X-176.949 Y-5.424
G2 X-176.334 Y-5.095 I0.616 J-0.413
G1 X-174.931
G2 X-174.876 Y-5.102 Z-3.063 I-0.011 J-0.317 F1524
X-174.625 Y-5.414 Z-2.194 I-0.066 J-0.311 F5080
G1 Y-5.424 Z-2.175
X-174.93 Y-75.576
Y-75.589 Z-2.199
G2 X-175.181 Y-75.898 Z-3.063 I-0.318 J0.001
X-175.236 Y-75.905 Z-3.175 I-0.066 J0.311 F1524
G1 X-176.59 F5080
G2 X-177.88 Y-75.43 I0.129 J2.34
X-179.132 Y-74.204 I2.969 J4.282
X-180.589 Y-71.612 I10.123 J7.398
X-183.059 Y-64.589 I50.515 J21.71
X-178.535 Y-5.739 I80.598 J23.404
G1 X-178.345 Y-5.427
G2 X-177.727 Y-5.095 I0.618 J-0.41
G1 X-176.334
G2 X-176.278 Y-5.102 Z-3.063 I-0.011 J-0.317 F1524
X-176.027 Y-5.414 Z-2.194 I-0.066 J-0.311 F5080
G1 Y-5.424 Z-2.175
X-176.284 Y-75.576
Y-75.588 Z-2.199
G2 X-176.535 Y-75.898 Z-3.063 I-0.318 J0.001
X-176.59 Y-75.905 Z-3.175 I-0.066 J0.311 F1524
G1 X-177.944 F5080
G2 X-179.223 Y-75.443 I0.117 J2.326
X-180.451 Y-74.255 I2.865 J4.189
X-181.901 Y-71.691 I9.727 J7.195
X-184.143 Y-65.376 I47.419 J20.388
X-179.933 Y-5.757 I81.667 J24.191
G1 X-179.742 Y-5.441
G2 X-179.115 Y-5.095 I0.629 J-0.398
G1 X-177.727
G2 X-177.672 Y-5.102 Z-3.063 I-0.011 J-0.317 F1524
X-177.421 Y-5.414 Z-2.195 I-0.066 J-0.311 F5080
G1 Y-5.424 Z-2.175
X-177.638 Y-75.576
Y-75.588 Z-2.199
G2 X-177.889 Y-75.898 Z-3.063 I-0.318 J0.001
X-177.944 Y-75.905 Z-3.175 I-0.066 J0.311 F1524
G1 X-179.298 F5080
G2 X-180.566 Y-75.453 I0.108 J2.312
X-181.776 Y-74.292 I2.802 J4.13
X-183.219 Y-71.752 I9.405 J7.022
X-185.441 Y-65.431 I46.674 J19.96
X-181.323 Y-5.771 I82.937 J24.248
G1 X-181.133 Y-5.453
G2 X-180.498 Y-5.095 I0.637 J-0.388
G1 X-179.115
G2 X-179.06 Y-5.102 Z-3.063 I-0.011 J-0.317 F1524
X-178.808 Y-5.414 Z-2.195 I-0.066 J-0.311 F5080
G1 Y-5.424 Z-2.175
X-178.992 Y-75.576
Y-75.588 Z-2.198
G2 X-179.243 Y-75.898 Z-3.063 I-0.317 J0.001
X-179.298 Y-75.905 Z-3.175 I-0.066 J0.311 F1524
G1 X-180.652 F5080
G2 X-181.914 Y-75.457 I0.105 J2.302
X-183.112 Y-74.311 I2.778 J4.1
X-184.546 Y-71.787 I9.193 J6.891
X-186.746 Y-65.458 I46.195 J19.608
X-182.985 Y-6.413 I84.224 J24.277
G1 X-182.695 Y-5.778
X-182.516 Y-5.459
G2 X-181.877 Y-5.095 I0.641 J-0.384
G1 X-180.498
G2 X-180.443 Y-5.102 Z-3.063 I-0.011 J-0.317 F1524
X-180.192 Y-5.414 Z-2.195 I-0.066 J-0.311 F5080
G1 Y-5.424 Z-2.175
X-180.346 Y-75.576
Y-75.588 Z-2.198
G2 X-180.597 Y-75.898 Z-3.063 I-0.317 J0.001
X-180.652 Y-75.905 Z-3.175 I-0.066 J0.311 F1524
G1 X-182.006 F5080
G2 X-183.266 Y-75.457 I0.106 J2.296
X-184.457 Y-74.315 I2.771 J4.081
X-185.881 Y-71.798 I9.08 J6.798
X-188.057 Y-65.461 I45.961 J19.326
X-184.343 Y-6.38 I85.508 J24.282
G1 X-184.066 Y-5.772
X-183.891 Y-5.459
G2 X-183.252 Y-5.095 I0.641 J-0.384
G1 X-181.877
G2 X-181.822 Y-5.102 Z-3.063 I-0.011 J-0.317 F1524
X-181.571 Y-5.413 Z-2.196 I-0.066 J-0.311 F5080
G1 Y-5.424 Z-2.175
X-181.7 Y-75.576
Y-75.588 Z-2.198
G2 X-181.951 Y-75.898 Z-3.063 I-0.317 J0.001
X-182.006 Y-75.905 Z-3.175 I-0.066 J0.311 F1524
G1 X-183.36 F5080
G2 X-184.621 Y-75.453 I0.11 J2.292
X-185.808 Y-74.308 I2.781 J4.071
X-187.222 Y-71.791 I9.048 J6.737
X-189.372 Y-65.445 I45.926 J19.101
X-185.692 Y-6.331 I86.796 J24.268
G1 X-185.429 Y-5.758
X-185.259 Y-5.454
G2 X-184.623 Y-5.095 I0.637 J-0.387
G1 X-183.252
G2 X-183.197 Y-5.102 Z-3.063 I-0.011 J-0.317 F1524
X-182.946 Y-5.413 Z-2.196 I-0.066 J-0.311 F5080
G1 Y-5.424 Z-2.175
X-183.054 Y-75.576
Y-75.588 Z-2.198
G2 X-183.305 Y-75.898 Z-3.063 I-0.317 J0
X-183.36 Y-75.905 Z-3.175 I-0.066 J0.311 F1524
G1 X-184.714 F5080
G2 X-185.977 Y-75.446 I0.117 J2.291
X-187.163 Y-74.292 I2.806 J4.071
X-188.567 Y-71.768 I9.08 J6.7
X-190.69 Y-65.413 I46.072 J18.926
X-187.032 Y-6.267 I88.088 J24.238
G1 X-186.787 Y-5.74
X-186.622 Y-5.446
G2 X-185.992 Y-5.095 I0.631 J-0.393
G1 X-184.623
G2 X-184.568 Y-5.102 Z-3.063 I-0.011 J-0.317 F1524
X-184.317 Y-5.413 Z-2.196 I-0.066 J-0.311 F5080
G1 Y-5.424 Z-2.175
X-184.408 Y-75.576
Y-75.588 Z-2.198
G2 X-184.659 Y-75.898 Z-3.063 I-0.318 J0
X-184.714 Y-75.905 Z-3.175 I-0.066 J0.311 F1524
G1 X-186.068 F5080
G2 X-187.335 Y-75.436 I0.127 J2.291
X-188.523 Y-74.267 I2.843 J4.077
X-189.916 Y-71.731 I9.171 J6.685
X-192.01 Y-65.366 I46.383 J18.794
X-188.364 Y-6.191 I89.382 J24.193
G1 X-188.139 Y-5.716
X-187.98 Y-5.433
G2 X-187.358 Y-5.095 I0.622 J-0.404
G1 X-185.992
G2 X-185.937 Y-5.102 Z-3.063 I-0.011 J-0.317 F1524
X-185.686 Y-5.413 Z-2.196 I-0.066 J-0.311 F5080
G1 Y-5.424 Z-2.175
X-185.762 Y-75.576
Y-75.588 Z-2.197
G2 X-186.013 Y-75.898 Z-3.063 I-0.318 J0
X-186.068 Y-75.905 Z-3.175 I-0.066 J0.311 F1524
G1 X-187.422 F5080
G2 X-188.695 Y-75.423 I0.139 J2.292
X-189.888 Y-74.231 I2.896 J4.092
X-191.269 Y-71.678 I9.326 J6.692
X-193.334 Y-65.304 I46.875 J18.709
X-189.689 Y-6.101 I90.678 J24.131
G1 X-189.481 Y-5.677
X-189.361 Y-5.468
G2 X-188.718 Y-5.095 I0.643 J-0.369
G1 X-187.358
G2 X-187.303 Y-5.102 Z-3.063 I-0.011 J-0.317 F1524
X-187.052 Y-5.413 Z-2.196 I-0.066 J-0.311 F5080
G1 Y-5.424 Z-2.175
X-187.116 Y-75.576
Y-75.587 Z-2.197
G2 X-187.367 Y-75.898 Z-3.063 I-0.318 J0
X-187.422 Y-75.905 Z-3.175 I-0.066 J0.311 F1524
G1 X-188.683 F5080
G2 X-190.213 Y-75.285 I0.097 J2.44
G1 X-190.471 Y-75.076
X-190.782 Y-74.767
G2 X-192.19 Y-72.594 I6.436 J5.714
X-193.968 Y-67.697 I30.733 J13.928
X-197.505 Y-47.934 I88.667 J26.068
X-191.13 Y-6.304 I94.716 J6.797
G1 X-190.884 Y-5.761
X-190.728 Y-5.475
G2 X-190.079 Y-5.095 I0.653 J-0.371
G1 X-188.718
G2 X-188.663 Y-5.102 Z-3.063 I-0.011 J-0.317 F1524
X-188.412 Y-5.413 Z-2.197 I-0.066 J-0.311 F5080
G1 Y-5.424 Z-2.175
X-188.376 Y-75.576
Y-75.587 Z-2.196
G2 X-188.628 Y-75.898 Z-3.063 I-0.317 J0
X-188.683 Y-75.905 Z-3.175 I-0.066 J0.311 F1524
G1 X-190.037 F5080
G2 X-191.522 Y-75.307 I0.109 J2.414
X-192.774 Y-73.922 I3.403 J4.336
X-194.092 Y-71.256 I11.28 J7.236
X-196.241 Y-64.127 I54.011 J20.165
X-192.483 Y-6.301 I93.56 J22.957
G1 X-192.248 Y-5.778
X-192.084 Y-5.476
G2 X-191.435 Y-5.095 I0.653 J-0.369
G1 X-190.079
G2 X-190.024 Y-5.102 Z-3.063 I-0.011 J-0.317 F1524
X-189.772 Y-5.413 Z-2.197 I-0.066 J-0.311 F5080
G1 Y-5.424 Z-2.175
X-189.73 Y-75.576
Y-75.587 Z-2.196
G2 X-189.982 Y-75.898 Z-3.063 I-0.317 J0
X-190.037 Y-75.905 Z-3.175 I-0.066 J0.311 F1524
G1 X-191.391 F5080
G2 X-192.64 Y-75.464 I0.093 J2.257
X-193.774 Y-74.38 I2.654 J3.911
X-195.153 Y-71.907 I8.323 J6.262
X-196.999 Y-66.245 I40.978 J16.491
X-195.074 Y-9.732 I94.208 J25.08
X-193.594 Y-5.75 I47.72 J-15.468
G1 X-193.431 Y-5.464
G2 X-192.789 Y-5.095 I0.644 J-0.378
G1 X-191.435
G2 X-191.38 Y-5.102 Z-3.063 I-0.011 J-0.317 F1524
X-191.128 Y-5.413 Z-2.197 I-0.066 J-0.311 F5080
G1 Y-5.424 Z-2.175
X-191.084 Y-75.576
Y-75.587 Z-2.196
G2 X-191.336 Y-75.898 Z-3.063 I-0.317 J0
X-191.391 Y-75.905 Z-3.175 I-0.066 J0.311 F1524
G1 X-192.745 F5080
G2 X-194.002 Y-75.444 I0.116 J2.263
X-195.146 Y-74.325 I2.737 J3.941
X-196.512 Y-71.822 I8.585 J6.311
X-198.329 Y-66.15 I41.844 J16.531
X-195.376 Y-6.808 I95.547 J24.988
G1 X-195.102 Y-6.115
X-194.909 Y-5.693
X-194.757 Y-5.423
G2 X-194.142 Y-5.095 I0.615 J-0.413
G1 X-192.789
G2 X-192.734 Y-5.102 Z-3.063 I-0.011 J-0.317 F1524
X-192.482 Y-5.413 Z-2.197 I-0.066 J-0.311 F5080
G1 Y-5.424 Z-2.175
X-192.438 Y-75.576
Y-75.587 Z-2.196
G2 X-192.69 Y-75.898 Z-3.063 I-0.318 J0
X-192.745 Y-75.905 Z-3.175 I-0.066 J0.311 F1524
G1 X-194.099 F5080
G2 X-195.364 Y-75.423 I0.139 J2.268
X-196.524 Y-74.259 I2.842 J3.992
X-197.874 Y-71.724 I8.911 J6.374
X-199.661 Y-66.043 I42.849 J16.598
X-196.674 Y-6.68 I96.859 J24.883
G1 X-196.397 Y-5.988
X-196.22 Y-5.619
X-196.129 Y-5.463
G2 X-195.489 Y-5.095 I0.64 J-0.373
G1 X-194.142
G2 X-194.087 Y-5.102 Z-3.063 I-0.011 J-0.317 F1524
X-193.836 Y-5.413 Z-2.197 I-0.066 J-0.311 F5080
G1 Y-5.424 Z-2.175
X-193.792 Y-75.576
Y-75.587 Z-2.196
G2 X-194.044 Y-75.898 Z-3.063 I-0.318 J0
X-194.099 Y-75.905 Z-3.175 I-0.066 J0.311 F1524
G1 X-195.453 F5080
G2 X-196.734 Y-75.397 I0.186 J2.342
X-197.913 Y-74.174 I3.076 J4.144
X-199.245 Y-71.597 I9.367 J6.477
X-200.999 Y-65.905 I44.231 J16.745
X-197.961 Y-6.522 I98.182 J24.746
G1 X-197.703 Y-5.899
X-197.532 Y-5.559
G2 X-197.021 Y-5.12 I0.728 J-0.329
G1 X-196.834 Y-5.095
X-195.489
G2 X-195.434 Y-5.102 Z-3.063 I-0.011 J-0.317 F1524
X-195.182 Y-5.413 Z-2.197 I-0.066 J-0.311 F5080
G1 Y-5.424 Z-2.175
X-195.146 Y-75.576
Y-75.587 Z-2.196
G2 X-195.397 Y-75.898 Z-3.063 I-0.318 J0
X-195.453 Y-75.905 Z-3.175 I-0.066 J0.311 F1524
G1 X-196.73 F5080
G2 X-197.974 Y-75.453 I0.107 J2.233
X-199.106 Y-74.351 I2.665 J3.868
X-200.467 Y-71.839 I8.455 J6.206
X-202.237 Y-66.152 I41.12 J15.92
X-205.052 Y-33.632 I98.899 J24.943
X-199.384 Y-6.739 I102.255 J-7.506
G1 X-199.112 Y-6.045
X-198.927 Y-5.651
X-198.823 Y-5.469
G2 X-198.18 Y-5.096 I0.643 J-0.367
G1 X-196.834 Y-5.095
G2 X-196.779 Y-5.102 Z-3.063 I-0.011 J-0.317 F1524
X-196.527 Y-5.412 Z-2.198 I-0.066 J-0.311 F5080
G1 Y-5.424 Z-2.175
X-196.424 Y-75.576
Y-75.587 Z-2.196
G2 X-196.675 Y-75.898 Z-3.063 I-0.318 J0
X-196.73 Y-75.905 Z-3.175 I-0.066 J0.311 F1524
G1 X-198.084 F5080
G2 X-199.345 Y-75.422 I0.14 J2.252
X-200.491 Y-74.266 I2.827 J3.949
X-201.825 Y-71.736 I8.766 J6.241
X-203.566 Y-66.04 I42.22 J16.019
X-206.048 Y-30.542 I100.334 J24.85
X-200.677 Y-6.608 I103.154 J-10.578
G1 X-200.409 Y-5.944
X-200.234 Y-5.588
G2 X-199.71 Y-5.12 I0.752 J-0.316
G1 X-199.521 Y-5.095
X-198.18
G2 X-198.125 Y-5.102 Z-3.063 I-0.011 J-0.317 F1524
X-197.873 Y-5.412 Z-2.198 I-0.066 J-0.311 F5080
G1 Y-5.424 Z-2.175
X-197.778 Y-75.576
Y-75.587 Z-2.196
G2 X-198.029 Y-75.898 Z-3.063 I-0.318 J0
X-198.084 Y-75.905 Z-3.175 I-0.066 J0.311 F1524
G1 X-199.345 F5080
G2 X-200.824 Y-75.299 I0.115 J2.391
X-202.021 Y-73.966 I3.278 J4.146
X-203.312 Y-71.288 I10.558 J6.741
X-205.154 Y-64.845 I50.204 J17.834
X-202.092 Y-6.833 I102.308 J23.687
G1 X-201.83 Y-6.136
X-201.64 Y-5.711
X-201.495 Y-5.447
G2 X-200.865 Y-5.095 I0.631 J-0.391
G1 X-199.521
G2 X-199.465 Y-5.102 Z-3.063 I-0.011 J-0.317 F1524
X-199.214 Y-5.412 Z-2.198 I-0.066 J-0.311 F5080
G1 Y-5.424 Z-2.175
X-199.039 Y-75.576
Y-75.586 Z-2.195
G2 X-199.29 Y-75.898 Z-3.063 I-0.318 J-0.001
X-199.345 Y-75.905 Z-3.175 I-0.066 J0.311 F1524
G1 X-200.699 F5080
G2 X-201.939 Y-75.454 I0.107 J2.226
X-203.056 Y-74.364 I2.663 J3.847
X-204.399 Y-71.877 I8.176 J6.021
X-206.13 Y-66.179 I40.217 J15.331
X-209.114 Y-40.341 I101.84 J24.854
X-203.383 Y-6.702 I106.03 J-0.757
G1 X-203.114 Y-6.007
X-202.942 Y-5.639
X-202.846 Y-5.47
G2 X-202.202 Y-5.096 I0.644 J-0.366
G1 X-200.865 Y-5.095
G2 X-200.81 Y-5.102 Z-3.063 I-0.011 J-0.317 F1524
X-200.558 Y-5.412 Z-2.198 I-0.066 J-0.311 F5080
G1 Y-5.424 Z-2.175
X-200.393 Y-75.576
Y-75.586 Z-2.195
G2 X-200.644 Y-75.898 Z-3.063 I-0.318 J-0.001
X-200.699 Y-75.905 Z-3.175 I-0.066 J0.311 F1524
G1 X-202.053 F5080
G2 X-203.317 Y-75.414 I0.146 J2.248
X-204.452 Y-74.261 I2.822 J3.912
X-205.775 Y-71.72 I8.694 J6.142
X-207.47 Y-66.011 I41.981 J15.572
X-210.308 Y-37.183 I103.579 J24.752
X-204.655 Y-6.518 I107.116 J-3.896
G1 X-204.413 Y-5.926
X-204.247 Y-5.584
G2 X-203.725 Y-5.12 I0.747 J-0.315
G1 X-203.535 Y-5.095
X-202.202
G2 X-202.147 Y-5.102 Z-3.063 I-0.011 J-0.317 F1524
X-201.895 Y-5.412 Z-2.198 I-0.066 J-0.311 F5080
G1 Y-5.424 Z-2.175
X-201.747 Y-75.576
Y-75.587 Z-2.195
G2 X-201.998 Y-75.898 Z-3.063 I-0.318 J-0.001
X-202.053 Y-75.905 Z-3.175 I-0.066 J0.311 F1524
G1 X-203.331 F5080
G2 X-204.558 Y-75.466 I0.097 J2.208
X-205.663 Y-74.401 I2.586 J3.786
X-207.008 Y-71.917 I8.01 J5.945
X-208.541 Y-66.936 I36.473 J13.949
X-211.554 Y-45.579 I102.382 J25.337
X-206.048 Y-6.696 I108.412 J4.478
G1 X-205.78 Y-6.001
X-205.604 Y-5.628
X-205.513 Y-5.468
G2 X-204.87 Y-5.095 I0.643 J-0.368
G1 X-203.535
G2 X-203.48 Y-5.102 Z-3.063 I-0.011 J-0.317 F1524
X-203.229 Y-5.412 Z-2.199 I-0.066 J-0.311 F5080
G1 Y-5.424 Z-2.175
X-203.025 Y-75.576
Y-75.586 Z-2.195
G2 X-203.276 Y-75.898 Z-3.063 I-0.318 J-0.001
X-203.331 Y-75.905 Z-3.175 I-0.066 J0.311 F1524
G1 X-204.685 F5080
G2 X-205.939 Y-75.423 I0.139 J2.234
X-207.064 Y-74.286 I2.78 J3.876
X-208.383 Y-71.756 I8.51 J6.045
X-210.057 Y-66.04 I41.225 J15.174
X-212.908 Y-40.927 I105.333 J24.679
X-207.551 Y-7.217 I109.74 J-0.16
G1 X-207.306 Y-6.513
X-207.079 Y-5.928
X-206.913 Y-5.587
G2 X-206.391 Y-5.12 I0.749 J-0.313
G1 X-206.201 Y-5.095
X-204.87
G2 X-204.815 Y-5.102 Z-3.063 I-0.011 J-0.317 F1524
X-204.564 Y-5.412 Z-2.198 I-0.066 J-0.311 F5080
G1 Y-5.424 Z-2.175
X-204.379 Y-75.576
X-204.378 Y-75.586 Z-2.195
G2 X-204.63 Y-75.898 Z-3.063 I-0.317 J-0.001
X-204.685 Y-75.905 Z-3.175 I-0.066 J0.311 F1524
G1 X-205.946 F5080
G2 X-207.404 Y-75.305 I0.119 J2.367
X-208.58 Y-73.995 I3.221 J4.073
X-209.854 Y-71.323 I10.147 J6.475
X-211.622 Y-64.859 I49.107 J16.906
X-212.865 Y-24.133 I108.392 J23.693
X-208.729 Y-6.757 I108.906 J-16.748
G1 X-208.465 Y-6.059
X-208.289 Y-5.67
X-208.182 Y-5.477
G2 X-207.534 Y-5.095 I0.648 J-0.359
G1 X-206.201
G2 X-206.146 Y-5.102 Z-3.063 I-0.011 J-0.317 F1524
X-205.895 Y-5.412 Z-2.199 I-0.066 J-0.311 F5080
G1 Y-5.424 Z-2.175
X-205.639 Y-75.576
Y-75.586 Z-2.194
G2 X-205.891 Y-75.898 Z-3.063 I-0.318 J-0.001
X-205.946 Y-75.905 Z-3.175 I-0.066 J0.311 F1524
G1 X-207.3 F5080
G2 X-208.541 Y-75.441 I0.121 J2.215
X-209.653 Y-74.334 I2.697 J3.825
X-210.977 Y-71.818 I8.195 J5.919
X-212.463 Y-66.822 I37.26 J13.8
X-215.323 Y-46.19 I105.49 J25.135
X-210.211 Y-7.239 I112.161 J5.092
G1 X-209.971 Y-6.534
X-209.746 Y-5.946
X-209.582 Y-5.601
G2 X-209.053 Y-5.121 I0.76 J-0.306
G1 X-208.862 Y-5.095
X-207.534
G2 X-207.479 Y-5.102 Z-3.063 I-0.011 J-0.317 F1524
X-207.228 Y-5.412 Z-2.199 I-0.066 J-0.311 F5080
G1 Y-5.424 Z-2.175
X-206.993 Y-75.576
Y-75.586 Z-2.195
G2 X-207.245 Y-75.898 Z-3.063 I-0.318 J-0.001
X-207.3 Y-75.905 Z-3.175 I-0.066 J0.311 F1524
G1 X-208.578 F5080
G2 X-210.03 Y-75.305 I0.124 J2.361
X-211.207 Y-73.988 I3.236 J4.076
X-212.47 Y-71.314 I10.108 J6.411
X-214.209 Y-64.843 I48.925 J16.614
X-216.226 Y-30.761 I110.596 J23.647
X-211.367 Y-6.709 I112.582 J-10.227
G1 X-211.104 Y-6.019
X-210.932 Y-5.644
X-210.836 Y-5.474
G2 X-210.19 Y-5.096 I0.646 J-0.363
G1 X-208.862 Y-5.095
G2 X-208.807 Y-5.102 Z-3.063 I-0.011 J-0.317 F1524
X-208.555 Y-5.412 Z-2.199 I-0.066 J-0.311 F5080
G1 Y-5.424 Z-2.175
X-208.271 Y-75.576
Y-75.586 Z-2.194
G2 X-208.522 Y-75.898 Z-3.063 I-0.318 J-0.001
X-208.578 Y-75.905 Z-3.175 I-0.066 J0.311 F1524
G1 X-209.931 F5080
G2 X-211.175 Y-75.433 I0.129 J2.215
X-212.287 Y-74.316 I2.721 J3.823
X-213.602 Y-71.79 I8.24 J5.893
X-215.063 Y-66.788 I37.279 J13.606
X-217.821 Y-46.889 I107.271 J25.005
X-212.839 Y-7.173 I114.648 J5.789
G1 X-212.598 Y-6.468
X-212.386 Y-5.917
X-212.227 Y-5.587
G2 X-211.706 Y-5.121 I0.747 J-0.311
G1 X-211.515 Y-5.095
X-210.19
G2 X-210.135 Y-5.102 Z-3.063 I-0.011 J-0.317 F1524
X-209.884 Y-5.412 Z-2.199 I-0.066 J-0.311 F5080
G1 Y-5.424 Z-2.175
X-209.625 Y-75.576
Y-75.586 Z-2.194
G2 X-209.876 Y-75.898 Z-3.063 I-0.318 J-0.001
X-209.931 Y-75.905 Z-3.175 I-0.066 J0.311 F1524
G1 X-211.192 F5080
G2 X-212.641 Y-75.313 I0.114 J2.349
X-213.804 Y-74.021 I3.174 J4.026
X-215.063 Y-71.365 I9.838 J6.292
X-216.625 Y-65.617 I45.001 J15.318
X-219.192 Y-38.236 I111.931 J24.302
X-214.241 Y-7.434 I115.867 J-2.823
G1 X-214.01 Y-6.726
X-213.76 Y-6.032
X-213.588 Y-5.655
X-213.489 Y-5.477
G2 X-212.842 Y-5.096 I0.648 J-0.36
G1 X-211.515 Y-5.095
G2 X-211.46 Y-5.102 Z-3.063 I-0.011 J-0.317 F1524
X-211.208 Y-5.411 Z-2.2 I-0.066 J-0.311 F5080
G1 Y-5.424 Z-2.175
X-210.886 Y-75.576
Y-75.586 Z-2.194
G2 X-211.137 Y-75.898 Z-3.063 I-0.317 J-0.001
X-211.192 Y-75.905 Z-3.175 I-0.066 J0.311 F1524
G1 X-212.546 F5080
G2 X-213.784 Y-75.44 I0.122 J2.205
X-214.888 Y-74.337 I2.684 J3.792
X-216.201 Y-71.819 I8.084 J5.817
X-217.647 Y-66.812 I36.648 J13.295
X-220.27 Y-48.393 I108.358 J24.824
X-215.481 Y-7.167 I117.123 J7.286
G1 X-215.241 Y-6.461
X-215.033 Y-5.915
X-214.876 Y-5.589
G2 X-214.355 Y-5.121 I0.748 J-0.309
G1 X-214.164 Y-5.095
X-212.842
G2 X-212.786 Y-5.102 Z-3.063 I-0.011 J-0.317 F1524
X-212.535 Y-5.411 Z-2.199 I-0.066 J-0.311 F5080
G1 Y-5.424 Z-2.175
X-212.24 Y-75.576
Y-75.586 Z-2.194
G2 X-212.491 Y-75.898 Z-3.063 I-0.318 J-0.001
X-212.546 Y-75.905 Z-3.175 I-0.066 J0.311 F1524
G1 X-213.824 F5080
G2 X-215.275 Y-75.299 I0.131 J2.355
X-216.445 Y-73.978 I3.242 J4.052
X-217.69 Y-71.305 I10.012 J6.29
X-219.223 Y-65.549 I45.413 J15.175
X-221.735 Y-38.904 I114.158 J24.204
X-216.852 Y-7.34 I118.356 J-2.151
G1 X-216.62 Y-6.632
X-216.387 Y-5.996
X-216.221 Y-5.634
X-216.132 Y-5.474
G2 X-215.485 Y-5.095 I0.646 J-0.362
G1 X-214.164
G2 X-214.108 Y-5.102 Z-3.063 I-0.011 J-0.317 F1524
X-213.857 Y-5.411 Z-2.2 I-0.066 J-0.311 F5080
G1 Y-5.424 Z-2.175
X-213.518 Y-75.576
Y-75.586 Z-2.194
G2 X-213.769 Y-75.898 Z-3.063 I-0.318 J-0.002
X-213.824 Y-75.905 Z-3.175 I-0.066 J0.311 F1524
G1 X-215.178 F5080
G2 X-216.426 Y-75.424 I0.158 J2.271
X-217.533 Y-74.294 I2.844 J3.894
X-218.831 Y-71.756 I8.286 J5.837
X-220.25 Y-66.741 I37.084 J13.204
X-222.808 Y-48.313 I110.439 J24.719
X-218.09 Y-7.069 I119.628 J7.207
G1 X-217.848 Y-6.364
X-217.648 Y-5.858
X-217.502 Y-5.558
G2 X-216.995 Y-5.119 I0.732 J-0.334
G1 X-216.805 Y-5.095
X-215.485
G2 X-215.43 Y-5.102 Z-3.063 I-0.011 J-0.317 F1524
X-215.179 Y-5.411 Z-2.2 I-0.066 J-0.311 F5080
G1 Y-5.424 Z-2.175
X-214.872 Y-75.576
Y-75.586 Z-2.194
G2 X-215.123 Y-75.898 Z-3.063 I-0.318 J-0.001
X-215.178 Y-75.905 Z-3.175 I-0.066 J0.311 F1524
G1 X-216.439 F5080
G2 X-217.892 Y-75.295 I0.132 J2.352
X-219.053 Y-73.981 I3.228 J4.022
X-220.292 Y-71.31 I9.933 J6.227
X-221.804 Y-65.548 I45.069 J14.907
X-224.285 Y-41.131 I115.907 J24.113
X-219.479 Y-7.313 I120.924 J0.066
G1 X-219.248 Y-6.604
X-219.023 Y-5.987
X-218.859 Y-5.63
X-218.772 Y-5.474
G2 X-218.125 Y-5.095 I0.646 J-0.362
G1 X-216.805
G2 X-216.75 Y-5.102 Z-3.063 I-0.011 J-0.317 F1524
X-216.499 Y-5.411 Z-2.2 I-0.066 J-0.311 F5080
G1 Y-5.424 Z-2.175
X-216.133 Y-75.576
Y-75.586 Z-2.193
G2 X-216.384 Y-75.898 Z-3.063 I-0.317 J-0.002
X-216.439 Y-75.905 Z-3.175 I-0.066 J0.311 F1524
G1 X-217.793 F5080
G2 X-219.039 Y-75.423 I0.161 J2.267
X-220.144 Y-74.291 I2.847 J3.885
X-221.435 Y-71.753 I8.255 J5.797
X-222.836 Y-66.733 I36.842 J12.991
X-225.296 Y-49.04 I111.749 J24.556
X-220.921 Y-7.75 I122.179 J7.93
G1 X-220.704 Y-7.037
X-220.472 Y-6.329
X-220.278 Y-5.84
X-220.135 Y-5.549
G2 X-219.444 Y-5.095 I0.697 J-0.308
G1 X-218.125
G2 X-218.07 Y-5.102 Z-3.063 I-0.011 J-0.317 F1524
X-217.819 Y-5.411 Z-2.2 I-0.066 J-0.311 F5080
G1 Y-5.424 Z-2.175
X-217.487 Y-75.576
X-217.486 Y-75.586 Z-2.194
G2 X-217.738 Y-75.898 Z-3.063 I-0.317 J-0.002
X-217.793 Y-75.905 Z-3.175 I-0.066 J0.311 F1524
G1 X-219.071 F5080
G2 X-220.294 Y-75.453 I0.111 J2.183
X-221.379 Y-74.383 I2.61 J3.731
X-222.677 Y-71.904 I7.794 J5.661
X-224.092 Y-66.888 I34.856 J12.542
X-226.449 Y-50.682 I110.727 J24.377
X-222.07 Y-7.174 I123.323 J9.562
G1 X-221.834 Y-6.467
X-221.632 Y-5.929
X-221.475 Y-5.595
G2 X-220.952 Y-5.121 I0.751 J-0.304
G1 X-220.76 Y-5.095
X-219.444
G2 X-219.389 Y-5.102 Z-3.063 I-0.011 J-0.317 F1524
X-219.137 Y-5.411 Z-2.2 I-0.066 J-0.311 F5080
G1 Y-5.424 Z-2.175
X-218.764 Y-75.576
Y-75.586 Z-2.193
G2 X-219.016 Y-75.898 Z-3.063 I-0.318 J-0.002
X-219.071 Y-75.905 Z-3.175 I-0.066 J0.311 F1524
G1 X-220.332 F5080
G2 X-221.767 Y-75.324 I0.105 J2.326
X-222.913 Y-74.052 I3.117 J3.96
X-224.153 Y-71.413 I9.5 J6.075
X-225.65 Y-65.648 I43.289 J14.314
X-227.904 Y-47.885 I116.994 J23.875
G1 Y-35.847
X-227.867 Y-35.102
G2 X-227.572 Y-29.897 I56.089 J-0.574
X-223.394 Y-7.216 I123.156 J-10.959
G1 X-223.161 Y-6.508
X-222.957 Y-5.954
X-222.799 Y-5.613
X-222.719 Y-5.472
G2 X-222.074 Y-5.096 I0.645 J-0.364
G1 X-220.76 Y-5.095
G2 X-220.704 Y-5.102 Z-3.063 I-0.011 J-0.317 F1524
X-220.453 Y-5.424 Z-2.175 I-0.066 J-0.311 F5080
X-220.461 Y-5.482 I-0.317 J0.011
G1 X-227.277 Y-35.905
G2 X-227.576 Y-36.153 I-0.31 J0.069
X-227.898 Y-35.902 Z-3.063 I-0.011 J0.317
X-227.904 Y-35.847 Z-3.175 I0.311 J0.066 F1524
G1 Y-23.494 F5080
G2 X-227.394 Y-19.057 I27.991 J-0.974
X-224.765 Y-7.435 I115.07 J-19.921
G1 X-224.545 Y-6.723
X-224.311 Y-6.052
X-224.146 Y-5.676
X-224.042 Y-5.484
G2 X-223.39 Y-5.096 I0.652 J-0.352
G1 X-222.074 Y-5.095
G2 X-222.019 Y-5.102 Z-3.063 I-0.011 J-0.317 F1524
X-221.768 Y-5.424 Z-2.175 I-0.066 J-0.311 F5080
X-221.781 Y-5.505 I-0.317 J0.011
G1 X-227.283 Y-23.575
G2 X-227.576 Y-23.8 I-0.304 J0.092
X-227.898 Y-23.549 Z-3.063 I-0.011 J0.317
X-227.904 Y-23.494 Z-3.175 I0.311 J0.066 F1524
G1 Y-16.387 F5080
G2 X-227.389 Y-12.704 I17.666 J-0.594
X-225.697 Y-6.218 I70.549 J-14.947
G1 X-225.513 Y-5.788
X-225.378 Y-5.519
G2 X-224.704 Y-5.095 I0.682 J-0.337
G1 X-223.39
G2 X-223.335 Y-5.102 Z-3.063 I-0.011 J-0.317 F1524
X-223.084 Y-5.424 Z-2.175 I-0.066 J-0.311 F5080
X-223.105 Y-5.526 I-0.317 J0.011
G1 X-227.291 Y-16.489
G2 X-227.576 Y-16.693 I-0.297 J0.113
X-227.898 Y-16.442 Z-3.063 I-0.011 J0.317
X-227.904 Y-16.387 Z-3.175 I0.311 J0.066 F1524
G1 Y-10.802 F5080
G2 X-227.47 Y-7.861 I11.922 J-0.257
G1 X-227.28 Y-7.141
X-227.064 Y-6.428
X-226.877 Y-5.922
X-226.726 Y-5.596
G2 X-226.204 Y-5.121 I0.75 J-0.3
G1 X-226.011 Y-5.095
G2 X-225.956 Y-5.102 Z-3.063 I-0.011 J-0.317 F1524
X-225.705 Y-5.424 Z-2.175 I-0.066 J-0.311 F5080
X-225.717 Y-5.502 I-0.317 J0.011
G1 X-227.282 Y-10.88
G2 X-227.576 Y-11.109 I-0.305 J0.089
X-227.898 Y-10.858 Z-3.063 I-0.011 J0.317
X-227.904 Y-10.802 Z-3.175 I0.311 J0.066 F1524
G1 Y-6.572 F5080
G2 X-227.744 Y-5.567 I2.661 J0.09
X-227.054 Y-5.095 I0.69 J-0.269
X-226.999 Y-5.102 Z-3.063 I-0.011 J-0.317 F1524
X-226.747 Y-5.424 Z-2.175 I-0.066 J-0.311 F5080
X-226.776 Y-5.544 I-0.317 J0.011
G1 X-227.298 Y-6.692
G2 X-227.576 Y-6.878 I-0.289 J0.132
X-227.898 Y-6.627 Z-3.063 I-0.011 J0.317
X-227.904 Y-6.572 Z-3.175 I0.311 J0.066 F1524
G1 Y-5.557 F5080
X-227.902 Y-5.387
X-227.894 Y-5.345
X-227.879 Y-5.303
X-227.857 Y-5.261
X-227.826 Y-5.218
X-227.802 Y-5.194
X-227.778 Y-5.174
X-227.736 Y-5.144
X-227.694 Y-5.121
X-227.651 Y-5.107
X-227.609 Y-5.098
X-227.44 Y-5.095
X-224.704
G2 X-224.649 Y-5.102 Z-3.063 I-0.011 J-0.317 F1524
X-224.398 Y-5.393 Z-2.236 I-0.066 J-0.311 F5080
G1 X-224.396 Y-5.424 Z-2.175
X-220.026 Y-75.567
X-220.025 Y-75.576
G2 X-220.276 Y-75.898 Z-3.063 I-0.317 J-0.011
X-220.332 Y-75.905 Z-3.175 I-0.066 J0.311 F1524
G1 X-221.685 F5080
G2 X-222.918 Y-75.442 I0.138 J2.241
X-224.007 Y-74.346 I2.74 J3.812
X-225.303 Y-71.831 I7.944 J5.684
X-226.691 Y-66.808 I35.468 J12.509
X-227.904 Y-60.201 I86.512 J19.298
G1 Y-47.885
G2 X-227.898 Y-47.83 Z-3.063 I0.317 J-0.011 F1524
X-227.576 Y-47.579 Z-2.175 I0.311 J-0.066 F5080
X-227.277 Y-47.83 I-0.011 J-0.317
G1 X-221.386 Y-75.521
G2 X-221.379 Y-75.576 I-0.311 J-0.066
X-221.63 Y-75.898 Z-3.063 I-0.317 J-0.011
X-221.686 Y-75.905 Z-3.175 I-0.066 J0.311 F1524
G1 X-222.963 F5080
G2 X-224.41 Y-75.291 I0.141 J2.344
X-225.57 Y-73.967 I3.249 J4.015
X-226.79 Y-71.292 I9.886 J6.125
X-227.906 Y-67.15 I36.138 J11.956
G1 X-227.904 Y-67.094
Y-60.201
G2 X-227.898 Y-60.146 Z-3.063 I0.317 J-0.011 F1524
X-227.576 Y-59.895 Z-2.175 I0.311 J-0.066 F5080
X-227.283 Y-60.121 I-0.011 J-0.317
G1 X-222.67 Y-75.496
G2 X-222.657 Y-75.576 I-0.304 J-0.091
X-222.908 Y-75.898 Z-3.063 I-0.317 J-0.011
X-222.963 Y-75.905 Z-3.175 I-0.066 J0.311 F1524
G1 X-224.224 F5080
G2 X-225.668 Y-75.324 I0.094 J2.32
X-226.81 Y-74.055 I3.101 J3.938
X-227.908 Y-71.759 I7.802 J5.141
G1 X-227.904 Y-71.67
Y-67.094
G2 X-227.898 Y-67.039 Z-3.063 I0.317 J-0.011 F1524
X-227.576 Y-66.788 Z-2.175 I0.311 J-0.066 F5080
X-227.292 Y-66.988 I-0.011 J-0.317
G1 X-223.94 Y-75.471
G2 X-223.918 Y-75.576 I-0.295 J-0.117
X-224.169 Y-75.898 Z-3.063 I-0.317 J-0.011
X-224.224 Y-75.905 Z-3.175 I-0.066 J0.311 F1524
G1 X-225.578 F5080
G2 X-227.037 Y-75.268 I0.159 J2.357
X-227.831 Y-74.414 I2.101 J2.749
G1 X-227.885 Y-74.254
X-227.904 Y-74.088
G2 X-227.898 Y-74.032 Z-3.063 I0.317 J-0.011 F1524
X-227.576 Y-73.781 Z-2.175 I0.311 J-0.066 F5080
X-227.398 Y-73.844 I-0.011 J-0.317
G1 X-225.4 Y-75.333
G2 X-225.272 Y-75.576 I-0.19 J-0.255
X-225.523 Y-75.898 Z-3.063 I-0.317 J-0.011
X-225.578 Y-75.905 Z-3.175 I-0.066 J0.311 F1524
G1 X-226.856 F5080
G2 X-227.599 Y-75.707 I-0.036 J1.362
G1 X-227.763 Y-75.543
X-227.868 Y-75.337
X-227.904 Y-75.108
G2 X-227.898 Y-75.053 Z-3.063 I0.317 J-0.011 F1524
X-227.576 Y-74.802 Z-2.175 I0.311 J-0.066 F5080
X-227.414 Y-74.853 I-0.011 J-0.317
G1 X-226.694 Y-75.321
G2 X-226.55 Y-75.576 I-0.173 J-0.266
X-226.801 Y-75.898 Z-3.063 I-0.317 J-0.011
X-226.856 Y-75.905 Z-3.175 I-0.066 J0.311 F1524
G1 X-227.44 F5080
X-227.609 Y-75.902
X-227.651 Y-75.893
X-227.694 Y-75.879
X-227.736 Y-75.856
X-227.778 Y-75.826
X-227.802 Y-75.806
X-227.826 Y-75.782
X-227.857 Y-75.739
X-227.879 Y-75.697
X-227.894 Y-75.655
X-227.902 Y-75.613
X-227.904 Y-75.443
Y-71.67
X-227.896 Y-71.633 Z-3.169 F1524
X-227.888 Y-71.599 Z-3.151
X-227.882 Y-71.572 Z-3.123
X-227.877 Y-71.555 Z-3.089
X-227.876 Y-71.549 Z-3.05
G0 Z-0.317
X-40.791 Y-39.005
G1 Z-0.635 F1524
G2 X-40.396 Y-41.995 Z-0.8 I0.198 J-1.495 F711.2
X-40.791 Y-39.005 Z-0.966 I-0.198 J1.495
X-40.396 Y-41.995 Z-1.131 I0.198 J-1.495
X-40.791 Y-39.005 Z-1.297 I-0.198 J1.495
X-40.396 Y-41.995 Z-1.462 I0.198 J-1.495
X-40.791 Y-39.005 Z-1.628 I-0.198 J1.495
X-40.396 Y-41.995 Z-1.793 I0.198 J-1.495
X-40.791 Y-39.005 Z-1.959 I-0.198 J1.495
X-40.396 Y-41.995 Z-2.124 I0.198 J-1.495
X-40.791 Y-39.005 Z-2.29 I-0.198 J1.495
X-40.396 Y-41.995 Z-2.455 I0.198 J-1.495
X-40.791 Y-39.005 Z-2.62 I-0.198 J1.495
X-40.396 Y-41.995 Z-2.786 I0.198 J-1.495
X-40.791 Y-39.005 Z-2.951 I-0.198 J1.495
X-40.396 Y-41.995 Z-3.117 I0.198 J-1.495
X-40.791 Y-39.005 Z-3.282 I-0.198 J1.495
X-40.396 Y-41.995 Z-3.448 I0.198 J-1.495
X-40.791 Y-39.005 Z-3.613 I-0.198 J1.495
X-40.396 Y-41.995 Z-3.779 I0.198 J-1.495
X-40.791 Y-39.005 Z-3.944 I-0.198 J1.495
X-40.396 Y-41.995 Z-4.109 I0.198 J-1.495
X-40.791 Y-39.005 Z-4.275 I-0.198 J1.495
X-40.396 Y-41.995 Z-4.44 I0.198 J-1.495
X-40.791 Y-39.005 Z-4.606 I-0.198 J1.495
X-40.396 Y-41.995 Z-4.771 I0.198 J-1.495
X-40.791 Y-39.005 Z-4.937 I-0.198 J1.495
X-40.396 Y-41.995 Z-5.102 I0.198 J-1.495
X-40.791 Y-39.005 Z-5.268 I-0.198 J1.495
X-40.396 Y-41.995 Z-5.433 I0.198 J-1.495
X-40.791 Y-39.005 Z-5.599 I-0.198 J1.495
X-40.396 Y-41.995 Z-5.764 I0.198 J-1.495
X-40.791 Y-39.005 Z-5.929 I-0.198 J1.495
X-40.396 Y-41.995 Z-6.095 I0.198 J-1.495
X-40.791 Y-39.005 Z-6.26 I-0.198 J1.495
X-39.086 Y-40.5 Z-6.35 I0.198 J-1.495
X-42.102 I-1.508 J0
X-39.086 I1.508 J0
G1 X-39.066 Y-41.245 F5080
G2 X-39.41 Y-42.293 I-1.04 J-0.24
X-41.525 Y-42.666 I-1.336 J1.393
X-42.251 Y-38.757 I0.867 J2.183
X-38.343 Y-39.629 I1.666 J-1.73
X-38.024 Y-41.535 I-3.046 J-1.489
X-40.65 Y-43.776 I-2.673 J0.473
X-43.986 Y-40.787 I-0.124 J3.218
X-38.058 Y-38.203 I3.392 J0.31
X-37.198 Y-42.457 I-2.985 J-2.817
X-41.876 Y-44.694 I-3.604 J1.527
X-44.885 Y-39.183 I1.131 J4.195
X-37.544 Y-37.185 I4.295 J-1.293
X-36.485 Y-43.486 I-3.368 J-3.806
X-42.898 Y-45.516 I-4.355 J2.614
X-45.674 Y-38.101 I2.165 J5.037
X-36.837 Y-36.299 I5.088 J-2.379
X-35.993 Y-44.777 I-4.018 J-4.681
X-43.731 Y-46.396 I-4.864 J3.946
X-46.766 Y-37.709 I3.001 J5.922
X-36.6 Y-35.006 I6.179 J-2.77
X-35.38 Y-45.855 I-4.236 J-5.969
X-44.154 Y-47.499 I-5.484 J5.036
X-48.304 Y-38.547 I3.406 J7.017
X-36.569 Y-33.616 I7.715 J-1.93
X-34.406 Y-46.551 I-4.25 J-7.359
X-43.891 Y-48.911 I-6.456 J5.706
X-49.703 Y-41.306 I3.104 J8.396
X-37.471 Y-31.877 I9.104 J0.838
X-32.091 Y-36.758 I-3.231 J-8.966
X-38.394 Y-50.343 I-8.677 J-4.229
X-47.989 Y-47.668 I-2.487 J9.625
X-50.903 Y-39.517 I7.206 J7.174
X-39.511 Y-30.179 I10.3 J-0.947
X-31.221 Y-35.809 I-1.141 J-10.598
X-39.178 Y-51.735 I-9.549 J-5.18
X-47.005 Y-50.032 I-1.724 J10.915
X-51.972 Y-38.393 I6.257 J9.55
X-47.881 Y-31.49 I11.321 J-2.046
X-34.618 Y-30.556 I7.3 J-9.021
X-30.564 Y-47.456 I-6.208 J-10.426
X-46.306 Y-51.822 I-10.309 J6.608
X-53.351 Y-39.669 I5.518 J11.317
X-49.841 Y-31.647 I12.622 J-0.744
X-34.762 Y-29.087 I9.258 J-8.84
X-32.056 Y-51.04 I-6.048 J-11.889
X-50.891 Y-49.911 I-8.834 J10.298
X-54.578 Y-39.683 I10.056 J9.404
X-34.456 Y-27.878 I13.986 J-0.787
X-26.572 Y-44.027 I-6.336 J-13.092
X-41.135 Y-55.524 I-14.23 J3.054
X-54.27 Y-47.149 I0.264 J14.903
X-37.2 Y-25.629 I13.656 J6.699
X-26.252 Y-34.888 I-3.448 J-15.179
X-38.089 Y-56.511 I-14.516 J-6.105
X-54.272 Y-49.588 I-2.801 J15.828
X-52.918 Y-29.562 I13.575 J9.141
X-31.263 Y-26.886 I12.344 J-10.937
X-39.95 Y-57.963 I-9.534 J-14.088
X-56.038 Y-49.073 I-0.924 J17.331
X-38.644 Y-22.893 I15.416 J8.626
X-24.91 Y-32.026 I-1.965 J-17.848
X-38.555 Y-59.074 I-15.869 J-8.96
X-57.585 Y-48.776 I-2.327 J18.433
X-45.355 Y-22.159 I16.943 J8.334
X-25.88 Y-28.458 I4.788 J-18.452
X-39.075 Y-60.374 I-14.906 J-12.523
X-58.648 Y-49.42 I-1.804 J19.741
X-37.607 Y-20.536 I18.028 J8.973
X-21.799 Y-32.74 I-3.021 J-20.252
X-37.794 Y-61.466 I-18.973 J-8.252
X-59.895 Y-49.687 I-3.091 J20.824
X-41.286 Y-19.086 I19.264 J9.244
X-22.792 Y-28.422 I0.704 J-21.592
X-37.658 Y-62.701 I-17.99 J-12.561
X-59.928 Y-52.22 I-3.229 J22.039
X-55.219 Y-23.185 I19.252 J11.777
X-26.348 Y-22.83 I14.651 J-17.339
X-40.145 Y-64.164 I-14.447 J-18.147
X-63.113 Y-48.403 I-0.728 J23.555
X-35.585 Y-17.121 I22.499 J7.955
X-17.847 Y-32.605 I-5.06 J-23.699
X-36.356 Y-65.001 I-22.921 J-8.39
X-61.978 Y-53.628 I-4.537 J24.327
X-59.433 Y-23.841 I21.281 J13.183
X-26.291 Y-19.781 I18.861 J-16.663
X-39.6 Y-66.631 I-14.505 J-21.195
X-65.947 Y-47.702 I-1.27 J26.033
X-41.672 Y-14.125 I25.319 J7.258
X-17.872 Y-26.864 I1.081 J-26.583
X-37.295 Y-67.671 I-22.907 J-14.123
X-62.342 Y-57.451 I-3.604 J26.971
X-52.015 Y-15.331 I21.68 J17.011
X-21.535 Y-20.418 I11.455 J-25.222
X-38.319 Y-69.04 I-19.256 J-20.561
X-67.885 Y-49.841 I-2.556 J28.429
X-39.612 Y-11.627 I27.261 J9.397
X-15.61 Y-25.783 I-0.984 J-29.094
X-36.741 Y-70.112 I-25.171 J-15.203
X-65.289 Y-57.661 I-4.154 J29.43
X-54.94 Y-13.999 I24.625 J17.221
X-20.818 Y-17.708 I14.378 J-26.542
X-38.476 Y-71.557 I-19.975 J-23.27
X-70.493 Y-49.903 I-2.398 J30.952
X-45.044 Y-9.431 I29.859 J9.462
X-15.465 Y-21.565 I4.47 J-31.222
X-36.855 Y-72.647 I-25.32 J-19.417
X-66.875 Y-59.736 I-4.04 J31.962
X-54.61 Y-11.031 I26.214 J19.296
X-18.496 Y-16.426 I14.05 J-29.52
X-37.799 Y-74.008 I-22.296 J-24.552
X-72.356 Y-52.174 I-3.079 J33.392
X-43.158 Y-6.712 I31.725 J11.732
X-12.828 Y-20.925 I2.58 J-33.961
X-36.119 Y-75.072 I-27.956 J-20.058
X-70.101 Y-59.463 I-4.773 J34.403
X-59.618 Y-10.963 I29.432 J19.022
X-18.522 Y-13.117 I19.055 J-29.568
X-33.585 Y-75.907 I-22.268 J-27.86
G1 X-33.636 Y-75.905
X-46.856
G2 X-50.526 Y-75.327 I0.349 J14.163
X-71.494 Y-59.611 I9.602 J34.656
X-48.993 Y-5.095 I30.856 J19.166
G1 X-48.936
X-33.486
G2 X-30.546 Y-5.538 I-0.218 J-11.439
X-18.605 Y-11.465 I-9.549 J-34.23
X-5.091 Y-31.598 I-22.098 J-29.435
G1 X-5.095 Y-31.662
Y-49.045
G2 X-5.478 Y-51.618 I-10.195 J0.201
X-9.033 Y-59.793 I-32.539 J9.29
X-28.795 Y-75.888 I-31.719 J18.768
G1 X-28.878 Y-75.9
X-28.962 Y-75.905
X-33.636
G2 X-33.691 Y-75.898 Z-6.238 I0.011 J0.317 F1524
X-33.942 Y-75.576 Z-5.35 I0.066 J0.311 F5080
X-33.842 Y-75.356 I0.317 J-0.011
G1 X-5.63 Y-48.825
G2 X-5.424 Y-48.739 I0.218 J-0.231
X-5.102 Y-48.99 Z-6.238 I0.011 J-0.317
X-5.095 Y-49.045 Z-6.35 I-0.311 J-0.066 F1524
G1 Y-53.107 F5080
X-5.121 Y-53.611
X-5.182 Y-54.076
G2 X-6.076 Y-56.796 I-11.528 J2.281
X-15.246 Y-69.332 I-34.132 J15.346
X-25.356 Y-75.881 I-25.341 J28.041
G1 X-25.457 Y-75.898
X-25.558 Y-75.905
X-28.962
G2 X-29.017 Y-75.898 Z-6.238 I0.011 J0.317 F1524
X-29.268 Y-75.576 Z-5.35 I0.066 J0.311 F5080
X-29.17 Y-75.358 I0.317 J-0.011
G1 X-5.632 Y-52.888
G2 X-5.424 Y-52.8 I0.219 J-0.23
X-5.102 Y-53.052 Z-6.238 I0.011 J-0.317
X-5.095 Y-53.107 Z-6.35 I-0.311 J-0.066 F1524
G1 Y-56.322 F5080
X-5.114 Y-56.688
X-5.161 Y-57.044
X-5.259 Y-57.503
G2 X-6.37 Y-60.153 I-11.351 J3.204
X-15.294 Y-71.038 I-33.669 J18.501
X-22.462 Y-75.871 I-24.972 J29.303
G1 X-22.581 Y-75.895
X-22.701 Y-75.905
X-25.558
G2 X-25.614 Y-75.898 Z-6.238 I0.011 J0.317 F1524
X-25.865 Y-75.576 Z-5.35 I0.066 J0.311 F5080
X-25.767 Y-75.358 I0.317 J-0.011
G1 X-5.632 Y-56.103
G2 X-5.424 Y-56.016 I0.219 J-0.229
X-5.102 Y-56.267 Z-6.238 I0.011 J-0.317
X-5.095 Y-56.322 Z-6.35 I-0.311 J-0.066 F1524
G1 Y-59.029 F5080
G2 X-5.377 Y-60.533 I-4.592 J0.081
X-6.704 Y-63.135 I-11.685 J4.32
X-18.739 Y-75.15 I-33.609 J21.63
G1 X-19.366 Y-75.551
X-19.771 Y-75.797
X-19.892 Y-75.856
X-20.021 Y-75.892
X-20.155 Y-75.905
X-22.701
G2 X-22.756 Y-75.898 Z-6.238 I0.011 J0.317 F1524
X-23.007 Y-75.576 Z-5.35 I0.066 J0.311 F5080
X-22.909 Y-75.358 I0.317 J-0.011
G1 X-5.632 Y-58.811
G2 X-5.424 Y-58.723 I0.22 J-0.229
X-5.102 Y-58.974 Z-6.238 I0.011 J-0.317
X-5.095 Y-59.029 Z-6.35 I-0.311 J-0.066 F1524
G1 Y-61.568 F5080
G2 X-5.332 Y-62.793 I-3.893 J0.117
X-6.643 Y-65.254 I-9.716 J3.595
X-13.654 Y-72.936 I-32.342 J22.477
X-17.533 Y-75.855 I-24.44 J28.436
G1 X-17.677 Y-75.89
X-17.821 Y-75.905
X-20.155
G2 X-20.21 Y-75.898 Z-6.238 I0.011 J0.317 F1524
X-20.461 Y-75.576 Z-5.35 I0.066 J0.311 F5080
X-20.363 Y-75.357 I0.317 J-0.011
G1 X-5.632 Y-61.349
G2 X-5.424 Y-61.261 I0.219 J-0.23
X-5.102 Y-61.512 Z-6.238 I0.011 J-0.317
X-5.095 Y-61.568 Z-6.35 I-0.311 J-0.066 F1524
G1 Y-63.767 F5080
G2 X-5.486 Y-65.39 I-4.007 J0.106
X-7.007 Y-67.833 I-10.532 J4.865
X-15.332 Y-75.847 I-32.171 J25.085
G1 X-15.485 Y-75.888
X-15.64 Y-75.905
X-17.821
G2 X-17.876 Y-75.898 Z-6.238 I0.011 J0.317 F1524
X-18.127 Y-75.576 Z-5.35 I0.066 J0.311 F5080
X-18.029 Y-75.357 I0.317 J-0.011
G1 X-5.632 Y-63.549
G2 X-5.424 Y-63.461 I0.219 J-0.23
X-5.102 Y-63.712 Z-6.238 I0.011 J-0.317
X-5.095 Y-63.767 Z-6.35 I-0.311 J-0.066 F1524
G1 Y-65.967 F5080
G2 X-5.445 Y-67.38 I-3.636 J0.151
G1 X-5.688 Y-67.885
G2 X-7.426 Y-70.299 I-11.995 J6.799
X-13.247 Y-75.839 I-30.618 J26.346
G1 X-13.41 Y-75.886
X-13.575 Y-75.905
X-15.64
G2 X-15.695 Y-75.898 Z-6.238 I0.011 J0.317 F1524
X-15.946 Y-75.576 Z-5.35 I0.066 J0.311 F5080
X-15.846 Y-75.356 I0.317 J-0.011
G1 X-5.63 Y-65.747
G2 X-5.424 Y-65.661 I0.218 J-0.231
X-5.102 Y-65.912 Z-6.238 I0.011 J-0.317
X-5.095 Y-65.967 Z-6.35 I-0.311 J-0.066 F1524
G1 Y-67.998 F5080
G2 X-5.417 Y-69.302 I-3.366 J0.138
G1 X-5.631 Y-69.747
G2 X-7.349 Y-72.074 I-10.5 J5.956
X-11.125 Y-75.73 I-28.623 J25.782
G1 X-11.268 Y-75.825
X-11.43 Y-75.884
X-11.601 Y-75.905
X-13.575
G2 X-13.63 Y-75.898 Z-6.238 I0.011 J0.317 F1524
X-13.881 Y-75.576 Z-5.35 I0.066 J0.311 F5080
X-13.78 Y-75.355 I0.317 J-0.011
G1 X-5.629 Y-67.776
G2 X-5.424 Y-67.692 I0.216 J-0.233
X-5.102 Y-67.943 Z-6.238 I0.011 J-0.317
X-5.095 Y-67.998 Z-6.35 I-0.311 J-0.066 F1524
G1 Y-69.859 F5080
G2 X-5.598 Y-71.57 I-3.552 J0.115
G1 X-5.891 Y-72.074
G2 X-7.803 Y-74.354 I-12.159 J8.258
X-9.352 Y-75.821 I-14.616 J13.883
G1 X-9.528 Y-75.882
X-9.71 Y-75.905
X-11.601
G2 X-11.656 Y-75.898 Z-6.238 I0.011 J0.317 F1524
X-11.907 Y-75.576 Z-5.35 I0.066 J0.311 F5080
X-11.805 Y-75.354 I0.317 J-0.011
G1 X-5.628 Y-69.637
G2 X-5.424 Y-69.553 I0.216 J-0.233
X-5.102 Y-69.804 Z-6.238 I0.011 J-0.317
X-5.095 Y-69.859 Z-6.35 I-0.311 J-0.066 F1524
G1 Y-71.721 F5080
G2 X-5.568 Y-73.346 I-3.357 J0.094
G1 X-5.831 Y-73.801
G2 X-7.544 Y-75.811 I-8.691 J5.673
G1 X-7.729 Y-75.879
X-7.922 Y-75.905
G2 X-7.977 Y-75.898 Z-6.238 I0.011 J0.317 F1524
X-8.228 Y-75.576 Z-5.35 I0.066 J0.311 F5080
X-8.177 Y-75.415 I0.317 J-0.011
G1 X-5.679 Y-71.559
G2 X-5.424 Y-71.414 I0.266 J-0.173
X-5.102 Y-71.665 Z-6.238 I0.011 J-0.317
X-5.095 Y-71.721 Z-6.35 I-0.311 J-0.066 F1524
G1 Y-73.582 F5080
G2 X-5.54 Y-75.08 I-3.184 J0.131
G1 X-5.762 Y-75.464
G2 X-6.281 Y-75.883 I-0.736 J0.379
G1 X-6.457 Y-75.905
G2 X-6.512 Y-75.898 Z-6.238 I0.011 J0.317 F1524
X-6.763 Y-75.576 Z-5.35 I0.066 J0.311 F5080
X-6.728 Y-75.441 I0.317 J-0.011
G1 X-5.695 Y-73.447
G2 X-5.424 Y-73.276 I0.282 J-0.146
X-5.102 Y-73.527 Z-6.238 I0.011 J-0.317
X-5.095 Y-73.582 Z-6.35 I-0.311 J-0.066 F1524
G1 Y-75.274 F5080
G2 X-5.668 Y-75.905 I-0.576 J-0.053
X-5.723 Y-75.898 Z-6.238 I0.011 J0.318 F1524
X-5.974 Y-75.576 Z-5.35 I0.066 J0.311 F5080
X-5.904 Y-75.388 I0.317 J-0.011
G1 X-5.66 Y-75.086
G2 X-5.424 Y-74.968 I0.247 J-0.199
X-5.102 Y-75.219 Z-6.238 I0.011 J-0.317
X-5.095 Y-75.274 Z-6.35 I-0.311 J-0.066 F1524
G1 Y-75.443 F5080
X-5.098 Y-75.613
X-5.106 Y-75.655
X-5.121 Y-75.697
X-5.143 Y-75.739
X-5.175 Y-75.782
X-5.198 Y-75.806
X-5.222 Y-75.826
X-5.264 Y-75.856
X-5.306 Y-75.879
X-5.349 Y-75.893
X-5.391 Y-75.902
X-5.56 Y-75.905
X-9.71
G2 X-9.765 Y-75.898 Z-6.238 I0.011 J0.317 F1524
X-9.999 Y-75.689 Z-5.58 I0.066 J0.311 F5080
G1 X-10.036 Y-75.581 Z-5.35
X-33.775 Y-5.515
G2 X-33.792 Y-5.424 I0.301 J0.102
X-33.541 Y-5.102 Z-6.238 I0.317 J0.011
X-33.486 Y-5.095 Z-6.35 I0.066 J-0.311 F1524
G1 X-29.085 F5080
X-28.629 Y-5.118
X-28.138 Y-5.183
G2 X-25.362 Y-6.077 I-2.413 J-12.243
X-10.337 Y-17.964 I-15.076 J-34.494
X-5.114 Y-27.424 I-30.041 J-22.761
G1 X-5.101 Y-27.513
X-5.095 Y-27.603
Y-31.662
G2 X-5.102 Y-31.717 Z-6.238 I-0.317 J0.011 F1524
X-5.424 Y-31.968 Z-5.35 I-0.311 J0.066 F5080
X-5.649 Y-31.863 I0.011 J0.317
G1 X-29.31 Y-5.625
G2 X-29.391 Y-5.424 I0.236 J0.213
X-29.14 Y-5.102 Z-6.238 I0.317 J0.011
X-29.085 Y-5.095 Z-6.35 I0.066 J-0.311 F1524
G1 X-25.87 F5080
X-25.446 Y-5.117
X-25.076 Y-5.165
X-24.6 Y-5.267
G2 X-21.916 Y-6.381 I-3.343 J-11.847
X-8.657 Y-18.14 I-18.372 J-34.069
X-5.122 Y-24.199 I-30.87 J-22.071
G1 X-5.103 Y-24.307
X-5.095 Y-24.414
Y-27.603
G2 X-5.102 Y-27.658 Z-6.238 I-0.317 J0.011 F1524
X-5.424 Y-27.909 Z-5.35 I-0.311 J0.066 F5080
X-5.646 Y-27.807 I0.011 J0.317
G1 X-26.092 Y-5.628
G2 X-26.176 Y-5.424 I0.233 J0.215
X-25.925 Y-5.102 Z-6.238 I0.317 J0.011
X-25.87 Y-5.095 Z-6.35 I0.066 J-0.311 F1524
G1 X-22.992 F5080
G2 X-21.523 Y-5.383 I-0.143 J-4.64
X-18.885 Y-6.716 I-4.481 J-12.138
X-5.989 Y-19.923 I-21.434 J-33.829
X-5.132 Y-21.418 I-16.971 J-10.72
G1 X-5.106 Y-21.539
X-5.095 Y-21.661
Y-24.414
G2 X-5.102 Y-24.469 Z-6.238 I-0.317 J0.011 F1524
X-5.424 Y-24.721 Z-5.35 I-0.311 J0.066 F5080
X-5.646 Y-24.619 I0.011 J0.317
G1 X-23.214 Y-5.628
G2 X-23.299 Y-5.424 I0.233 J0.216
X-23.047 Y-5.102 Z-6.238 I0.317 J0.011
X-22.992 Y-5.095 Z-6.35 I0.066 J-0.311 F1524
G1 X-20.454 F5080
G2 X-19.234 Y-5.336 I-0.147 J-3.954
X-16.752 Y-6.648 I-3.71 J-10.024
X-8.542 Y-14.176 I-22.412 J-32.683
X-5.14 Y-18.911 I-29.679 J-24.911
G1 X-5.108 Y-19.047
X-5.095 Y-19.184
Y-21.661
G2 X-5.102 Y-21.717 Z-6.238 I-0.317 J0.011 F1524
X-5.424 Y-21.968 Z-5.35 I-0.311 J0.066 F5080
X-5.646 Y-21.866 I0.011 J0.317
G1 X-20.676 Y-5.628
G2 X-20.76 Y-5.424 I0.233 J0.216
X-20.509 Y-5.102 Z-6.238 I0.317 J0.011
X-20.454 Y-5.095 Z-6.35 I0.066 J-0.311 F1524
G1 X-18.254 F5080
G2 X-16.602 Y-5.494 I-0.112 J-4.085
X-14.137 Y-7.021 I-5.002 J-10.83
X-5.148 Y-16.601 I-25.28 J-32.724
G1 X-5.11 Y-16.748
X-5.095 Y-16.895
Y-19.184
G2 X-5.102 Y-19.24 Z-6.238 I-0.317 J0.011 F1524
X-5.424 Y-19.491 Z-5.35 I-0.311 J0.066 F5080
X-5.645 Y-19.39 I0.011 J0.317
G1 X-18.475 Y-5.629
G2 X-18.56 Y-5.424 I0.232 J0.217
X-18.309 Y-5.102 Z-6.238 I0.317 J0.011
X-18.254 Y-5.095 Z-6.35 I0.066 J-0.311 F1524
G1 X-16.053 F5080
G2 X-14.597 Y-5.453 I-0.134 J-3.697
G1 X-14.078 Y-5.702
G2 X-11.659 Y-7.432 I-7.013 J-12.363
X-5.156 Y-14.431 I-27.013 J-31.622
G1 X-5.113 Y-14.587
X-5.095 Y-14.745
Y-16.895
G2 X-5.102 Y-16.95 Z-6.238 I-0.317 J0.011 F1524
X-5.424 Y-17.202 Z-5.35 I-0.311 J0.066 F5080
X-5.646 Y-17.1 I0.011 J0.317
G1 X-16.275 Y-5.629
G2 X-16.36 Y-5.424 I0.233 J0.216
X-16.108 Y-5.102 Z-6.238 I0.317 J0.011
X-16.053 Y-5.095 Z-6.35 I0.066 J-0.311 F1524
G1 X-14.022 F5080
G2 X-12.66 Y-5.424 I-0.104 J-3.422
G1 X-12.206 Y-5.642
G2 X-9.862 Y-7.366 I-6.086 J-10.732
X-5.161 Y-12.374 I-26.243 J-29.341
G1 X-5.114 Y-12.536
X-5.095 Y-12.7
Y-14.745
G2 X-5.102 Y-14.8 Z-6.238 I-0.317 J0.011 F1524
X-5.424 Y-15.051 Z-5.35 I-0.311 J0.066 F5080
X-5.646 Y-14.949 I0.011 J0.317
G1 X-14.245 Y-5.628
G2 X-14.329 Y-5.424 I0.233 J0.215
X-14.078 Y-5.102 Z-6.238 I0.317 J0.011
X-14.022 Y-5.095 Z-6.35 I0.066 J-0.311 F1524
G1 X-11.991 F5080
G2 X-10.753 Y-5.416 I-0.168 J-3.205
G1 X-10.324 Y-5.627
G2 X-8.059 Y-7.353 I-5.732 J-9.868
X-5.276 Y-10.263 I-24.293 J-26.022
G1 X-5.177 Y-10.408
X-5.116 Y-10.573
X-5.095 Y-10.747
Y-12.7
G2 X-5.102 Y-12.755 Z-6.238 I-0.317 J0.011 F1524
X-5.424 Y-13.006 Z-5.35 I-0.311 J0.066 F5080
X-5.648 Y-12.902 I0.011 J0.317
G1 X-12.216 Y-5.626
G2 X-12.298 Y-5.424 I0.236 J0.213
X-12.047 Y-5.102 Z-6.238 I0.317 J0.011
X-11.991 Y-5.095 Z-6.35 I0.066 J-0.311 F1524
G1 X-10.13 F5080
G2 X-8.581 Y-5.577 I-0.21 J-3.408
G1 X-8.109 Y-5.853
G2 X-5.853 Y-7.792 I-7.634 J-11.167
G1 X-5.334 Y-8.327
G2 X-5.095 Y-8.875 I-0.525 J-0.555
G1 Y-10.747
G2 X-5.102 Y-10.802 Z-6.238 I-0.317 J0.011 F1524
X-5.424 Y-11.053 Z-5.35 I-0.311 J0.066 F5080
X-5.651 Y-10.946 I0.011 J0.317
G1 X-10.357 Y-5.623
G2 X-10.436 Y-5.424 I0.238 J0.21
X-10.185 Y-5.102 Z-6.238 I0.317 J0.011
X-10.13 Y-5.095 Z-6.35 I0.066 J-0.311 F1524
G1 X-8.344 F5080
G2 X-6.855 Y-5.542 I-0.151 J-3.208
X-5.215 Y-6.76 I-3.167 J-5.978
G1 X-5.127 Y-6.96
X-5.095 Y-7.174
G2 X-5.102 Y-7.229 Z-6.238 I-0.317 J0.011 F1524
X-5.424 Y-7.48 Z-5.35 I-0.311 J0.066 F5080
X-5.576 Y-7.435 I0.011 J0.317
G1 X-8.496 Y-5.685
G2 X-8.65 Y-5.424 I0.163 J0.272
X-8.399 Y-5.102 Z-6.238 I0.317 J0.011
X-8.344 Y-5.095 Z-6.35 I0.066 J-0.311 F1524
G1 X-6.576 F5080
G2 X-5.337 Y-5.459 I-0.019 J-2.356
G1 X-5.208 Y-5.624
X-5.124 Y-5.813
X-5.095 Y-6.017
G2 X-5.102 Y-6.072 Z-6.238 I-0.317 J0.011 F1524
X-5.424 Y-6.323 Z-5.35 I-0.311 J0.066 F5080
X-5.558 Y-6.288 I0.011 J0.317
G1 X-6.71 Y-5.695
G2 X-6.882 Y-5.424 I0.145 J0.282
X-6.631 Y-5.102 Z-6.238 I0.317 J0.011
X-6.576 Y-5.095 Z-6.35 I0.066 J-0.311 F1524
G1 X-5.56 F5080
X-5.391 Y-5.098
X-5.349 Y-5.107
X-5.306 Y-5.121
X-5.264 Y-5.144
X-5.222 Y-5.174
X-5.198 Y-5.194
X-5.175 Y-5.218
X-5.143 Y-5.261
X-5.121 Y-5.303
X-5.106 Y-5.345
X-5.098 Y-5.387
X-5.095 Y-5.557
Y-8.875
G2 X-5.102 Y-8.93 Z-6.238 I-0.317 J0.011 F1524
X-5.143 Y-9.031 Z-6.018 I-0.311 J0.066 F5080
G1 X-5.319 Y-9.314 Z-5.35
X-46.498 Y-75.596
X-46.597 Y-75.755 Z-5.726
G2 X-46.801 Y-75.898 Z-6.238 I-0.27 J0.168
X-46.856 Y-75.905 Z-6.35 I-0.066 J0.311 F1524
G1 X-51.595 F5080
X-52.107 Y-75.879
G2 X-54.775 Y-75.189 I1.148 J9.94
X-64.373 Y-69.554 I12.994 J33.13
X-62.87 Y-10.167 I23.683 J29.113
X-53.427 Y-5.113 I21.903 J-29.571
G1 X-53.341 Y-5.1
X-53.256 Y-5.095
X-48.936
G2 X-48.881 Y-5.102 Z-6.238 I-0.011 J-0.317 F1524
X-48.63 Y-5.424 Z-5.35 I-0.066 J-0.311 F5080
G1 X-51.288 Y-75.576
X-51.289 Y-75.599 Z-5.396
