%
(1001)
(planck-wrest-wood-top-rev1)
(T5  D=3.175 CR=0 - ZMIN=-18 - flat end mill)
G90
G17
G21
G28 G91 Z0
G90

(2D Adaptive10)
M9
T5 M6
S16000 M3
G54
M7
G0 X-63.623 Y-64.706
Z15.24
Z2.858
G1 Z2.54 F711.2
G3 X-63.8 Y-61.694 Z2.375 I-0.088 J1.506
X-63.623 Y-64.706 Z2.209 I0.088 J-1.506
X-63.8 Y-61.694 Z2.044 I-0.088 J1.506
X-63.623 Y-64.706 Z1.878 I0.088 J-1.506
X-63.8 Y-61.694 Z1.713 I-0.088 J1.506
X-63.623 Y-64.706 Z1.547 I0.088 J-1.506
X-63.8 Y-61.694 Z1.382 I-0.088 J1.506
X-63.623 Y-64.706 Z1.216 I0.088 J-1.506
X-63.8 Y-61.694 Z1.051 I-0.088 J1.506
X-63.623 Y-64.706 Z0.885 I0.088 J-1.506
X-63.8 Y-61.694 Z0.72 I-0.088 J1.506
X-63.623 Y-64.706 Z0.555 I0.088 J-1.506
X-63.8 Y-61.694 Z0.389 I-0.088 J1.506
X-63.623 Y-64.706 Z0.224 I0.088 J-1.506
X-63.8 Y-61.694 Z0.058 I-0.088 J1.506
X-63.623 Y-64.706 Z-0.107 I0.088 J-1.506
X-63.8 Y-61.694 Z-0.273 I-0.088 J1.506
X-63.623 Y-64.706 Z-0.438 I0.088 J-1.506
X-63.8 Y-61.694 Z-0.604 I-0.088 J1.506
X-63.623 Y-64.706 Z-0.769 I0.088 J-1.506
X-63.8 Y-61.694 Z-0.934 I-0.088 J1.506
X-63.623 Y-64.706 Z-1.1 I0.088 J-1.506
X-63.8 Y-61.694 Z-1.265 I-0.088 J1.506
X-63.623 Y-64.706 Z-1.431 I0.088 J-1.506
X-63.8 Y-61.694 Z-1.596 I-0.088 J1.506
X-63.623 Y-64.706 Z-1.762 I0.088 J-1.506
X-63.8 Y-61.694 Z-1.927 I-0.088 J1.506
X-63.623 Y-64.706 Z-2.093 I0.088 J-1.506
X-63.8 Y-61.694 Z-2.258 I-0.088 J1.506
X-63.623 Y-64.706 Z-2.424 I0.088 J-1.506
X-63.8 Y-61.694 Z-2.589 I-0.088 J1.506
X-63.623 Y-64.706 Z-2.754 I0.088 J-1.506
X-63.8 Y-61.694 Z-2.92 I-0.088 J1.506
X-63.623 Y-64.706 Z-3.085 I0.088 J-1.506
X-62.204 Y-63.2 Z-3.165 I-0.088 J1.506
X-65.22 I-1.508 J0
X-62.204 I1.508 J0
G1 X-62.184 Y-62.455 F5080
G3 X-62.528 Y-61.407 I-1.04 J0.24
X-64.643 Y-61.034 I-1.336 J-1.393
X-65.369 Y-64.943 I0.867 J-2.183
X-61.46 Y-64.071 I1.666 J1.729
X-61.142 Y-62.165 I-3.045 J1.489
X-63.767 Y-59.924 I-2.673 J-0.473
X-67.104 Y-62.913 I-0.124 J-3.218
X-61.176 Y-65.497 I3.392 J-0.31
X-60.316 Y-61.243 I-2.985 J2.817
X-64.993 Y-59.006 I-3.604 J-1.527
X-68.003 Y-64.517 I1.131 J-4.195
X-60.662 Y-66.515 I4.294 J1.293
X-59.603 Y-60.214 I-3.368 J3.806
X-66.016 Y-58.184 I-4.355 J-2.614
X-68.792 Y-65.599 I2.165 J-5.037
X-59.954 Y-67.401 I5.088 J2.379
X-59.11 Y-58.923 I-4.018 J4.681
X-66.849 Y-57.304 I-4.864 J-3.946
X-69.884 Y-65.991 I3.001 J-5.922
X-59.718 Y-68.694 I6.179 J2.77
X-58.498 Y-57.845 I-4.236 J5.969
X-67.272 Y-56.201 I-5.484 J-5.036
X-71.422 Y-65.153 I3.406 J-7.017
X-59.687 Y-70.084 I7.715 J1.93
X-57.524 Y-57.149 I-4.25 J7.359
X-67.008 Y-54.789 I-6.456 J-5.706
X-72.821 Y-62.394 I3.104 J-8.396
X-60.589 Y-71.823 I9.104 J-0.838
X-55.209 Y-66.942 I-3.231 J8.966
X-61.512 Y-53.357 I-8.677 J4.229
X-71.106 Y-56.032 I-2.487 J-9.625
X-74.021 Y-64.183 I7.206 J-7.174
X-62.629 Y-73.521 I10.3 J0.947
X-54.339 Y-67.891 I-1.141 J10.598
X-62.296 Y-51.965 I-9.549 J5.18
X-70.123 Y-53.668 I-1.724 J-10.915
X-75.09 Y-65.307 I6.257 J-9.55
X-70.999 Y-72.21 I11.321 J2.046
X-57.736 Y-73.144 I7.3 J9.021
X-53.682 Y-56.244 I-6.208 J10.426
X-69.424 Y-51.878 I-10.309 J-6.608
X-76.469 Y-64.031 I5.518 J-11.317
X-72.959 Y-72.053 I12.622 J0.744
X-57.88 Y-74.613 I9.258 J8.84
X-55.174 Y-52.66 I-6.048 J11.889
X-74.009 Y-53.789 I-8.834 J-10.298
X-77.696 Y-64.017 I10.056 J-9.404
X-57.574 Y-75.822 I13.986 J0.787
X-49.69 Y-59.673 I-6.336 J13.092
X-64.252 Y-48.176 I-14.23 J-3.054
X-77.388 Y-56.551 I0.264 J-14.903
X-60.318 Y-78.071 I13.656 J-6.699
X-49.369 Y-68.812 I-3.448 J15.179
X-61.207 Y-47.189 I-14.516 J6.105
X-77.39 Y-54.112 I-2.801 J-15.828
X-76.036 Y-74.138 I13.575 J-9.141
X-54.381 Y-76.814 I12.344 J10.937
X-63.067 Y-45.737 I-9.534 J14.088
X-79.156 Y-54.627 I-0.924 J-17.331
X-61.761 Y-80.807 I15.416 J-8.626
X-48.028 Y-71.674 I-1.965 J17.848
X-61.673 Y-44.626 I-15.869 J8.96
X-80.703 Y-54.924 I-2.327 J-18.433
X-68.473 Y-81.541 I16.943 J-8.334
X-48.998 Y-75.242 I4.788 J18.452
X-62.193 Y-43.326 I-14.906 J12.523
X-81.766 Y-54.28 I-1.804 J-19.741
X-60.725 Y-83.164 I18.028 J-8.973
X-44.917 Y-70.96 I-3.021 J20.252
X-60.912 Y-42.234 I-18.973 J8.252
X-83.012 Y-54.013 I-3.091 J-20.824
X-64.404 Y-84.614 I19.264 J-9.244
X-45.91 Y-75.278 I0.704 J21.592
X-60.776 Y-40.999 I-17.99 J12.561
X-83.046 Y-51.48 I-3.229 J-22.039
X-78.336 Y-80.515 I19.252 J-11.777
X-49.466 Y-80.87 I14.651 J17.339
X-63.263 Y-39.536 I-14.447 J18.147
X-86.231 Y-55.297 I-0.728 J-23.555
X-58.703 Y-86.579 I22.499 J-7.955
X-40.965 Y-71.095 I-5.06 J23.699
X-59.474 Y-38.699 I-22.921 J8.39
X-85.096 Y-50.072 I-4.537 J-24.327
X-82.551 Y-79.859 I21.281 J-13.183
X-49.408 Y-83.919 I18.861 J16.663
X-62.718 Y-37.069 I-14.505 J21.195
X-89.065 Y-55.998 I-1.27 J-26.033
X-64.79 Y-89.575 I25.32 J-7.258
X-40.99 Y-76.836 I1.081 J26.583
X-60.413 Y-36.029 I-22.907 J14.123
X-85.46 Y-46.249 I-3.604 J-26.971
X-75.133 Y-88.369 I21.68 J-17.011
X-44.652 Y-83.282 I11.455 J25.222
X-61.437 Y-34.66 I-19.256 J20.561
X-91.003 Y-53.859 I-2.556 J-28.429
X-62.729 Y-92.073 I27.261 J-9.397
X-38.727 Y-77.917 I-0.984 J29.094
X-59.859 Y-33.588 I-25.171 J15.203
X-88.407 Y-46.039 I-4.154 J-29.43
X-78.058 Y-89.701 I24.625 J-17.221
X-43.936 Y-85.992 I14.378 J26.542
X-61.594 Y-32.143 I-19.975 J23.27
X-93.611 Y-53.797 I-2.398 J-30.952
X-68.162 Y-94.269 I29.859 J-9.462
X-38.583 Y-82.135 I4.47 J31.222
X-59.973 Y-31.053 I-25.32 J19.417
X-89.993 Y-43.964 I-4.04 J-31.962
X-77.728 Y-92.669 I26.214 J-19.296
X-41.613 Y-87.274 I14.05 J29.52
X-60.917 Y-29.692 I-22.296 J24.552
X-95.474 Y-51.526 I-3.079 J-33.392
X-66.276 Y-96.988 I31.725 J-11.732
X-35.946 Y-82.775 I2.58 J33.961
X-59.237 Y-28.628 I-27.956 J20.058
X-93.616 Y-44.866 I-4.772 J-34.408
X-84.575 Y-91.468 I29.825 J-18.392
X-42.226 Y-91.042 I20.892 J28.293
X-60.85 Y-27.186 I-21.685 J28.319
X-97.776 Y-50.536 I-3.145 J-35.898
X-68.971 Y-99.206 I34.023 J-12.722
X-35.186 Y-85.909 I5.283 J36.148
X-59.831 Y-26.03 I-28.72 J23.191
X-99.099 Y-50.509 I-4.166 J-37.053
X-65.751 Y-100.784 I35.351 J-12.75
X-31.285 Y-82.523 I2.048 J37.79
X-58.401 Y-24.954 I-32.611 J19.81
X-97.098 Y-43.365 I-5.61 J-38.08
X-80.266 Y-98.391 I33.32 J-19.895
X-36.698 Y-91.246 I16.589 J35.253
X-24.795 Y-67.589 I-27.088 J28.451
G1 Y-59.142
G3 X-25.647 Y-53.257 I-25.337 J-0.66
X-55.126 Y-24.294 I-38.234 J-9.432
G1 X-55.182 Y-24.295 F2540
X-71.497 F5080
G3 X-74.441 Y-24.708 I0.201 J-12.167
X-88.354 Y-31.631 I9.982 J-37.498
X-90.014 Y-93.521 I24.537 J-31.625
X-73.62 Y-102.108 I26.183 J30.045
G1 X-73.554 Y-102.104 F2540
X-55.081 F5080
G3 X-52.147 Y-101.632 I-0.226 J10.744
X-40.774 Y-96.186 I-10.862 J37.283
X-24.805 Y-73.911 I-23.073 J33.402
G1 X-24.799 Y-73.842 F2540
X-24.795 Y-73.773 F5080
Y-67.589
X-24.797 Y-67.565 Z-3.043 F711.2
G3 X-25.124 Y-67.283 Z-0.625 I-0.316 J-0.035 F5080
X-25.352 Y-67.391 I0.011 J-0.317
G1 X-55.308 Y-101.578
G3 X-55.387 Y-101.776 I0.239 J-0.209
X-55.104 Y-102.103 Z-3.043 I0.317 J-0.011
G1 X-55.08 Y-102.104 Z-3.165 F711.2
X-50.849 F5080
X-50.377 Y-102.081
X-49.89 Y-102.017
G3 X-47.105 Y-101.124 I-2.472 J12.502
X-32.717 Y-90.746 I-16.277 J37.728
X-24.814 Y-77.871 I-30.929 J27.849
G1 X-24.801 Y-77.78 F2540
X-24.795 Y-77.69 F5080
Y-73.773
X-24.797 Y-73.749 Z-3.043 F711.2
G3 X-25.124 Y-73.467 Z-0.625 I-0.316 J-0.035 F5080
X-25.347 Y-73.569 I0.011 J-0.317
G1 X-51.072 Y-101.572
G3 X-51.156 Y-101.776 I0.234 J-0.215
X-50.873 Y-102.103 Z-3.043 I0.317 J-0.011
G1 X-50.849 Y-102.104 Z-3.165 F711.2
X-47.634 F5080
X-47.169 Y-102.081
X-46.789 Y-102.031
X-46.298 Y-101.926
G3 X-43.582 Y-100.812 I-3.509 J12.421
X-29.513 Y-88.834 I-19.787 J37.491
X-24.821 Y-81.077 I-33.609 J25.626
G1 X-24.803 Y-80.97
X-24.795 Y-80.863
Y-77.69
X-24.797 Y-77.666 Z-3.043 F711.2
G3 X-25.124 Y-77.384 Z-0.625 I-0.316 J-0.035 F5080
X-25.345 Y-77.484 I0.011 J-0.317
G1 X-47.855 Y-101.57
G3 X-47.94 Y-101.776 I0.232 J-0.217
X-47.658 Y-102.103 Z-3.043 I0.317 J-0.011
G1 X-47.634 Y-102.104 Z-3.165 F711.2
X-44.757 F5080
G3 X-43.142 Y-101.801 I-0.09 J4.916
X-40.48 Y-100.475 I-4.813 J13.006
X-25.551 Y-85.157 I-23.033 J37.381
G1 X-25.175 Y-84.514
X-24.887 Y-83.991
X-24.837 Y-83.878
X-24.806 Y-83.758
X-24.795 Y-83.634
Y-80.863
X-24.797 Y-80.839 Z-3.043 F711.2
G3 X-25.124 Y-80.557 Z-0.625 I-0.316 J-0.035 F5080
X-25.344 Y-80.657 I0.011 J-0.317
G1 X-44.977 Y-101.57
G3 X-45.063 Y-101.776 I0.231 J-0.217
X-44.781 Y-102.103 Z-3.043 I0.317 J-0.011
G1 X-44.757 Y-102.104 Z-3.165 F711.2
X-42.218 F5080
G3 X-40.804 Y-101.846 I-0.051 J4.279
X-38.28 Y-100.531 I-3.976 J10.715
X-28.898 Y-92.088 I-24.189 J36.31
X-24.836 Y-86.412 I-33.198 J28.045
G1 X-24.808 Y-86.279
X-24.795 Y-86.145
Y-83.634
X-24.797 Y-83.61 Z-3.043 F711.2
G3 X-25.124 Y-83.328 Z-0.625 I-0.316 J-0.035 F5080
X-25.344 Y-83.427 I0.011 J-0.317
G1 X-42.438 Y-101.569
G3 X-42.525 Y-101.776 I0.231 J-0.218
X-42.242 Y-102.103 Z-3.043 I0.317 J-0.011
G1 X-42.218 Y-102.104 Z-3.165 F711.2
X-39.849 F5080
G3 X-38.103 Y-101.684 I-0.11 J4.287
X-35.576 Y-100.144 I-5.431 J11.756
X-24.849 Y-88.766 I-27.261 J36.449
G1 X-24.81 Y-88.622
X-24.795 Y-88.475
Y-86.145
X-24.797 Y-86.121 Z-3.043 F711.2
G3 X-25.124 Y-85.839 Z-0.625 I-0.316 J-0.035 F5080
X-25.344 Y-85.939 I0.011 J-0.317
G1 X-40.069 Y-101.569
G3 X-40.155 Y-101.776 I0.231 J-0.218
X-39.873 Y-102.103 Z-3.043 I0.317 J-0.011
G1 X-39.849 Y-102.104 Z-3.165 F711.2
X-37.649 F5080
G3 X-36.05 Y-101.726 I-0.08 J3.901
G1 X-35.489 Y-101.456
G3 X-33.052 Y-99.749 I-7.918 J13.904
X-24.855 Y-90.978 I-29.367 J35.658
G1 X-24.812 Y-90.824
X-24.795 Y-90.668
Y-88.475
X-24.797 Y-88.451 Z-3.043 F711.2
G3 X-25.124 Y-88.169 Z-0.625 I-0.316 J-0.035 F5080
X-25.344 Y-88.269 I0.011 J-0.317
G1 X-37.869 Y-101.57
G3 X-37.955 Y-101.776 I0.231 J-0.218
X-37.673 Y-102.103 Z-3.043 I0.317 J-0.011
G1 X-37.649 Y-102.104 Z-3.165 F711.2
X-35.449 F5080
G3 X-34.076 Y-101.762 I-0.162 J3.571
G1 X-33.582 Y-101.525
G3 X-31.171 Y-99.783 I-6.715 J11.84
X-24.952 Y-93.205 I-30.16 J34.741
G1 X-24.866 Y-93.068
X-24.813 Y-92.915
X-24.795 Y-92.754
Y-90.668
X-24.797 Y-90.644 Z-3.043 F711.2
G3 X-25.124 Y-90.362 Z-0.625 I-0.316 J-0.035 F5080
X-25.345 Y-90.463 I0.011 J-0.317
G1 X-35.67 Y-101.571
G3 X-35.755 Y-101.776 I0.233 J-0.216
X-35.473 Y-102.103 Z-3.043 I0.317 J-0.011
G1 X-35.449 Y-102.104 Z-3.165 F711.2
X-33.418 F5080
G3 X-32.142 Y-101.78 I-0.171 J3.342
G1 X-31.694 Y-101.562
G3 X-29.367 Y-99.834 I-6.1 J10.645
X-24.866 Y-95.09 I-28.159 J31.226
G1 X-24.815 Y-94.923
X-24.795 Y-94.752
Y-92.754
X-24.797 Y-92.73 Z-3.043 F711.2
G3 X-25.124 Y-92.447 Z-0.625 I-0.316 J-0.035 F5080
X-25.347 Y-92.55 I0.011 J-0.317
G1 X-33.641 Y-101.572
G3 X-33.724 Y-101.776 I0.234 J-0.215
X-33.442 Y-102.103 Z-3.043 I0.317 J-0.011
G1 X-33.418 Y-102.104 Z-3.165 F711.2
X-31.556 F5080
G3 X-29.894 Y-101.605 I-0.158 J3.541
G1 X-29.386 Y-101.31
G3 X-27.103 Y-99.402 I-8.455 J12.432
X-24.979 Y-97.168 I-27.281 J28.065
G1 X-24.879 Y-97.022
X-24.817 Y-96.856
X-24.795 Y-96.68
Y-94.752
X-24.797 Y-94.729 Z-3.043 F711.2
G3 X-25.124 Y-94.446 Z-0.625 I-0.316 J-0.035 F5080
X-25.347 Y-94.549 I0.011 J-0.317
G1 X-31.779 Y-101.573
G3 X-31.862 Y-101.776 I0.234 J-0.214
X-31.58 Y-102.103 Z-3.043 I0.317 J-0.011
G1 X-31.556 Y-102.104 Z-3.165 F711.2
X-29.695 F5080
G3 X-28.109 Y-101.632 I-0.139 J3.362
G1 X-27.648 Y-101.365
G3 X-25.387 Y-99.433 I-7.515 J11.082
G1 X-25.004 Y-99.042
X-24.891 Y-98.89
X-24.82 Y-98.714
X-24.795 Y-98.527
Y-96.68
X-24.797 Y-96.656 Z-3.043 F711.2
G3 X-25.124 Y-96.374 Z-0.625 I-0.316 J-0.035 F5080
X-25.349 Y-96.479 I0.011 J-0.317
G1 X-29.92 Y-101.575
G3 X-30.001 Y-101.776 I0.236 J-0.212
X-29.719 Y-102.103 Z-3.043 I0.317 J-0.011
G1 X-29.695 Y-102.104 Z-3.165 F711.2
X-27.833 F5080
G3 X-26.366 Y-101.658 I-0.176 J3.214
G1 X-25.941 Y-101.412
X-25.386 Y-101.022
X-25.063 Y-100.754
X-24.919 Y-100.593
X-24.827 Y-100.398
X-24.795 Y-100.184
X-24.797 Y-100.16 Z-3.043 F711.2
G3 X-25.124 Y-99.878 Z-0.625 I-0.316 J-0.035 F5080
X-25.274 Y-99.921 I0.011 J-0.317
G1 X-27.983 Y-101.513
G3 X-28.139 Y-101.776 I0.161 J-0.274
X-27.857 Y-102.103 Z-3.043 I0.317 J-0.011
G1 X-27.833 Y-102.104 Z-3.165 F711.2
X-26.141 F5080
G3 X-25.073 Y-101.836 I0.053 J2.044
G1 X-24.925 Y-101.669
X-24.829 Y-101.469
X-24.795 Y-101.25
X-24.797 Y-101.227 Z-3.043 F711.2
G3 X-25.124 Y-100.944 Z-0.625 I-0.316 J-0.035 F5080
X-25.259 Y-100.98 I0.011 J-0.317
G1 X-26.275 Y-101.505
G3 X-26.447 Y-101.776 I0.146 J-0.282
X-26.165 Y-102.103 Z-3.043 I0.317 J-0.011
G1 X-26.141 Y-102.104 Z-3.165 F711.2
X-25.125 F5080
X-25.083 Y-102.101
X-25.041 Y-102.093
X-24.998 Y-102.077
X-24.956 Y-102.055
X-24.931 Y-102.037
X-24.906 Y-102.015
X-24.856 Y-101.96
X-24.83 Y-101.917
X-24.812 Y-101.875 F2540
X-24.801 Y-101.833 F5080
X-24.796 Y-101.79
X-24.795 Y-98.527
X-24.797 Y-98.503 Z-3.043 F711.2
G3 X-24.844 Y-98.369 Z-2.315 I-0.316 J-0.035 F5080
G1 X-25.02 Y-98.088 Z-0.625
X-71.138 Y-24.604
X-71.239 Y-24.444 Z-1.587
G3 X-71.473 Y-24.297 Z-3.043 I-0.269 J-0.169
G1 X-71.497 Y-24.295 Z-3.165 F711.2
X-76.066 F5080
X-76.593 Y-24.322
G3 X-79.262 Y-25.011 I1.159 J-10.002
X-88.949 Y-30.507 I14.11 J-36.154
X-96.575 Y-88.364 I25.115 J-32.742
X-77.923 Y-102.086 I32.749 J24.978
G1 X-77.837 Y-102.099 F2540
X-77.751 Y-102.104 F5080
X-73.554
X-73.53 Y-102.103 Z-3.043 F711.2
G3 X-73.356 Y-102.026 Z-2.054 I-0.035 J0.316 F5080
G1 X-73.145 Y-101.84 Z-0.625
X-25.083 Y-59.528
X-24.903 Y-59.369 Z-1.848
G3 X-24.797 Y-59.166 Z-3.043 I-0.21 J0.238
G1 X-24.795 Y-59.142 Z-3.165 F711.2
Y-52.88 F5080
G3 X-25.271 Y-50.107 I-9.578 J-0.216
X-29.313 Y-41.335 I-35.969 J-11.255
X-50.537 Y-24.31 I-34.567 J-21.351
G1 X-50.619 Y-24.3 F2540
X-50.7 Y-24.295 F5080
X-55.182
X-55.206 Y-24.297 Z-3.043 F711.2
G3 X-55.489 Y-24.624 Z-0.625 I0.035 J-0.316 F5080
X-55.389 Y-24.844 I0.317 J0.011
G1 X-25.33 Y-53.101
G3 X-25.124 Y-53.187 I0.217 J0.231
X-24.797 Y-52.904 Z-3.043 I0.011 J0.317
G1 X-24.795 Y-52.88 Z-3.165 F711.2
Y-48.988 F5080
X-24.819 Y-48.519
X-24.879 Y-48.063
G3 X-25.772 Y-45.342 I-11.556 J-2.289
X-33.673 Y-33.682 I-37.107 J-16.638
X-47.079 Y-24.321 I-30.097 J-28.822
G1 X-47.183 Y-24.303
X-47.287 Y-24.295
X-50.7
X-50.724 Y-24.297 Z-3.043 F711.2
G3 X-51.007 Y-24.624 Z-0.625 I0.035 J-0.316 F5080
X-50.908 Y-24.843 I0.317 J0.011
G1 X-25.332 Y-49.207
G3 X-25.124 Y-49.294 I0.219 J0.23
X-24.797 Y-49.012 Z-3.043 I0.011 J0.317
G1 X-24.795 Y-48.988 Z-3.165 F711.2
Y-45.772 F5080
X-24.812 Y-45.443
X-24.859 Y-45.083
X-24.959 Y-44.618
G3 X-26.07 Y-41.951 I-11.695 J-3.308
X-35.318 Y-30.367 I-36.996 J-20.053
X-44.154 Y-24.326 I-28.25 J-31.839
G1 X-44.271 Y-24.305
X-44.388 Y-24.295
X-47.287
X-47.311 Y-24.297 Z-3.043 F711.2
G3 X-47.594 Y-24.624 Z-0.625 I0.035 J-0.316 F5080
X-47.495 Y-24.843 I0.317 J0.011
G1 X-25.332 Y-45.991
G3 X-25.124 Y-46.079 I0.219 J0.23
X-24.797 Y-45.796 Z-3.043 I0.011 J0.317
G1 X-24.795 Y-45.772 Z-3.165 F711.2
Y-43.064 F5080
G3 X-25.085 Y-41.537 I-4.688 J-0.096
X-26.417 Y-38.897 I-12.269 J-4.538
X-38.736 Y-26.109 I-37.016 J-23.329
X-41.534 Y-24.335 I-20.454 J-29.173
G1 X-41.662 Y-24.307
X-41.792 Y-24.295
X-44.388
X-44.412 Y-24.297 Z-3.043 F711.2
G3 X-44.694 Y-24.624 Z-0.625 I0.035 J-0.316 F5080
X-44.596 Y-24.842 I0.317 J0.011
G1 X-25.332 Y-43.283
G3 X-25.124 Y-43.371 I0.22 J0.229
X-24.797 Y-43.088 Z-3.043 I0.011 J0.317
G1 X-24.795 Y-43.064 Z-3.165 F711.2
Y-40.526 F5080
G3 X-25.041 Y-39.237 I-4.032 J-0.101
X-26.353 Y-36.744 I-10.255 J-3.803
X-33.747 Y-28.406 I-35.725 J-24.231
X-39.121 Y-24.345 I-28.64 J-32.318
G1 X-39.263 Y-24.309
X-39.406 Y-24.295
X-41.792
X-41.816 Y-24.297 Z-3.043 F711.2
G3 X-42.098 Y-24.624 Z-0.625 I0.035 J-0.316 F5080
X-42 Y-24.843 I0.317 J0.011
G1 X-25.332 Y-40.745
G3 X-25.124 Y-40.832 I0.219 J0.23
X-24.797 Y-40.55 Z-3.043 I0.011 J0.317
G1 X-24.795 Y-40.526 Z-3.165 F711.2
Y-38.157 F5080
G3 X-25.197 Y-36.586 I-4.15 J-0.225
X-26.729 Y-34.093 I-11.306 J-5.229
X-36.871 Y-24.352 I-35.98 J-27.312
G1 X-37.021 Y-24.311
X-37.173 Y-24.295
X-39.406
X-39.429 Y-24.297 Z-3.043 F711.2
G3 X-39.712 Y-24.624 Z-0.625 I0.035 J-0.316 F5080
X-39.613 Y-24.843 I0.317 J0.011
G1 X-25.331 Y-38.376
G3 X-25.124 Y-38.463 I0.218 J0.23
X-24.797 Y-38.18 Z-3.043 I0.011 J0.317
G1 X-24.795 Y-38.157 Z-3.165 F711.2
Y-35.956 F5080
G3 X-25.171 Y-34.523 I-3.81 J-0.232
G1 X-25.441 Y-33.97
G3 X-27.166 Y-31.545 I-13.623 J-7.862
X-34.736 Y-24.359 I-34.915 J-29.199
G1 X-34.895 Y-24.313
X-35.056 Y-24.295
X-37.173
X-37.197 Y-24.297 Z-3.043 F711.2
G3 X-37.479 Y-24.624 Z-0.625 I0.035 J-0.316 F5080
X-37.38 Y-24.844 I0.317 J0.011
G1 X-25.33 Y-36.177
G3 X-25.124 Y-36.263 I0.218 J0.231
X-24.797 Y-35.98 Z-3.043 I0.011 J0.317
G1 X-24.795 Y-35.956 Z-3.165 F711.2
Y-33.926 F5080
G3 X-25.131 Y-32.589 I-3.501 J-0.167
G1 X-25.359 Y-32.115
G3 X-27.098 Y-29.721 I-11.439 J-6.487
X-32.567 Y-24.463 I-33.623 J-29.493
G1 X-32.708 Y-24.371
X-32.866 Y-24.315
X-33.033 Y-24.295
X-35.056
X-35.08 Y-24.297 Z-3.043 F711.2
G3 X-35.362 Y-24.624 Z-0.625 I0.035 J-0.316 F5080
X-35.262 Y-24.845 I0.317 J0.011
G1 X-25.33 Y-34.146
G3 X-25.124 Y-34.232 I0.217 J0.232
X-24.797 Y-33.95 Z-3.043 I0.011 J0.317
G1 X-24.795 Y-33.926 Z-3.165 F711.2
Y-31.971 F5080
G3 X-25.109 Y-30.688 I-3.279 J-0.121
G1 X-25.316 Y-30.257
G3 X-27.024 Y-27.957 I-10.209 J-5.799
X-30.738 Y-24.372 I-28.241 J-25.534
G1 X-30.91 Y-24.317
X-31.086 Y-24.295
X-33.033
X-33.057 Y-24.297 Z-3.043 F711.2
G3 X-33.339 Y-24.624 Z-0.625 I0.035 J-0.316 F5080
X-33.238 Y-24.845 I0.317 J0.011
G1 X-25.329 Y-32.192
G3 X-25.124 Y-32.277 I0.216 J0.233
X-24.797 Y-31.995 Z-3.043 I0.011 J0.317
G1 X-24.795 Y-31.971 Z-3.165 F711.2
Y-30.033 F5080
G3 X-25.285 Y-28.448 I-3.509 J-0.215
G1 X-25.571 Y-27.955
G3 X-27.487 Y-25.678 I-12.004 J-8.157
X-28.852 Y-24.379 I-12.166 J-11.422
G1 X-29.028 Y-24.318
X-29.21 Y-24.295
X-31.086
X-31.11 Y-24.297 Z-3.043 F711.2
G3 X-31.393 Y-24.624 Z-0.625 I0.035 J-0.316 F5080
X-31.289 Y-24.848 I0.317 J0.011
G1 X-25.326 Y-30.257
G3 X-25.124 Y-30.339 I0.213 J0.235
X-24.797 Y-30.057 Z-3.043 I0.011 J0.317
G1 X-24.795 Y-30.033 Z-3.165 F711.2
Y-28.171 F5080
G3 X-25.271 Y-26.65 I-3.349 J-0.212
G1 X-25.538 Y-26.195
G3 X-27.05 Y-24.4 I-8.138 J-5.32
G1 X-27.24 Y-24.323
X-27.441 Y-24.295
X-27.465 Y-24.297 Z-3.043 F711.2
G3 X-27.747 Y-24.624 Z-0.625 I0.035 J-0.316 F5080
X-27.696 Y-24.786 I0.317 J0.011
G1 X-25.379 Y-28.334
G3 X-25.124 Y-28.478 I0.266 J0.174
X-24.797 Y-28.195 Z-3.043 I0.011 J0.317
G1 X-24.795 Y-28.171 Z-3.165 F711.2
Y-26.479 F5080
G3 X-25.239 Y-24.937 I-3.174 J-0.078
G1 X-25.416 Y-24.63
G3 X-26.036 Y-24.295 I-0.621 J-0.409
G1 X-26.06 Y-24.297 Z-3.043 F711.2
G3 X-26.342 Y-24.624 Z-0.625 I0.035 J-0.316 F5080
X-26.31 Y-24.753 I0.317 J0.011
G1 X-25.398 Y-26.608
G3 X-25.124 Y-26.785 I0.285 J0.14
X-24.797 Y-26.503 Z-3.043 I0.011 J0.317
G1 X-24.795 Y-26.479 Z-3.165 F711.2
Y-24.787 F5080
G3 X-24.831 Y-24.477 I-0.681 J0.078
G1 X-24.849 Y-24.448
G3 X-24.962 Y-24.426 I-0.07 J-0.057 F711.2
X-25.009 Y-24.52 I0.043 J-0.08 F5080
G1 X-24.975 Y-24.727
G3 X-24.872 Y-24.802 I0.089 J0.014
X-24.796 Y-24.716 I-0.014 J0.089 F711.2
G1 Y-24.617 F5080
X-24.799 Y-24.575
X-24.809 Y-24.533
X-24.825 Y-24.49
X-24.849 Y-24.448
X-24.872 Y-24.418
X-24.903 Y-24.387
X-24.956 Y-24.345
X-24.998 Y-24.323
X-25.041 Y-24.307 F2540
X-25.083 Y-24.299 F5080
X-25.125 Y-24.296
X-29.21 Y-24.295
X-29.234 Y-24.297 Z-3.043 F711.2
X-29.252 Y-24.3 Z-2.953 F5080
G2 X-29.299 Y-24.304 Z-2.71 I-0.052 J0.313
G1 X-29.708 Y-24.31 Z-0.625
X-75.944 Y-25.038
G2 X-76.257 Y-24.646 I-0.005 J0.317
X-76.048 Y-24.419 Z-2.266 I0.309 J-0.074
G3 X-76.043 Y-24.301 Z-3.043 I-0.02 J0.06
X-76.066 Y-24.295 Z-3.165 I-0.025 J-0.058 F711.2
G1 X-79.451 F5080
X-79.895 Y-24.318
X-80.29 Y-24.369
G3 X-82.888 Y-25.27 I1.954 J-9.835
X-91.56 Y-31.012 I17.432 J-35.745
X-88.169 Y-98.139 I27.755 J-32.247
X-81.257 Y-102.078 I23.455 J33.121
G1 X-81.152 Y-102.097
X-81.047 Y-102.104
X-77.751
X-77.727 Y-102.103 Z-3.043 F711.2
G3 X-77.444 Y-101.78 Z-0.645 I-0.035 J0.316 F5080
G1 Y-101.776 Z-0.625
X-79.144 Y-24.624
X-79.145 Y-24.606 Z-0.716
G3 X-79.427 Y-24.297 Z-3.043 I-0.317 J-0.007
G1 X-79.451 Y-24.295 Z-3.165 F711.2
X-82.328 F5080
G3 X-84.017 Y-24.61 I0.073 J-5.091
X-86.685 Y-25.927 I4.98 J-13.443
X-104.002 Y-45.851 I22.595 J-37.126
X-84.135 Y-102.071 I40.243 J-17.399
G1 X-84.014 Y-102.095
X-83.893 Y-102.104
X-81.047
X-81.023 Y-102.103 Z-3.043 F711.2
G3 X-80.741 Y-101.782 Z-0.653 I-0.035 J0.316 F5080
G1 Y-101.776 Z-0.625
X-82.021 Y-24.624
X-82.022 Y-24.608 Z-0.707
G3 X-82.304 Y-24.297 Z-3.043 I-0.317 J-0.005
G1 X-82.328 Y-24.295 Z-3.165 F711.2
X-85.036 F5080
G3 X-86.361 Y-24.554 I0.132 J-4.21
X-88.903 Y-25.87 I4.057 J-10.946
X-98.785 Y-34.857 I23.862 J-36.165
X-86.719 Y-102.06 I35 J-28.401
G1 X-86.588 Y-102.092
X-86.455 Y-102.104
X-83.893
X-83.869 Y-102.103 Z-3.043 F711.2
G3 X-83.587 Y-101.782 Z-0.656 I-0.035 J0.316 F5080
G1 Y-101.776 Z-0.625
X-84.729 Y-24.624
Y-24.608 Z-0.704
G3 X-85.012 Y-24.297 Z-3.043 I-0.317 J-0.005
G1 X-85.036 Y-24.295 Z-3.165 F711.2
X-87.405 F5080
G3 X-88.591 Y-24.524 I0.108 J-3.757
G1 X-89.089 Y-24.716
G3 X-91.63 Y-26.262 I5.677 J-12.199
X-103.532 Y-39.451 I27.044 J-36.369
X-89.103 Y-102.058 I39.755 J-23.804
G1 X-88.962 Y-102.091
X-88.82 Y-102.104
X-86.455
X-86.431 Y-102.103 Z-3.043 F711.2
G3 X-86.149 Y-101.783 Z-0.66 I-0.035 J0.316 F5080
G1 Y-101.776 Z-0.625
X-87.099 Y-24.624
Y-24.609 Z-0.7
G3 X-87.381 Y-24.297 Z-3.043 I-0.317 J-0.004
G1 X-87.405 Y-24.295 Z-3.165 F711.2
X-89.605 F5080
G3 X-91.15 Y-24.675 I0.139 J-3.9
G1 X-91.72 Y-24.949
G3 X-94.16 Y-26.652 I8.074 J-14.173
X-109.035 Y-48.537 I29.972 J-36.369
X-91.47 Y-101.962 I45.263 J-14.718
G1 X-91.338 Y-102.041
X-91.191 Y-102.088
X-91.037 Y-102.104
X-88.82
X-88.796 Y-102.103 Z-3.043 F711.2
G3 X-88.514 Y-101.784 Z-0.664 I-0.035 J0.316 F5080
G1 Y-101.776 Z-0.625
X-89.299 Y-24.624
Y-24.61 Z-0.697
G3 X-89.581 Y-24.297 Z-3.043 I-0.317 J-0.003
G1 X-89.605 Y-24.295 Z-3.165 F711.2
X-91.805 F5080
G3 X-93.195 Y-24.666 I0.227 J-3.645
G1 X-93.717 Y-24.924
G3 X-96.119 Y-26.679 I7.368 J-12.611
X-106.74 Y-40.01 I31.396 J-35.909
X-93.592 Y-101.947 I42.959 J-23.245
G1 X-93.457 Y-102.035
X-93.303 Y-102.087
X-93.143 Y-102.104
X-91.037
X-91.014 Y-102.103 Z-3.043 F711.2
G3 X-90.731 Y-101.784 Z-0.664 I-0.035 J0.316 F5080
G1 Y-101.776 Z-0.625
X-91.499 Y-24.624
Y-24.61 Z-0.696
G3 X-91.781 Y-24.297 Z-3.043 I-0.317 J-0.003
G1 X-91.805 Y-24.295 Z-3.165 F711.2
X-93.667 F5080
G3 X-95.067 Y-24.622 I0.058 J-3.414
G1 X-95.506 Y-24.833
G3 X-97.838 Y-26.552 I6.027 J-10.618
X-105.138 Y-34.979 I31.486 J-34.652
X-95.626 Y-101.931 I41.346 J-28.278
G1 X-95.487 Y-102.027
X-95.326 Y-102.085
X-95.157 Y-102.104
X-93.143
X-93.119 Y-102.103 Z-3.043 F711.2
G3 X-92.836 Y-101.785 Z-0.669 I-0.035 J0.316 F5080
G1 Y-101.776 Z-0.625
X-93.36 Y-24.624
X-93.361 Y-24.611 Z-0.691
G3 X-93.643 Y-24.297 Z-3.043 I-0.317 J-0.002
G1 X-93.667 Y-24.295 Z-3.165 F711.2
X-95.698 F5080
G3 X-97.329 Y-24.797 I0.207 J-3.578
G1 X-97.842 Y-25.094
G3 X-100.126 Y-27.001 I8.532 J-12.545
X-110.016 Y-40.893 I35.303 J-35.6
X-97.588 Y-101.917 I46.239 J-22.36
G1 X-97.443 Y-102.02
X-97.276 Y-102.083
X-97.099 Y-102.104
X-95.157
X-95.133 Y-102.103 Z-3.043 F711.2
G3 X-94.851 Y-101.785 Z-0.669 I-0.035 J0.316 F5080
G1 Y-101.776 Z-0.625
X-95.391 Y-24.624
Y-24.611 Z-0.692
G3 X-95.674 Y-24.297 Z-3.043 I-0.317 J-0.002
G1 X-95.698 Y-24.295 Z-3.165 F711.2
X-97.559 F5080
G3 X-99.116 Y-24.768 I0.177 J-3.381
G1 X-99.58 Y-25.037
G3 X-101.842 Y-26.968 I7.561 J-11.15
X-109.42 Y-37.075 I35.907 J-34.817
X-99.476 Y-101.908 I45.633 J-26.18
G1 X-99.331 Y-102.017
X-99.162 Y-102.082
X-98.981 Y-102.104
X-97.099
X-97.076 Y-102.103 Z-3.043 F711.2
G3 X-96.793 Y-101.785 Z-0.671 I-0.035 J0.316 F5080
G1 Y-101.776 Z-0.625
X-97.253 Y-24.624
Y-24.611 Z-0.69
G3 X-97.536 Y-24.297 Z-3.043 I-0.317 J-0.002
G1 X-97.559 Y-24.295 Z-3.165 F711.2
X-99.421 F5080
G3 X-100.915 Y-24.77 I0.217 J-3.268
G1 X-101.353 Y-25.031
G3 X-103.561 Y-26.974 I7.294 J-10.512
X-110.208 Y-35.93 I36.656 J-34.153
X-101.32 Y-101.892 I46.415 J-27.326
G1 X-101.172 Y-102.009
X-100.996 Y-102.08
X-100.809 Y-102.104
X-98.981
X-98.957 Y-102.103 Z-3.043 F711.2
G3 X-98.675 Y-101.785 Z-0.671 I-0.035 J0.316 F5080
G1 Y-101.776 Z-0.625
X-99.115 Y-24.624
Y-24.611 Z-0.689
G3 X-99.397 Y-24.297 Z-3.043 I-0.317 J-0.002
G1 X-99.421 Y-24.295 Z-3.165 F711.2
X-101.113 F5080
G3 X-102.577 Y-24.725 I0.111 J-3.088
G1 X-102.978 Y-24.957
G3 X-105.12 Y-26.843 I6.372 J-9.394
X-110.492 Y-33.974 I35.705 J-32.487
X-103.119 Y-101.875 I46.694 J-29.281
G1 X-102.969 Y-102.002
X-102.787 Y-102.078
X-102.592 Y-102.104
X-100.809
X-100.785 Y-102.103 Z-3.043 F711.2
G3 X-100.502 Y-101.786 Z-0.674 I-0.035 J0.316 F5080
G1 Y-101.776 Z-0.625
X-100.807 Y-24.624
Y-24.612 Z-0.687
G3 X-101.09 Y-24.297 Z-3.043 I-0.317 J-0.001
G1 X-101.113 Y-24.295 Z-3.165 F711.2
X-102.806 F5080
G3 X-104.267 Y-24.715 I0.078 J-3.029
G1 X-104.643 Y-24.933
G3 X-106.736 Y-26.801 I5.94 J-8.76
X-111.605 Y-33.381 I35.398 J-31.281
X-104.87 Y-101.868 I47.805 J-29.873
G1 X-104.718 Y-101.998
X-104.534 Y-102.077
X-104.335 Y-102.104
X-102.592
X-102.568 Y-102.103 Z-3.043 F711.2
G3 X-102.285 Y-101.786 Z-0.676 I-0.035 J0.316 F5080
G1 Y-101.776 Z-0.625
X-102.499 Y-24.624
Y-24.612 Z-0.685
G3 X-102.782 Y-24.297 Z-3.043 I-0.317 J-0.001
G1 X-102.806 Y-24.295 Z-3.165 F711.2
X-104.498 F5080
G3 X-105.922 Y-24.701 I0.071 J-2.949
G1 X-106.28 Y-24.909
G3 X-108.334 Y-26.765 I5.579 J-8.236
X-112.714 Y-32.782 I34.665 J-29.837
X-106.594 Y-101.852 I48.911 J-30.472
G1 X-106.441 Y-101.991
X-106.252 Y-102.075
X-106.046 Y-102.104
X-104.335
X-104.311 Y-102.103 Z-3.043 F711.2
G3 X-104.029 Y-101.787 Z-0.677 I-0.035 J0.316 F5080
G1 Y-101.776 Z-0.625
X-104.192 Y-24.624
Y-24.612 Z-0.684
G3 X-104.474 Y-24.297 Z-3.043 I-0.317 J-0.001
G1 X-104.498 Y-24.295 Z-3.165 F711.2
X-106.191 F5080
G3 X-107.551 Y-24.688 I0.089 J-2.864
G1 X-107.895 Y-24.887
G3 X-109.882 Y-26.697 I5.29 J-7.804
X-113.794 Y-32.135 I33.11 J-27.944
X-108.28 Y-101.845 I49.99 J-31.119
G1 X-108.125 Y-101.987
X-107.934 Y-102.075
X-107.725 Y-102.104
X-106.046
X-106.023 Y-102.103 Z-3.043 F711.2
G3 X-105.74 Y-101.787 Z-0.677 I-0.035 J0.316 F5080
G1 Y-101.776 Z-0.625
X-105.884 Y-24.624
Y-24.612 Z-0.683
G3 X-106.167 Y-24.297 Z-3.043 I-0.318 J-0.001
G1 X-106.191 Y-24.295 Z-3.165 F711.2
X-107.883 F5080
G3 X-109.18 Y-24.688 I0.138 J-2.794
G1 X-109.524 Y-24.891
G3 X-111.465 Y-26.692 I5.215 J-7.565
X-115.3 Y-32.184 I33.142 J-27.228
X-109.925 Y-101.854 I51.495 J-31.07
G1 X-109.771 Y-101.991
X-109.582 Y-102.076
X-109.378 Y-102.104
X-107.725
X-107.701 Y-102.103 Z-3.043 F711.2
G3 X-107.419 Y-101.787 Z-0.677 I-0.035 J0.316 F5080
G1 Y-101.776 Z-0.625
X-107.577 Y-24.624
Y-24.612 Z-0.683
G3 X-107.859 Y-24.297 Z-3.043 I-0.318 J-0.001
G1 X-107.883 Y-24.295 Z-3.165 F711.2
X-109.499 F5080
G3 X-110.774 Y-24.683 I0.134 J-2.734
G1 X-111.107 Y-24.88
X-111.497 Y-25.159
G3 X-113.471 Y-27.236 I7.208 J-8.827
X-117.869 Y-34.141 I40.154 J-30.428
X-111.565 Y-101.843 I54.081 J-29.108
G1 X-111.406 Y-101.984
X-111.213 Y-102.074
X-111.002 Y-102.104
X-109.378
X-109.354 Y-102.103 Z-3.043 F711.2
G3 X-109.071 Y-101.787 Z-0.678 I-0.035 J0.316 F5080
G1 Y-101.776 Z-0.625
X-109.193 Y-24.624
Y-24.612 Z-0.683
G3 X-109.475 Y-24.297 Z-3.043 I-0.318 J0
G1 X-109.499 Y-24.295 Z-3.165 F711.2
X-111.098 F5080
G3 X-112.357 Y-24.682 I0.136 J-2.684
G1 X-112.686 Y-24.879
X-113.062 Y-25.151
G3 X-115.006 Y-27.227 I7 J-8.5
X-119.319 Y-34.186 I40.484 J-29.907
X-113.182 Y-101.83 I55.529 J-29.063
G1 X-113.022 Y-101.978
X-112.824 Y-102.072
X-112.608 Y-102.104
X-111.002
X-110.978 Y-102.103 Z-3.043 F711.2
G3 X-110.695 Y-101.787 Z-0.678 I-0.035 J0.316 F5080
G1 Y-101.776 Z-0.625
X-110.792 Y-24.624
Y-24.612 Z-0.682
G3 X-111.075 Y-24.297 Z-3.043 I-0.317 J0
G1 X-111.099 Y-24.295 Z-3.165 F711.2
X-112.622 F5080
G3 X-114.169 Y-24.835 I0.13 J-2.864
G1 X-114.53 Y-25.082
G3 X-116.448 Y-27.112 I6.271 J-7.846
X-120.354 Y-33.448 I38.634 J-28.186
X-114.768 Y-101.833 I56.56 J-29.801
G1 X-114.607 Y-101.979
X-114.411 Y-102.073
X-114.195 Y-102.104
X-112.608
X-112.584 Y-102.103 Z-3.043 F711.2
G3 X-112.301 Y-101.787 Z-0.68 I-0.035 J0.316 F5080
G1 Y-101.776 Z-0.625
X-112.315 Y-24.624
Y-24.613 Z-0.68
G3 X-112.598 Y-24.297 Z-3.043 I-0.318 J0
G1 X-112.622 Y-24.295 Z-3.165 F711.2
X-114.145 F5080
G3 X-115.71 Y-24.831 I0.095 J-2.831
G1 X-116.049 Y-25.063
G3 X-117.926 Y-27.061 I6.034 J-7.547
X-121.423 Y-32.775 I36.709 J-26.399
X-116.367 Y-101.795 I57.63 J-30.473
G1 X-116.208 Y-101.963
X-116.001 Y-102.068
X-115.772 Y-102.104
X-114.195
X-114.171 Y-102.103 Z-3.043 F711.2
G3 X-113.889 Y-101.787 Z-0.681 I-0.035 J0.316 F5080
G1 Y-101.776 Z-0.625
X-113.838 Y-24.624
Y-24.613 Z-0.679
G3 X-114.121 Y-24.297 Z-3.043 I-0.317 J0
G1 X-114.145 Y-24.295 Z-3.165 F711.2
X-115.761 F5080
G3 X-117.256 Y-24.839 I0.175 J-2.809
G1 X-117.587 Y-25.069
G3 X-119.434 Y-27.069 I6.017 J-7.409
X-122.869 Y-32.821 I36.756 J-25.848
X-117.92 Y-101.794 I59.073 J-30.426
G1 X-117.758 Y-101.961
X-117.551 Y-102.068
X-117.32 Y-102.104
X-115.772
X-115.748 Y-102.103 Z-3.043 F711.2
G3 X-115.465 Y-101.787 Z-0.68 I-0.035 J0.316 F5080
G1 Y-101.776 Z-0.625
X-115.455 Y-24.624
Y-24.613 Z-0.68
G3 X-115.737 Y-24.297 Z-3.043 I-0.317 J0
G1 X-115.761 Y-24.295 Z-3.165 F711.2
X-117.284 F5080
G3 X-118.756 Y-24.828 I0.166 J-2.761
G1 X-119.078 Y-25.051
G3 X-120.89 Y-27.02 I5.802 J-7.159
X-123.934 Y-32.138 I34.227 J-23.82
X-119.454 Y-101.802 I60.135 J-31.109
G1 X-119.287 Y-101.964
X-119.081 Y-102.068
X-118.853 Y-102.104
X-117.32
X-117.296 Y-102.103 Z-3.043 F711.2
G3 X-117.014 Y-101.787 Z-0.681 I-0.035 J0.316 F5080
G1 Y-101.776 Z-0.625
X-116.978 Y-24.624
Y-24.613 Z-0.679
G3 X-117.26 Y-24.297 Z-3.043 I-0.318 J0
G1 X-117.284 Y-24.295 Z-3.165 F711.2
X-118.714 F5080
G3 X-120.233 Y-24.811 I0.074 J-2.709
G1 X-120.543 Y-25.024
G3 X-122.319 Y-26.947 I5.513 J-6.876
X-125.323 Y-32.088 I33.272 J-22.887
X-120.976 Y-101.807 I61.516 J-31.159
G1 X-120.808 Y-101.966
X-120.603 Y-102.069
X-120.376 Y-102.104
X-118.853
X-118.829 Y-102.103 Z-3.043 F711.2
G3 X-118.546 Y-101.788 Z-0.683 I-0.035 J0.316 F5080
G1 Y-101.776 Z-0.625
X-118.408 Y-24.624
Y-24.613 Z-0.677
G3 X-118.69 Y-24.297 Z-3.043 I-0.317 J0.001
G1 X-118.714 Y-24.295 Z-3.165 F711.2
X-120.238 F5080
G3 X-121.715 Y-24.804 I0.095 J-2.674
G1 X-122.025 Y-25.018
G3 X-123.773 Y-26.921 I5.393 J-6.707
X-126.398 Y-31.422 I30.529 J-20.825
X-122.484 Y-101.815 I62.588 J-31.825
G1 X-122.319 Y-101.97
X-122.117 Y-102.07
X-121.893 Y-102.104
X-120.376
X-120.352 Y-102.103 Z-3.043 F711.2
G3 X-120.07 Y-101.788 Z-0.683 I-0.035 J0.316 F5080
G1 Y-101.776 Z-0.625
X-119.931 Y-24.624
Y-24.613 Z-0.677
G3 X-120.214 Y-24.297 Z-3.043 I-0.318 J0.001
G1 X-120.238 Y-24.295 Z-3.165 F711.2
X-121.761 F5080
G3 X-123.186 Y-24.797 I0.129 J-2.644
G1 X-123.491 Y-25.007
X-123.854 Y-25.31
G3 X-125.63 Y-27.512 I7.234 J-7.654
X-128.77 Y-33.431 I41.038 J-25.564
X-123.988 Y-101.813 I64.964 J-29.815
G1 X-123.822 Y-101.969
X-123.619 Y-102.07
X-123.394 Y-102.104
X-121.893
X-121.869 Y-102.103 Z-3.043 F711.2
G3 X-121.587 Y-101.788 Z-0.683 I-0.035 J0.316 F5080
G1 Y-101.776 Z-0.625
X-121.454 Y-24.624
Y-24.613 Z-0.677
G3 X-121.737 Y-24.297 Z-3.043 I-0.317 J0.001
G1 X-121.761 Y-24.295 Z-3.165 F711.2
X-123.284 F5080
G3 X-124.724 Y-24.84 I0.185 J-2.666
G1 X-125.047 Y-25.073
G3 X-126.755 Y-27.021 I5.619 J-6.649
X-129.288 Y-31.575 I31.226 J-20.346
X-125.5 Y-101.778 I65.464 J-31.672
X-124.878 Y-102.105 I0.635 J0.453
G1 X-123.394 Y-102.104
X-123.37 Y-102.103 Z-3.043 F711.2
G3 X-123.088 Y-101.788 Z-0.682 I-0.035 J0.316 F5080
G1 Y-101.776 Z-0.625
X-122.977 Y-24.624
Y-24.613 Z-0.678
G3 X-123.26 Y-24.297 Z-3.043 I-0.318 J0
G1 X-123.284 Y-24.295 Z-3.165 F711.2
X-124.731 F5080
G3 X-126.138 Y-24.808 I0.152 J-2.605
G1 X-126.431 Y-25.013
X-126.789 Y-25.319
G3 X-128.52 Y-27.521 I7.104 J-7.364
X-131.56 Y-33.491 I41.176 J-24.725
X-126.983 Y-101.776 I67.735 J-29.756
X-126.357 Y-102.105 I0.643 J0.462
G1 X-124.878 Y-102.104
X-124.854 Y-102.103 Z-3.043 F711.2
G3 X-124.571 Y-101.788 Z-0.683 I-0.035 J0.316 F5080
G1 Y-101.776 Z-0.625
X-124.424 Y-24.624
Y-24.613 Z-0.677
G3 X-124.707 Y-24.297 Z-3.043 I-0.317 J0.001
G1 X-124.731 Y-24.295 Z-3.165 F711.2
X-126.161 F5080
G3 X-127.553 Y-24.784 I0.116 J-2.56
G1 X-127.843 Y-24.984
G3 X-129.492 Y-26.81 I4.937 J-6.118
X-131.665 Y-30.712 I25.855 J-16.952
X-139.062 Y-63.873 I67.699 J-32.506
X-128.452 Y-101.773 I75.075 J0.581
X-127.826 Y-102.105 I0.639 J0.448
G1 X-126.357 Y-102.104
X-126.333 Y-102.103 Z-3.043 F711.2
G3 X-126.05 Y-101.788 Z-0.684 I-0.035 J0.316 F5080
G1 Y-101.776 Z-0.625
X-125.854 Y-24.624
Y-24.614 Z-0.676
G3 X-126.137 Y-24.297 Z-3.043 I-0.317 J0.001
G1 X-126.161 Y-24.295 Z-3.165 F711.2
X-127.684 F5080
G3 X-128.856 Y-24.691 I0.151 J-2.385
X-130.206 Y-25.87 I2.864 J-4.64
X-131.852 Y-28.348 I11.038 J-9.117
X-135.5 Y-36.502 I53.963 J-29.032
X-129.959 Y-101.705 I71.646 J-26.749
G1 X-129.891 Y-101.793
X-129.727 Y-101.96
X-129.519 Y-102.067
X-129.287 Y-102.104
X-127.826
X-127.802 Y-102.103 Z-3.043 F711.2
G3 X-127.52 Y-101.788 Z-0.683 I-0.035 J0.316 F5080
G1 Y-101.776 Z-0.625
X-127.378 Y-24.624
Y-24.613 Z-0.677
G3 X-127.66 Y-24.297 Z-3.043 I-0.317 J0.001
G1 X-127.684 Y-24.295 Z-3.165 F711.2
X-129.038 F5080
G3 X-130.402 Y-24.763 I0.094 J-2.496
G1 X-130.688 Y-24.96
X-131.014 Y-25.231
G3 X-132.673 Y-27.328 I6.332 J-6.714
X-135.321 Y-32.663 I36.351 J-21.365
X-131.482 Y-101.586 I71.469 J-30.588
G1 X-131.354 Y-101.777
G3 X-130.739 Y-102.104 I0.615 J0.413
G1 X-129.287
X-129.263 Y-102.103 Z-3.043 F711.2
G3 X-128.981 Y-101.788 Z-0.685 I-0.035 J0.316 F5080
G1 Y-101.776 Z-0.625
X-128.732 Y-24.624
Y-24.614 Z-0.675
G3 X-129.014 Y-24.297 Z-3.043 I-0.317 J0.001
G1 X-129.038 Y-24.295 Z-3.165 F711.2
X-130.485 F5080
G3 X-131.821 Y-24.758 I0.111 J-2.485
G1 X-132.117 Y-24.962
X-132.43 Y-25.223
G3 X-134.083 Y-27.321 I6.224 J-6.603
X-136.403 Y-31.988 I33.646 J-19.639
X-132.908 Y-101.622 I72.541 J-31.263
G1 X-132.801 Y-101.776
G3 X-132.185 Y-102.104 I0.615 J0.413
G1 X-130.739
X-130.715 Y-102.103 Z-3.043 F711.2
G3 X-130.432 Y-101.788 Z-0.686 I-0.035 J0.316 F5080
G1 Y-101.776 Z-0.625
X-130.179 Y-24.624
Y-24.614 Z-0.675
G3 X-130.461 Y-24.297 Z-3.043 I-0.318 J0.001
G1 X-130.485 Y-24.295 Z-3.165 F711.2
X-131.915 F5080
G3 X-133.25 Y-24.762 I0.117 J-2.478
G1 X-133.547 Y-24.969
X-133.855 Y-25.227
G3 X-135.492 Y-27.324 I6.187 J-6.517
X-137.781 Y-32.005 I33.466 J-19.264
X-134.336 Y-101.64 I73.905 J-31.246
G1 X-134.238 Y-101.776
G3 X-133.622 Y-102.104 I0.616 J0.412
G1 X-132.185
X-132.161 Y-102.103 Z-3.043 F711.2
G3 X-131.879 Y-101.788 Z-0.686 I-0.035 J0.316 F5080
G1 Y-101.776 Z-0.625
X-131.609 Y-24.624
Y-24.614 Z-0.675
G3 X-131.891 Y-24.297 Z-3.043 I-0.318 J0.001
G1 X-131.915 Y-24.295 Z-3.165 F711.2
X-133.362 F5080
G3 X-134.712 Y-24.792 I0.147 J-2.485
G1 X-135.018 Y-25.011
X-135.323 Y-25.276
G3 X-136.953 Y-27.425 I6.465 J-6.596
X-139.199 Y-32.127 I34.347 J-19.294
X-135.948 Y-101.304 I75.323 J-31.125
G1 X-135.712 Y-101.711
G3 X-135.052 Y-102.105 I0.671 J0.375
G1 X-133.622 Y-102.104
X-133.598 Y-102.103 Z-3.043 F711.2
G3 X-133.316 Y-101.788 Z-0.686 I-0.035 J0.316 F5080
G1 Y-101.776 Z-0.625
X-133.056 Y-24.624
Y-24.614 Z-0.675
G3 X-133.338 Y-24.297 Z-3.043 I-0.318 J0.001
G1 X-133.362 Y-24.295 Z-3.165 F711.2
X-134.792 F5080
G3 X-136.149 Y-24.809 I0.164 J-2.484
G1 X-136.448 Y-25.028
X-136.763 Y-25.307
G3 X-138.384 Y-27.484 I6.584 J-6.592
X-140.593 Y-32.204 I34.892 J-19.21
X-137.298 Y-101.446 I76.708 J-31.049
G1 X-137.088 Y-101.785
G3 X-136.478 Y-102.105 I0.61 J0.422
G1 X-135.051 Y-102.104
X-135.028 Y-102.103 Z-3.043 F711.2
G3 X-134.745 Y-101.788 Z-0.686 I-0.035 J0.316 F5080
G1 Y-101.776 Z-0.625
X-134.486 Y-24.624
Y-24.614 Z-0.675
G3 X-134.768 Y-24.297 Z-3.043 I-0.318 J0.001
G1 X-134.792 Y-24.295 Z-3.165 F711.2
X-136.146 F5080
G3 X-137.483 Y-24.763 I0.1 J-2.43
X-138.814 Y-26.028 I3.097 J-4.589
X-140.35 Y-28.576 I11.39 J-8.606
X-143.415 Y-36.17 I56.11 J-27.058
X-138.793 Y-101.296 I79.52 J-27.084
G1 X-138.572 Y-101.688
G3 X-137.896 Y-102.104 I0.681 J0.348
G1 X-136.478
X-136.454 Y-102.103 Z-3.043 F711.2
G3 X-136.172 Y-101.789 Z-0.687 I-0.035 J0.316 F5080
G1 Y-101.776 Z-0.625
X-135.84 Y-24.624
Y-24.614 Z-0.673
G3 X-136.122 Y-24.297 Z-3.043 I-0.317 J0.001
G1 X-136.146 Y-24.295 Z-3.165 F711.2
X-137.593 F5080
G3 X-138.925 Y-24.791 I0.149 J-2.437
G1 X-139.223 Y-25.007
X-139.522 Y-25.269
G3 X-141.108 Y-27.392 I6.281 J-6.344
X-143.277 Y-32.13 I33.179 J-18.061
X-140.101 Y-101.504 I79.36 J-31.126
G1 X-139.944 Y-101.75
G3 X-139.312 Y-102.104 I0.632 J0.386
G1 X-137.896
X-137.872 Y-102.103 Z-3.043 F711.2
G3 X-137.59 Y-101.788 Z-0.687 I-0.035 J0.316 F5080
G1 Y-101.776 Z-0.625
X-137.287 Y-24.624
Y-24.614 Z-0.674
G3 X-137.569 Y-24.297 Z-3.043 I-0.317 J0.001
G1 X-137.593 Y-24.295 Z-3.165 F711.2
X-139.023 F5080
G3 X-140.382 Y-24.834 I0.189 J-2.461
G1 X-140.689 Y-25.066
X-140.993 Y-25.344
G3 X-142.576 Y-27.547 I6.688 J-6.476
X-144.699 Y-32.306 I34.819 J-18.389
X-141.726 Y-101.065 I80.788 J-30.95
G1 X-141.459 Y-101.576
X-141.346 Y-101.757
G3 X-140.718 Y-102.104 I0.628 J0.393
G1 X-139.312
X-139.288 Y-102.103 Z-3.043 F711.2
G3 X-139.005 Y-101.788 Z-0.686 I-0.035 J0.316 F5080
G1 Y-101.776 Z-0.625
X-138.717 Y-24.624
Y-24.614 Z-0.674
G3 X-138.999 Y-24.297 Z-3.043 I-0.317 J0.001
G1 X-139.023 Y-24.295 Z-3.165 F711.2
X-140.377 F5080
G3 X-141.707 Y-24.79 I0.139 J-2.411
G1 X-141.976 Y-24.983
X-142.293 Y-25.26
G3 X-143.836 Y-27.336 I6.071 J-6.124
X-145.965 Y-32.092 I31.986 J-17.179
X-142.907 Y-101.518 I82.013 J-31.168
G1 X-142.758 Y-101.747
G3 X-142.124 Y-102.104 I0.634 J0.384
G1 X-140.718
X-140.694 Y-102.103 Z-3.043 F711.2
G3 X-140.412 Y-101.789 Z-0.687 I-0.035 J0.316 F5080
G1 Y-101.776 Z-0.625
X-140.071 Y-24.624
Y-24.614 Z-0.673
G3 X-140.353 Y-24.297 Z-3.043 I-0.317 J0.001
G1 X-140.377 Y-24.295 Z-3.165 F711.2
X-141.731 F5080
G3 X-143.02 Y-24.742 I0.099 J-2.369
X-144.294 Y-25.946 I2.928 J-4.374
X-145.809 Y-28.504 I10.308 J-7.832
X-148.495 Y-35.448 I53.47 J-24.675
X-144.329 Y-101.475 I84.566 J-27.809
G1 X-144.144 Y-101.772
G3 X-143.526 Y-102.105 I0.619 J0.41
G1 X-142.124 Y-102.104
X-142.1 Y-102.103 Z-3.043 F711.2
G3 X-141.817 Y-101.789 Z-0.688 I-0.035 J0.316 F5080
G1 Y-101.776 Z-0.625
X-141.424 Y-24.624
Y-24.614 Z-0.672
G3 X-141.707 Y-24.297 Z-3.043 I-0.317 J0.002
G1 X-141.731 Y-24.295 Z-3.165 F711.2
X-143.085 F5080
G3 X-144.387 Y-24.736 I0.071 J-2.358
X-145.643 Y-25.913 I2.833 J-4.282
X-147.154 Y-28.464 I9.916 J-7.596
X-149.812 Y-35.418 I53.026 J-24.25
X-145.726 Y-101.469 I85.862 J-27.84
G1 X-145.535 Y-101.777
G3 X-144.92 Y-102.105 I0.615 J0.414
G1 X-143.526 Y-102.104
X-143.502 Y-102.103 Z-3.043 F711.2
G3 X-143.219 Y-101.789 Z-0.689 I-0.035 J0.316 F5080
G1 Y-101.776 Z-0.625
X-142.778 Y-24.624
Y-24.615 Z-0.671
G3 X-143.061 Y-24.297 Z-3.043 I-0.317 J0.002
G1 X-143.085 Y-24.295 Z-3.165 F711.2
X-144.532 F5080
G3 X-145.845 Y-24.788 I0.145 J-2.384
G1 X-146.121 Y-24.988
X-146.416 Y-25.248
G3 X-147.94 Y-27.322 I5.956 J-5.977
X-150.005 Y-32.106 I31.156 J-16.285
X-155.402 Y-59.783 I85.436 J-31.023
X-147.291 Y-101.079 I91.118 J-3.549
G1 X-147.059 Y-101.55
X-146.941 Y-101.746
G3 X-146.306 Y-102.104 I0.635 J0.382
G1 X-144.92
X-144.896 Y-102.103 Z-3.043 F711.2
G3 X-144.613 Y-101.789 Z-0.688 I-0.035 J0.316 F5080
G1 Y-101.776 Z-0.625
X-144.225 Y-24.624
Y-24.614 Z-0.672
G3 X-144.508 Y-24.297 Z-3.043 I-0.318 J0.002
G1 X-144.532 Y-24.295 Z-3.165 F711.2
X-145.886 F5080
G3 X-147.176 Y-24.76 I0.118 J-2.353
X-148.439 Y-25.98 I2.962 J-4.328
X-149.919 Y-28.559 I10.269 J-7.61
X-152.501 Y-35.543 I54.025 J-23.939
X-148.699 Y-101.038 I88.536 J-27.718
G1 X-148.452 Y-101.533
X-148.328 Y-101.742
G3 X-147.691 Y-102.104 I0.637 J0.379
G1 X-146.306
X-146.282 Y-102.103 Z-3.043 F711.2
G3 X-145.999 Y-101.789 Z-0.689 I-0.035 J0.316 F5080
G1 Y-101.776 Z-0.625
X-145.579 Y-24.624
Y-24.615 Z-0.671
G3 X-145.862 Y-24.297 Z-3.043 I-0.318 J0.002
G1 X-145.886 Y-24.295 Z-3.165 F711.2
X-147.24 F5080
G3 X-148.513 Y-24.739 I0.098 J-2.333
X-149.743 Y-25.902 I2.807 J-4.201
X-151.223 Y-28.448 I9.677 J-7.329
X-153.567 Y-34.726 I50.076 J-22.271
X-150.105 Y-100.977 I89.593 J-28.535
G1 X-149.848 Y-101.506
X-149.683 Y-101.787
G3 X-149.075 Y-102.104 I0.608 J0.424
G1 X-147.691
X-147.667 Y-102.103 Z-3.043 F711.2
G3 X-147.384 Y-101.789 Z-0.69 I-0.035 J0.316 F5080
G1 Y-101.776 Z-0.625
X-146.933 Y-24.624
Y-24.615 Z-0.671
G3 X-147.216 Y-24.297 Z-3.043 I-0.318 J0.002
G1 X-147.24 Y-24.295 Z-3.165 F711.2
X-148.67 F5080
G3 X-149.995 Y-24.816 I0.17 J-2.379
G1 X-150.261 Y-25.016
X-150.564 Y-25.291
G3 X-152.058 Y-27.39 I6.093 J-5.918
X-154.053 Y-32.203 I31.289 J-15.789
X-158.995 Y-56.217 I88.829 J-30.795
X-151.332 Y-101.31 I94.69 J-7.108
G1 X-151.136 Y-101.668
G3 X-150.452 Y-102.104 I0.69 J0.328
G1 X-149.075
X-149.051 Y-102.103 Z-3.043 F711.2
G3 X-148.769 Y-101.789 Z-0.689 I-0.035 J0.316 F5080
G1 Y-101.776 Z-0.625
X-148.363 Y-24.624
Y-24.614 Z-0.672
G3 X-148.646 Y-24.297 Z-3.043 I-0.318 J0.002
G1 X-148.67 Y-24.295 Z-3.165 F711.2
X-150.024 F5080
G3 X-151.326 Y-24.795 I0.153 J-2.348
X-152.595 Y-26.073 I3.113 J-4.359
X-154.03 Y-28.678 I10.716 J-7.597
X-156.508 Y-35.7 I55.316 J-23.473
X-153.007 Y-100.62 I92.51 J-27.565
G1 X-152.704 Y-101.301
X-152.511 Y-101.666
G3 X-151.825 Y-102.104 I0.692 J0.327
G1 X-150.452
X-150.428 Y-102.103 Z-3.043 F711.2
G3 X-150.145 Y-101.789 Z-0.689 I-0.035 J0.316 F5080
G1 Y-101.776 Z-0.625
X-149.717 Y-24.624
Y-24.615 Z-0.671
G3 X-150 Y-24.297 Z-3.043 I-0.318 J0.002
G1 X-150.024 Y-24.295 Z-3.165 F711.2
X-151.378 F5080
G3 X-152.673 Y-24.786 I0.145 J-2.338
X-153.924 Y-26.036 I3.031 J-4.283
X-155.36 Y-28.64 I10.366 J-7.413
X-157.815 Y-35.669 I54.778 J-23.079
X-154.372 Y-100.625 I93.793 J-27.597
G1 X-154.071 Y-101.307
X-153.88 Y-101.668
G3 X-153.196 Y-102.104 I0.69 J0.327
G1 X-151.825
X-151.801 Y-102.103 Z-3.043 F711.2
G3 X-151.519 Y-101.789 Z-0.69 I-0.035 J0.316 F5080
G1 Y-101.776 Z-0.625
X-151.071 Y-24.624
Y-24.615 Z-0.671
G3 X-151.354 Y-24.297 Z-3.043 I-0.317 J0.002
G1 X-151.378 Y-24.295 Z-3.165 F711.2
X-152.731 F5080
G3 X-154.019 Y-24.779 I0.139 J-2.326
X-155.255 Y-26.007 I2.967 J-4.223
X-156.689 Y-28.606 I10.091 J-7.261
X-158.913 Y-34.928 I51.549 J-21.684
X-155.733 Y-100.633 I94.882 J-28.338
G1 X-155.434 Y-101.315
X-155.247 Y-101.671
G3 X-154.564 Y-102.104 I0.688 J0.329
G1 X-153.196
X-153.172 Y-102.103 Z-3.043 F711.2
G3 X-152.889 Y-101.789 Z-0.69 I-0.035 J0.316 F5080
G1 Y-101.776 Z-0.625
X-152.425 Y-24.624
Y-24.615 Z-0.67
G3 X-152.707 Y-24.297 Z-3.043 I-0.317 J0.002
G1 X-152.731 Y-24.295 Z-3.165 F711.2
X-154.085 F5080
G3 X-155.368 Y-24.776 I0.136 J-2.317
X-156.594 Y-25.991 I2.932 J-4.182
X-158.019 Y-28.579 I9.915 J-7.149
X-160.223 Y-34.907 I51.075 J-21.332
X-157.09 Y-100.645 I96.167 J-28.361
G1 X-156.792 Y-101.328
X-156.608 Y-101.677
G3 X-155.929 Y-102.106 I0.691 J0.344
G1 X-154.564 Y-102.104
X-154.54 Y-102.103 Z-3.043 F711.2
G3 X-154.258 Y-101.789 Z-0.69 I-0.035 J0.316 F5080
G1 X-154.257 Y-101.776 Z-0.625
X-153.779 Y-24.624
Y-24.615 Z-0.67
G3 X-154.061 Y-24.297 Z-3.043 I-0.317 J0.002
G1 X-154.085 Y-24.295 Z-3.165 F711.2
X-155.439 F5080
G3 X-156.72 Y-24.776 I0.137 J-2.311
X-157.939 Y-25.988 I2.925 J-4.162
X-159.356 Y-28.57 I9.819 J-7.067
X-161.538 Y-34.906 I50.836 J-21.049
X-158.437 Y-100.676 I97.457 J-28.363
G1 X-158.148 Y-101.34
X-157.967 Y-101.682
G3 X-157.292 Y-102.105 I0.687 J0.345
G1 X-155.929 Y-102.104
X-155.905 Y-102.103 Z-3.043 F711.2
G3 X-155.623 Y-101.789 Z-0.69 I-0.035 J0.316 F5080
G1 Y-101.776 Z-0.625
X-155.133 Y-24.624
Y-24.615 Z-0.67
G3 X-155.415 Y-24.297 Z-3.043 I-0.317 J0.002
G1 X-155.439 Y-24.295 Z-3.165 F711.2
X-156.793 F5080
G3 X-158.074 Y-24.78 I0.141 J-2.308
X-159.291 Y-25.997 I2.939 J-4.157
X-160.699 Y-28.581 I9.802 J-7.015
X-162.857 Y-34.925 I50.821 J-20.831
X-159.775 Y-100.724 I98.752 J-28.347
G1 X-159.499 Y-101.354
X-159.323 Y-101.687
G3 X-158.651 Y-102.105 I0.682 J0.348
G1 X-157.292 Y-102.104
X-157.268 Y-102.103 Z-3.043 F711.2
G3 X-156.985 Y-101.789 Z-0.691 I-0.035 J0.316 F5080
G1 Y-101.776 Z-0.625
X-156.487 Y-24.624
Y-24.615 Z-0.67
G3 X-156.769 Y-24.297 Z-3.043 I-0.317 J0.002
G1 X-156.793 Y-24.295 Z-3.165 F711.2
X-158.147 F5080
G3 X-159.431 Y-24.788 I0.149 J-2.307
X-160.648 Y-26.016 I2.967 J-4.159
X-162.046 Y-28.607 I9.853 J-6.987
X-164.18 Y-34.959 I51.01 J-20.669
X-161.106 Y-100.787 I100.05 J-28.314
G1 X-160.844 Y-101.374
X-160.673 Y-101.697
G3 X-160.007 Y-102.105 I0.674 J0.353
G1 X-158.651 Y-102.104
X-158.627 Y-102.103 Z-3.043 F711.2
G3 X-158.344 Y-101.789 Z-0.691 I-0.035 J0.316 F5080
G1 Y-101.776 Z-0.625
X-157.841 Y-24.624
Y-24.615 Z-0.67
G3 X-158.123 Y-24.297 Z-3.043 I-0.317 J0.002
G1 X-158.147 Y-24.295 Z-3.165 F711.2
X-159.501 F5080
G3 X-160.789 Y-24.798 I0.158 J-2.308
X-162.009 Y-26.042 I3.006 J-4.167
X-163.397 Y-28.647 I9.962 J-6.98
X-165.505 Y-35.008 I51.378 J-20.557
X-162.429 Y-100.863 I101.352 J-28.266
G1 X-162.185 Y-101.4
X-162.021 Y-101.707
G3 X-161.361 Y-102.105 I0.665 J0.358
G1 X-160.007 Y-102.104
X-159.983 Y-102.103 Z-3.043 F711.2
G3 X-159.701 Y-101.789 Z-0.691 I-0.035 J0.316 F5080
G1 X-159.7 Y-101.776 Z-0.625
X-159.195 Y-24.624
Y-24.615 Z-0.67
G3 X-159.477 Y-24.297 Z-3.043 I-0.317 J0.002
G1 X-159.501 Y-24.295 Z-3.165 F711.2
X-160.855 F5080
G3 X-162.148 Y-24.81 I0.17 J-2.31
X-163.373 Y-26.076 I3.057 J-4.182
X-164.75 Y-28.699 I10.126 J-6.992
X-166.832 Y-35.069 I51.918 J-20.489
X-164.01 Y-100.252 I102.67 J-28.208
X-163.338 Y-101.769 I9.424 J3.267
X-162.714 Y-102.105 I0.63 J0.422
G1 X-161.361 Y-102.104
X-161.337 Y-102.103 Z-3.043 F711.2
G3 X-161.055 Y-101.789 Z-0.691 I-0.035 J0.316 F5080
G1 Y-101.776 Z-0.625
X-160.549 Y-24.624
X-160.548 Y-24.615 Z-0.67
G3 X-160.831 Y-24.297 Z-3.043 I-0.317 J0.002
G1 X-160.855 Y-24.295 Z-3.165 F711.2
X-162.133 F5080
G3 X-163.636 Y-24.927 I0.144 J-2.447
G1 X-163.916 Y-25.159
X-164.213 Y-25.46
G3 X-165.638 Y-27.688 I6.67 J-5.836
X-167.425 Y-32.582 I32.837 J-14.76
X-171.402 Y-53.026 I100.199 J-30.101
X-165.208 Y-100.645 I106.891 J-10.308
G1 X-164.936 Y-101.299
X-164.759 Y-101.649
G3 X-164.252 Y-102.081 I0.721 J0.334
G1 X-164.065 Y-102.104
X-162.714
X-162.69 Y-102.103 Z-3.043 F711.2
G3 X-162.407 Y-101.79 Z-0.692 I-0.035 J0.316 F5080
G1 Y-101.776 Z-0.625
X-161.826 Y-24.624
Y-24.615 Z-0.668
G3 X-162.109 Y-24.297 Z-3.043 I-0.317 J0.002
G1 X-162.133 Y-24.295 Z-3.165 F711.2
X-163.487 F5080
G3 X-164.741 Y-24.754 I0.116 J-2.264
X-165.906 Y-25.893 I2.777 J-4.006
X-167.287 Y-28.404 I8.849 J-6.501
X-169.17 Y-34.055 I44.622 J-18.008
X-166.531 Y-100.714 I104.937 J-29.227
G1 X-166.271 Y-101.323
X-166.1 Y-101.658
G3 X-165.411 Y-102.104 I0.695 J0.317
G1 X-164.065
X-164.041 Y-102.103 Z-3.043 F711.2
G3 X-163.758 Y-101.79 Z-0.692 I-0.035 J0.316 F5080
G1 Y-101.776 Z-0.625
X-163.18 Y-24.624
Y-24.615 Z-0.668
G3 X-163.463 Y-24.297 Z-3.043 I-0.317 J0.002
G1 X-163.487 Y-24.295 Z-3.165 F711.2
X-164.84 F5080
G3 X-166.109 Y-24.776 I0.139 J-2.28
X-167.286 Y-25.953 I2.87 J-4.045
X-168.654 Y-28.497 I9.151 J-6.562
X-170.509 Y-34.157 I45.663 J-18.099
X-168.082 Y-100.138 I106.27 J-29.127
X-167.388 Y-101.759 I9.774 J3.227
X-166.756 Y-102.105 I0.64 J0.418
G1 X-165.411 Y-102.104
X-165.387 Y-102.103 Z-3.043 F711.2
G3 X-165.105 Y-101.79 Z-0.692 I-0.035 J0.316 F5080
G1 Y-101.776 Z-0.625
X-164.534 Y-24.624
Y-24.615 Z-0.668
G3 X-164.817 Y-24.297 Z-3.043 I-0.317 J0.002
G1 X-164.84 Y-24.295 Z-3.165 F711.2
X-166.101 F5080
G3 X-167.617 Y-24.911 I0.102 J-2.425
G1 X-167.872 Y-25.118
X-168.181 Y-25.425
G3 X-169.577 Y-27.584 I6.352 J-5.637
X-171.126 Y-31.773 I28.209 J-12.813
X-174.6 Y-47.775 I99.258 J-29.925
X-169.246 Y-100.63 I110.137 J-15.542
G1 X-168.978 Y-101.28
X-168.804 Y-101.632
G3 X-168.289 Y-102.08 I0.735 J0.324
G1 X-168.1 Y-102.104
X-166.756
X-166.732 Y-102.103 Z-3.043 F711.2
G3 X-166.45 Y-101.79 Z-0.694 I-0.035 J0.316 F5080
G1 Y-101.776 Z-0.625
X-165.795 Y-24.624
Y-24.616 Z-0.666
G3 X-166.077 Y-24.297 Z-3.043 I-0.317 J0.003
G1 X-166.101 Y-24.295 Z-3.165 F711.2
X-167.455 F5080
G3 X-168.923 Y-24.89 I0.12 J-2.404
X-170.163 Y-26.263 I3.372 J-4.294
X-171.476 Y-28.932 I11.117 J-7.123
X-173.437 Y-35.34 I54.04 J-20.046
X-170.832 Y-99.932 I109.192 J-27.944
G1 X-170.576 Y-100.632
X-170.32 Y-101.277
X-170.147 Y-101.627
G3 X-169.63 Y-102.08 I0.739 J0.321
G1 X-169.441 Y-102.104
X-168.1
X-168.076 Y-102.103 Z-3.043 F711.2
G3 X-167.794 Y-101.79 Z-0.694 I-0.035 J0.316 F5080
G1 Y-101.776 Z-0.625
X-167.149 Y-24.624
Y-24.615 Z-0.667
G3 X-167.431 Y-24.297 Z-3.043 I-0.317 J0.003
G1 X-167.455 Y-24.295 Z-3.165 F711.2
X-168.809 F5080
G3 X-170.061 Y-24.749 I0.108 J-2.254
X-171.196 Y-25.851 I2.696 J-3.911
X-172.566 Y-28.349 I8.468 J-6.268
X-174.394 Y-34.018 I43.152 J-17.045
X-178.19 Y-65.722 I109.566 J-29.197
X-172.118 Y-100.069 I113.512 J2.357
G1 X-171.862 Y-100.769
X-171.636 Y-101.327
X-171.471 Y-101.653
G3 X-170.78 Y-102.104 I0.697 J0.313
G1 X-169.441
X-169.417 Y-102.103 Z-3.043 F711.2
G3 X-169.135 Y-101.79 Z-0.693 I-0.035 J0.316 F5080
G1 Y-101.776 Z-0.625
X-168.503 Y-24.624
Y-24.615 Z-0.667
G3 X-168.785 Y-24.297 Z-3.043 I-0.317 J0.003
G1 X-168.809 Y-24.295 Z-3.165 F711.2
X-170.163 F5080
G3 X-171.426 Y-24.773 I0.134 J-2.262
X-172.578 Y-25.923 I2.812 J-3.968
X-173.929 Y-28.45 I8.819 J-6.341
X-175.73 Y-34.128 I44.293 J-17.171
X-179.348 Y-68.822 I111.088 J-29.123
X-173.409 Y-100.198 I114.659 J5.455
X-172.75 Y-101.757 I8.826 J2.808
X-172.118 Y-102.105 I0.639 J0.414
G1 X-170.78 Y-102.104
X-170.756 Y-102.103 Z-3.043 F711.2
G3 X-170.474 Y-101.79 Z-0.693 I-0.035 J0.316 F5080
G1 Y-101.776 Z-0.625
X-169.857 Y-24.624
Y-24.615 Z-0.667
G3 X-170.139 Y-24.297 Z-3.043 I-0.317 J0.003
G1 X-170.163 Y-24.295 Z-3.165 F711.2
X-171.517 F5080
G3 X-172.793 Y-24.801 I0.162 J-2.274
X-173.967 Y-26.01 I2.95 J-4.037
X-175.301 Y-28.58 I9.276 J-6.448
X-177.072 Y-34.268 I45.832 J-17.382
X-180.09 Y-75.658 I112.649 J-29.019
X-174.689 Y-100.356 I115.452 J12.303
G1 X-174.425 Y-101.053
X-174.239 Y-101.475
X-174.095 Y-101.742
G3 X-173.457 Y-102.105 I0.639 J0.381
G1 X-172.118 Y-102.104
X-172.094 Y-102.103 Z-3.043 F711.2
G3 X-171.812 Y-101.79 Z-0.693 I-0.035 J0.316 F5080
G1 Y-101.776 Z-0.625
X-171.211 Y-24.624
Y-24.615 Z-0.668
G3 X-171.493 Y-24.297 Z-3.043 I-0.317 J0.002
G1 X-171.517 Y-24.295 Z-3.165 F711.2
X-172.795 F5080
G3 X-174.035 Y-24.744 I0.104 J-2.23
X-175.164 Y-25.84 I2.649 J-3.857
X-176.526 Y-28.348 I8.421 J-6.199
X-178.313 Y-34.029 I42.52 J-16.489
X-181.989 Y-61.285 I112.647 J-29.069
X-176.091 Y-100.142 I117.156 J-2.095
X-175.425 Y-101.753 I8.807 J2.701
X-174.79 Y-102.105 I0.642 J0.41
G1 X-173.457 Y-102.104
X-173.433 Y-102.103 Z-3.043 F711.2
G3 X-173.15 Y-101.79 Z-0.694 I-0.035 J0.316 F5080
G1 Y-101.776 Z-0.625
X-172.488 Y-24.624
Y-24.616 Z-0.666
G3 X-172.771 Y-24.297 Z-3.043 I-0.317 J0.003
G1 X-172.795 Y-24.295 Z-3.165 F711.2
X-174.149 F5080
G3 X-175.408 Y-24.777 I0.138 J-2.251
X-176.551 Y-25.927 I2.816 J-3.941
X-177.888 Y-28.457 I8.759 J-6.248
X-179.647 Y-34.147 I43.806 J-16.654
X-183.27 Y-63.649 I114.287 J-29.011
X-177.377 Y-100.277 I118.352 J0.254
G1 X-177.12 Y-100.976
X-176.929 Y-101.427
X-176.782 Y-101.707
G3 X-176.123 Y-102.105 I0.664 J0.355
G1 X-174.79 Y-102.104
X-174.766 Y-102.103 Z-3.043 F711.2
G3 X-174.483 Y-101.79 Z-0.694 I-0.035 J0.316 F5080
G1 Y-101.776 Z-0.625
X-173.842 Y-24.624
Y-24.615 Z-0.667
G3 X-174.125 Y-24.297 Z-3.043 I-0.317 J0.003
G1 X-174.149 Y-24.295 Z-3.165 F711.2
X-175.409 F5080
G3 X-176.888 Y-24.9 I0.113 J-2.389
X-178.086 Y-26.234 I3.28 J-4.149
X-179.379 Y-28.911 I10.607 J-6.773
X-181.247 Y-35.347 I52.743 J-18.795
X-178.781 Y-100.055 I116.858 J-27.949
G1 X-178.533 Y-100.757
X-178.311 Y-101.316
X-178.148 Y-101.646
G3 X-177.643 Y-102.081 I0.73 J0.337
G1 X-177.453 Y-102.104
X-176.123
X-176.099 Y-102.103 Z-3.043 F711.2
G3 X-175.817 Y-101.79 Z-0.695 I-0.035 J0.316 F5080
G1 Y-101.776 Z-0.625
X-175.103 Y-24.624
Y-24.616 Z-0.665
G3 X-175.386 Y-24.297 Z-3.043 I-0.317 J0.003
G1 X-175.409 Y-24.295 Z-3.165 F711.2
X-176.763 F5080
G3 X-178.003 Y-24.745 I0.106 J-2.226
X-179.12 Y-25.833 I2.659 J-3.847
X-180.465 Y-28.319 I8.191 J-6.039
X-182.031 Y-33.29 I38.497 J-14.864
X-185.536 Y-55.331 I114.041 J-29.434
X-180.065 Y-100.181 I120.708 J-8.034
G1 X-179.814 Y-100.882
X-179.616 Y-101.369
X-179.464 Y-101.67
G3 X-178.783 Y-102.105 I0.692 J0.332
G1 X-177.453 Y-102.104
X-177.429 Y-102.103 Z-3.043 F711.2
G3 X-177.147 Y-101.79 Z-0.695 I-0.035 J0.316 F5080
G1 Y-101.776 Z-0.625
X-176.457 Y-24.624
Y-24.616 Z-0.666
G3 X-176.739 Y-24.297 Z-3.043 I-0.317 J0.003
G1 X-176.763 Y-24.295 Z-3.165 F711.2
X-178.117 F5080
G3 X-179.381 Y-24.785 I0.144 J-2.248
X-180.516 Y-25.937 I2.819 J-3.914
X-181.842 Y-28.478 I8.72 J-6.169
X-183.56 Y-34.181 I43.601 J-16.241
X-187.036 Y-60.721 I117.364 J-28.868
X-181.333 Y-100.365 I122.024 J-2.677
G1 X-181.074 Y-101.064
X-180.895 Y-101.474
X-180.755 Y-101.737
G3 X-180.114 Y-102.105 I0.642 J0.377
G1 X-178.783 Y-102.104
X-178.759 Y-102.103 Z-3.043 F711.2
G3 X-178.476 Y-101.79 Z-0.694 I-0.035 J0.316 F5080
G1 Y-101.776 Z-0.625
X-177.811 Y-24.624
Y-24.616 Z-0.666
G3 X-178.093 Y-24.297 Z-3.043 I-0.317 J0.003
G1 X-178.117 Y-24.295 Z-3.165 F711.2
X-179.395 F5080
G3 X-180.622 Y-24.733 I0.095 J-2.208
X-181.727 Y-25.796 I2.582 J-3.788
X-183.076 Y-28.279 I8.028 J-5.97
X-184.627 Y-33.254 I37.602 J-14.452
X-187.964 Y-53.82 I115.414 J-29.283
X-182.717 Y-100.181 I123.151 J-9.538
G1 X-182.468 Y-100.884
X-182.27 Y-101.37
X-182.116 Y-101.676
G3 X-181.439 Y-102.105 I0.686 J0.335
G1 X-180.114 Y-102.104
X-180.09 Y-102.103 Z-3.043 F711.2
G3 X-179.808 Y-101.79 Z-0.695 I-0.035 J0.316 F5080
G1 Y-101.776 Z-0.625
X-179.089 Y-24.624
Y-24.616 Z-0.665
G3 X-179.371 Y-24.297 Z-3.043 I-0.317 J0.003
G1 X-179.395 Y-24.295 Z-3.165 F711.2
X-180.749 F5080
G3 X-182.003 Y-24.775 I0.137 J-2.234
X-183.128 Y-25.91 I2.775 J-3.879
X-184.452 Y-28.439 I8.531 J-6.076
X-186.151 Y-34.148 I42.734 J-15.826
X-189.467 Y-57.72 I118.829 J-28.737
X-184.203 Y-99.654 I124.561 J-5.659
G1 X-183.973 Y-100.363
X-183.725 Y-101.065
X-183.549 Y-101.471
X-183.41 Y-101.733
G3 X-182.767 Y-102.105 I0.644 J0.374
G1 X-181.439 Y-102.104
X-181.415 Y-102.103 Z-3.043 F711.2
G3 X-181.133 Y-101.79 Z-0.695 I-0.035 J0.316 F5080
G1 Y-101.776 Z-0.625
X-180.443 Y-24.624
Y-24.616 Z-0.666
G3 X-180.725 Y-24.297 Z-3.043 I-0.317 J0.003
G1 X-180.749 Y-24.295 Z-3.165 F711.2
X-182.01 F5080
G3 X-183.471 Y-24.894 I0.117 J-2.368
X-184.65 Y-26.206 I3.226 J-4.084
X-185.928 Y-28.88 I10.222 J-6.53
X-187.73 Y-35.335 I51.484 J-17.852
X-190.676 Y-70.115 I122.704 J-27.909
X-185.38 Y-100.123 I125.446 J6.668
G1 X-185.137 Y-100.828
X-184.934 Y-101.34
X-184.778 Y-101.656
G3 X-184.09 Y-102.106 I0.701 J0.322
G1 X-182.767 Y-102.104
X-182.743 Y-102.103 Z-3.043 F711.2
G3 X-182.461 Y-101.79 Z-0.696 I-0.035 J0.316 F5080
G1 Y-101.776 Z-0.625
X-181.703 Y-24.624
Y-24.616 Z-0.664
G3 X-181.986 Y-24.297 Z-3.043 I-0.317 J0.003
G1 X-182.01 Y-24.295 Z-3.165 F711.2
X-183.364 F5080
G3 X-184.604 Y-24.756 I0.117 J-2.215
X-185.717 Y-25.858 I2.687 J-3.828
X-187.046 Y-28.368 I8.198 J-5.946
X-188.555 Y-33.356 I38.327 J-14.321
X-191.721 Y-53.199 I118.29 J-29.047
X-186.855 Y-99.618 I126.926 J-10.158
G1 X-186.628 Y-100.328
X-186.384 Y-101.032
X-186.207 Y-101.45
X-186.068 Y-101.716
G3 X-185.415 Y-102.105 I0.657 J0.36
G1 X-184.09 Y-102.104
X-184.066 Y-102.103 Z-3.043 F711.2
G3 X-183.783 Y-101.79 Z-0.695 I-0.035 J0.316 F5080
G1 Y-101.776 Z-0.625
X-183.057 Y-24.624
Y-24.616 Z-0.665
G3 X-183.34 Y-24.297 Z-3.043 I-0.317 J0.003
G1 X-183.364 Y-24.295 Z-3.165 F711.2
X-184.641 F5080
G3 X-186.093 Y-24.889 I0.118 J-2.36
X-187.272 Y-26.202 I3.223 J-4.08
X-188.542 Y-28.872 I10.127 J-6.458
X-190.155 Y-34.606 I47.686 J-16.504
X-193.377 Y-64.91 I124.256 J-28.534
X-188.013 Y-100.151 I128.13 J1.474
G1 X-187.769 Y-100.855
X-187.576 Y-101.345
X-187.422 Y-101.656
G3 X-186.734 Y-102.106 I0.701 J0.322
G1 X-185.415 Y-102.104
X-185.391 Y-102.103 Z-3.043 F711.2
G3 X-185.108 Y-101.79 Z-0.696 I-0.035 J0.316 F5080
G1 Y-101.776 Z-0.625
X-184.335 Y-24.624
Y-24.616 Z-0.664
G3 X-184.617 Y-24.297 Z-3.043 I-0.317 J0.003
G1 X-184.641 Y-24.295 Z-3.165 F711.2
X-185.995 F5080
G3 X-187.237 Y-24.761 I0.122 J-2.215
X-188.349 Y-25.87 I2.701 J-3.822
X-189.671 Y-28.39 I8.218 J-5.919
X-191.16 Y-33.385 I38.291 J-14.129
X-194.202 Y-52.495 I119.861 J-28.879
X-189.474 Y-99.676 I129.425 J-10.857
G1 X-189.248 Y-100.386
X-189.004 Y-101.09
X-188.834 Y-101.484
X-188.697 Y-101.74
G3 X-188.059 Y-102.105 I0.639 J0.379
G1 X-186.734 Y-102.104
X-186.71 Y-102.103 Z-3.043 F711.2
G3 X-186.428 Y-101.79 Z-0.696 I-0.035 J0.316 F5080
G1 Y-101.776 Z-0.625
X-185.689 Y-24.624
Y-24.616 Z-0.665
G3 X-185.971 Y-24.297 Z-3.043 I-0.317 J0.003
G1 X-185.995 Y-24.295 Z-3.165 F711.2
X-187.256 F5080
G3 X-188.712 Y-24.887 I0.107 J-2.351
X-189.882 Y-26.186 I3.189 J-4.047
X-191.147 Y-28.847 I9.959 J-6.369
X-192.742 Y-34.586 I47.029 J-16.153
X-195.908 Y-61.918 I125.996 J-28.448
X-190.857 Y-99.444 I130.809 J-1.493
G1 X-190.638 Y-100.156
X-190.406 Y-100.865
X-190.214 Y-101.35
X-190.062 Y-101.659
G3 X-189.376 Y-102.105 I0.698 J0.323
G1 X-188.059 Y-102.104
X-188.035 Y-102.103 Z-3.043 F711.2
G3 X-187.753 Y-101.79 Z-0.697 I-0.035 J0.316 F5080
G1 Y-101.776 Z-0.625
X-186.95 Y-24.624
Y-24.616 Z-0.663
G3 X-187.232 Y-24.297 Z-3.043 I-0.317 J0.003
G1 X-187.256 Y-24.295 Z-3.165 F711.2
X-188.61 F5080
G3 X-189.844 Y-24.752 I0.113 J-2.205
X-190.947 Y-25.841 I2.652 J-3.786
X-192.267 Y-28.344 I8.012 J-5.827
X-193.744 Y-33.342 I37.402 J-13.77
X-196.675 Y-51.719 I120.99 J-28.716
X-192.111 Y-99.662 I131.908 J-11.631
G1 X-191.887 Y-100.372
X-191.646 Y-101.078
X-191.477 Y-101.474
X-191.342 Y-101.731
G3 X-190.697 Y-102.105 I0.646 J0.371
G1 X-189.376 Y-102.104
X-189.352 Y-102.103 Z-3.043 F711.2
G3 X-189.07 Y-101.79 Z-0.696 I-0.035 J0.316 F5080
G1 Y-101.776 Z-0.625
X-188.304 Y-24.624
Y-24.616 Z-0.664
G3 X-188.586 Y-24.297 Z-3.043 I-0.317 J0.003
G1 X-188.61 Y-24.295 Z-3.165 F711.2
X-189.888 F5080
G3 X-191.335 Y-24.889 I0.119 J-2.35
X-192.505 Y-26.195 I3.204 J-4.047
X-193.762 Y-28.859 I9.963 J-6.33
X-195.335 Y-34.604 I46.839 J-15.909
X-198.415 Y-60.455 I127.894 J-28.349
X-193.473 Y-99.488 I133.332 J-2.948
G1 X-193.255 Y-100.201
X-193.024 Y-100.909
X-192.843 Y-101.364
X-192.695 Y-101.666
G3 X-192.012 Y-102.105 I0.693 J0.326
G1 X-190.697 Y-102.104
X-190.674 Y-102.103 Z-3.043 F711.2
G3 X-190.391 Y-101.791 Z-0.697 I-0.035 J0.316 F5080
G1 Y-101.776 Z-0.625
X-189.582 Y-24.624
X-189.581 Y-24.616 Z-0.663
G3 X-189.864 Y-24.297 Z-3.043 I-0.317 J0.003
G1 X-189.888 Y-24.295 Z-3.165 F711.2
X-191.242 F5080
G3 X-192.482 Y-24.765 I0.127 J-2.208
X-193.589 Y-25.876 I2.705 J-3.8
X-194.899 Y-28.4 I8.172 J-5.845
X-196.352 Y-33.405 I37.8 J-13.687
X-199.156 Y-51.05 I122.4 J-28.493
X-194.714 Y-99.75 I134.412 J-12.295
G1 X-194.489 Y-100.461
X-194.256 Y-101.137
X-194.092 Y-101.512
X-193.955 Y-101.765
G3 X-193.333 Y-102.104 I0.622 J0.402
G1 X-192.012
X-191.988 Y-102.103 Z-3.043 F711.2
G3 X-191.706 Y-101.79 Z-0.696 I-0.035 J0.316 F5080
G1 Y-101.776 Z-0.625
X-190.935 Y-24.624
Y-24.616 Z-0.664
G3 X-191.218 Y-24.297 Z-3.043 I-0.317 J0.003
G1 X-191.242 Y-24.295 Z-3.165 F711.2
X-192.503 F5080
G3 X-193.946 Y-24.886 I0.115 J-2.343
X-195.105 Y-26.175 I3.165 J-4.01
X-196.359 Y-28.828 I9.774 J-6.243
X-197.916 Y-34.577 I46.136 J-15.577
X-200.88 Y-58.201 I129.319 J-28.225
X-196.1 Y-99.486 I135.873 J-5.187
G1 X-195.884 Y-100.199
X-195.656 Y-100.908
X-195.474 Y-101.368
X-195.326 Y-101.668
G3 X-194.645 Y-102.105 I0.691 J0.327
G1 X-193.333 Y-102.104
X-193.309 Y-102.103 Z-3.043 F711.2
G3 X-193.026 Y-101.791 Z-0.698 I-0.035 J0.316 F5080
G1 Y-101.776 Z-0.625
X-192.196 Y-24.624
Y-24.616 Z-0.663
G3 X-192.479 Y-24.297 Z-3.043 I-0.317 J0.003
G1 X-192.503 Y-24.295 Z-3.165 F711.2
X-193.857 F5080
G3 X-195.094 Y-24.764 I0.125 J-2.202
X-196.197 Y-25.871 I2.694 J-3.787
X-197.504 Y-28.393 I8.116 J-5.806
X-198.942 Y-33.402 I37.403 J-13.447
X-201.696 Y-51.055 I124.06 J-28.397
X-197.334 Y-99.773 I136.929 J-12.292
G1 X-197.11 Y-100.484
X-196.882 Y-101.145
X-196.72 Y-101.516
X-196.586 Y-101.765
G3 X-195.963 Y-102.104 I0.623 J0.402
G1 X-194.645
X-194.621 Y-102.103 Z-3.043 F711.2
G3 X-194.339 Y-101.79 Z-0.697 I-0.035 J0.316 F5080
G1 X-194.338 Y-101.776 Z-0.625
X-193.55 Y-24.624
Y-24.616 Z-0.664
G3 X-193.833 Y-24.297 Z-3.043 I-0.317 J0.003
G1 X-193.857 Y-24.295 Z-3.165 F711.2
X-195.134 F5080
G3 X-196.586 Y-24.907 I0.138 J-2.355
X-197.755 Y-26.235 I3.263 J-4.051
X-198.994 Y-28.915 I10.066 J-6.279
X-200.521 Y-34.672 I46.951 J-15.541
X-203.416 Y-58.307 I131.643 J-28.115
X-198.69 Y-99.603 I138.377 J-5.084
G1 X-198.473 Y-100.316
X-198.24 Y-101.023
X-198.076 Y-101.424
X-197.937 Y-101.699
G3 X-197.274 Y-102.105 I0.667 J0.347
G1 X-195.963 Y-102.104
X-195.939 Y-102.103 Z-3.043 F711.2
G3 X-195.657 Y-101.791 Z-0.698 I-0.035 J0.316 F5080
G1 Y-101.776 Z-0.625
X-194.828 Y-24.624
Y-24.616 Z-0.663
G3 X-195.11 Y-24.297 Z-3.043 I-0.317 J0.003
G1 X-195.134 Y-24.295 Z-3.165 F711.2
X-196.395 F5080
G3 X-197.854 Y-24.879 I0.086 J-2.332
X-199.01 Y-26.163 I3.138 J-3.988
X-200.257 Y-28.81 I9.677 J-6.173
X-201.79 Y-34.566 I45.318 J-15.149
X-204.58 Y-55.968 I131.426 J-28.016
X-200.025 Y-99.509 I139.64 J-7.403
G1 X-199.811 Y-100.222
X-199.583 Y-100.932
X-199.412 Y-101.368
X-199.269 Y-101.66
G3 X-198.584 Y-102.105 I0.697 J0.322
G1 X-197.274 Y-102.104
X-197.25 Y-102.103 Z-3.043 F711.2
G3 X-196.968 Y-101.791 Z-0.699 I-0.035 J0.316 F5080
G1 Y-101.776 Z-0.625
X-196.089 Y-24.624
Y-24.616 Z-0.662
G3 X-196.371 Y-24.297 Z-3.043 I-0.317 J0.004
G1 X-196.395 Y-24.295 Z-3.165 F711.2
X-197.749 F5080
G3 X-199.201 Y-24.913 I0.144 J-2.354
X-200.381 Y-26.267 I3.286 J-4.054
X-201.606 Y-28.95 I10.137 J-6.248
X-203.112 Y-34.713 I47.052 J-15.382
X-205.922 Y-57.611 I133.542 J-28.005
X-201.292 Y-99.665 I140.851 J-5.777
G1 X-201.073 Y-100.377
X-200.84 Y-101.085
X-200.677 Y-101.471
X-200.545 Y-101.726
G3 X-199.897 Y-102.105 I0.649 J0.366
G1 X-198.584 Y-102.104
X-198.56 Y-102.103 Z-3.043 F711.2
G3 X-198.277 Y-101.791 Z-0.698 I-0.035 J0.316 F5080
G1 Y-101.776 Z-0.625
X-197.443 Y-24.624
Y-24.616 Z-0.663
G3 X-197.725 Y-24.297 Z-3.043 I-0.317 J0.003
G1 X-197.749 Y-24.295 Z-3.165 F711.2
X-199.103 F5080
G3 X-200.357 Y-24.795 I0.155 J-2.213
X-201.467 Y-25.947 I2.807 J-3.818
X-202.748 Y-28.501 I8.429 J-5.823
X-204.143 Y-33.522 I38.166 J-13.308
X-206.723 Y-50.451 I127.08 J-28.032
X-202.721 Y-99.217 I141.978 J-12.894
G1 X-202.515 Y-99.934
X-202.3 Y-100.647
X-202.096 Y-101.22
X-201.941 Y-101.564
X-201.855 Y-101.72
G3 X-201.206 Y-102.104 I0.649 J0.357
G1 X-199.897
X-199.873 Y-102.103 Z-3.043 F711.2
G3 X-199.591 Y-101.79 Z-0.697 I-0.035 J0.316 F5080
G1 Y-101.776 Z-0.625
X-198.797 Y-24.624
Y-24.616 Z-0.664
G3 X-199.079 Y-24.297 Z-3.043 I-0.317 J0.003
G1 X-199.103 Y-24.295 Z-3.165 F711.2
X-200.381 F5080
G3 X-201.611 Y-24.76 I0.123 J-2.185
X-202.702 Y-25.854 I2.663 J-3.751
X-203.993 Y-28.358 I7.994 J-5.706
X-205.401 Y-33.376 I36.198 J-12.864
X-207.84 Y-48.821 I125.116 J-27.666
X-204.062 Y-99.082 I143.152 J-14.514
X-203.277 Y-101.523 I18.247 J4.524
G1 X-203.168 Y-101.712
G3 X-202.515 Y-102.104 I0.654 J0.349
G1 X-201.206
X-201.182 Y-102.103 Z-3.043 F711.2
G3 X-200.9 Y-101.791 Z-0.697 I-0.035 J0.316 F5080
G1 Y-101.776 Z-0.625
X-200.074 Y-24.624
Y-24.616 Z-0.663
G3 X-200.357 Y-24.297 Z-3.043 I-0.317 J0.003
G1 X-200.381 Y-24.295 Z-3.165 F711.2
X-201.642 F5080
G3 X-203.078 Y-24.888 I0.121 J-2.332
X-204.225 Y-26.174 I3.159 J-3.972
X-205.459 Y-28.826 I9.65 J-6.105
X-206.957 Y-34.591 I44.933 J-14.749
X-209.567 Y-54.519 I134.484 J-27.751
X-205.425 Y-98.853 I144.696 J-8.842
X-204.633 Y-101.42 I22.068 J5.404
G1 X-204.496 Y-101.681
G3 X-203.823 Y-102.105 I0.681 J0.335
G1 X-202.515 Y-102.104
X-202.491 Y-102.103 Z-3.043 F711.2
G3 X-202.208 Y-101.791 Z-0.698 I-0.035 J0.316 F5080
G1 Y-101.776 Z-0.625
X-201.335 Y-24.624
Y-24.616 Z-0.662
G3 X-201.618 Y-24.297 Z-3.043 I-0.317 J0.004
G1 X-201.642 Y-24.295 Z-3.165 F711.2
X-202.995 F5080
G3 X-204.234 Y-24.775 I0.137 J-2.193
X-205.332 Y-25.895 I2.726 J-3.769
X-206.618 Y-28.429 I8.164 J-5.736
X-208.002 Y-33.453 I36.75 J-12.832
X-210.391 Y-48.907 I126.936 J-27.535
X-206.648 Y-99.179 I145.686 J-14.428
G1 X-206.446 Y-99.896
X-206.235 Y-100.611
X-206.029 Y-101.198
X-205.873 Y-101.549
X-205.782 Y-101.717
G3 X-205.131 Y-102.104 I0.651 J0.354
G1 X-203.823
X-203.799 Y-102.103 Z-3.043 F711.2
G3 X-203.516 Y-101.791 Z-0.698 I-0.035 J0.316 F5080
G1 Y-101.776 Z-0.625
X-202.689 Y-24.624
Y-24.616 Z-0.663
G3 X-202.971 Y-24.297 Z-3.043 I-0.317 J0.003
G1 X-202.995 Y-24.295 Z-3.165 F711.2
X-204.273 F5080
G3 X-205.494 Y-24.748 I0.112 J-2.176
X-206.573 Y-25.816 I2.608 J-3.714
X-207.862 Y-28.289 I7.752 J-5.613
X-209.261 Y-33.309 I34.916 J-12.432
X-211.574 Y-48.021 I125.449 J-27.265
X-207.986 Y-99.045 I146.883 J-15.31
X-207.207 Y-101.508 I18.531 J4.509
X-206.797 Y-102.013 I1.006 J0.398
G1 X-206.624 Y-102.081
X-206.44 Y-102.104
X-205.131
X-205.107 Y-102.103 Z-3.043 F711.2
G3 X-204.824 Y-101.791 Z-0.698 I-0.035 J0.316 F5080
G1 Y-101.776 Z-0.625
X-203.967 Y-24.624
Y-24.616 Z-0.662
G3 X-204.249 Y-24.297 Z-3.043 I-0.317 J0.004
G1 X-204.273 Y-24.295 Z-3.165 F711.2
X-205.534 F5080
G3 X-206.963 Y-24.877 I0.11 J-2.32
X-208.103 Y-26.145 I3.109 J-3.941
X-209.336 Y-28.783 I9.431 J-6.014
X-210.816 Y-34.552 I43.873 J-14.332
X-213.274 Y-53.002 I135.851 J-27.485
X-209.34 Y-98.842 I148.443 J-10.349
X-208.563 Y-101.399 I22.542 J5.448
G1 X-208.419 Y-101.678
G3 X-207.744 Y-102.105 I0.682 J0.332
G1 X-206.44 Y-102.104
X-206.416 Y-102.103 Z-3.043 F711.2
G3 X-206.133 Y-101.791 Z-0.699 I-0.035 J0.316 F5080
G1 Y-101.776 Z-0.625
X-205.228 Y-24.624
Y-24.617 Z-0.661
G3 X-205.51 Y-24.297 Z-3.043 I-0.317 J0.004
G1 X-205.534 Y-24.295 Z-3.165 F711.2
X-206.888 F5080
G3 X-208.121 Y-24.768 I0.129 J-2.185
X-209.212 Y-25.873 I2.685 J-3.738
X-210.497 Y-28.397 I8.008 J-5.666
X-211.867 Y-33.425 I35.925 J-12.495
X-214.131 Y-48.145 I127.471 J-27.139
X-210.56 Y-99.179 I149.42 J-15.185
G1 X-210.359 Y-99.896
X-210.151 Y-100.612
X-209.947 Y-101.197
X-209.792 Y-101.547
X-209.701 Y-101.716
G3 X-209.049 Y-102.104 I0.652 J0.352
G1 X-207.744
X-207.72 Y-102.103 Z-3.043 F711.2
G3 X-207.438 Y-101.791 Z-0.698 I-0.035 J0.316 F5080
G1 Y-101.776 Z-0.625
X-206.582 Y-24.624
Y-24.616 Z-0.662
G3 X-206.864 Y-24.297 Z-3.043 I-0.317 J0.004
G1 X-206.888 Y-24.295 Z-3.165 F711.2
X-208.166 F5080
G3 X-209.383 Y-24.743 I0.107 J-2.171
X-210.453 Y-25.797 I2.578 J-3.69
X-211.736 Y-28.247 I7.621 J-5.549
X-213.122 Y-33.27 I34.025 J-12.097
X-215.231 Y-46.508 I123.885 J-26.518
X-211.898 Y-99.033 I150.581 J-16.813
X-211.127 Y-101.5 I18.733 J4.501
G1 X-210.991 Y-101.745
G3 X-210.356 Y-102.105 I0.636 J0.382
G1 X-209.049 Y-102.104
X-209.025 Y-102.103 Z-3.043 F711.2
G3 X-208.743 Y-101.791 Z-0.699 I-0.035 J0.316 F5080
G1 Y-101.776 Z-0.625
X-207.859 Y-24.624
Y-24.616 Z-0.662
G3 X-208.142 Y-24.297 Z-3.043 I-0.317 J0.004
G1 X-208.166 Y-24.295 Z-3.165 F711.2
X-209.427 F5080
G3 X-210.854 Y-24.874 I0.107 J-2.315
X-211.99 Y-26.136 I3.09 J-3.921
X-213.217 Y-28.769 I9.335 J-5.956
X-214.678 Y-34.543 I43.242 J-14.013
X-217.028 Y-52.257 I137.608 J-27.264
X-213.241 Y-98.858 I152.195 J-11.087
X-212.474 Y-101.407 I22.221 J5.301
G1 X-212.332 Y-101.681
G3 X-211.658 Y-102.105 I0.68 J0.333
G1 X-210.356 Y-102.104
X-210.332 Y-102.103 Z-3.043 F711.2
G3 X-210.049 Y-101.791 Z-0.7 I-0.035 J0.316 F5080
G1 Y-101.776 Z-0.625
X-209.12 Y-24.624
Y-24.617 Z-0.661
G3 X-209.403 Y-24.297 Z-3.043 I-0.317 J0.004
G1 X-209.426 Y-24.295 Z-3.165 F711.2
X-210.78 F5080
G3 X-212.012 Y-24.766 I0.128 J-2.181
X-213.097 Y-25.865 I2.669 J-3.72
X-214.378 Y-28.386 I7.932 J-5.619
X-215.733 Y-33.418 I35.433 J-12.24
X-217.873 Y-47.404 I127.726 J-26.692
X-214.634 Y-98.473 I153.21 J-15.92
X-213.86 Y-101.204 I28.716 J6.662
G1 X-213.703 Y-101.55
X-213.613 Y-101.716
G3 X-212.961 Y-102.104 I0.652 J0.352
G1 X-211.658
X-211.634 Y-102.103 Z-3.043 F711.2
G3 X-211.352 Y-101.791 Z-0.699 I-0.035 J0.316 F5080
G1 Y-101.776 Z-0.625
X-210.474 Y-24.624
Y-24.616 Z-0.662
G3 X-210.756 Y-24.297 Z-3.043 I-0.317 J0.004
G1 X-210.78 Y-24.295 Z-3.165 F711.2
X-212.058 F5080
G3 X-213.274 Y-24.743 I0.107 J-2.167
X-214.661 Y-26.254 I3.042 J-4.185
X-215.863 Y-28.938 I10.033 J-6.106
X-217.288 Y-34.722 I45.24 J-14.216
X-219.629 Y-53.187 I140.878 J-27.236
X-215.796 Y-99.05 I154.711 J-10.162
G1 X-215.6 Y-99.77
X-215.398 Y-100.487
X-215.188 Y-101.124
X-215.029 Y-101.498
X-214.901 Y-101.745
G3 X-214.265 Y-102.105 I0.636 J0.382
G1 X-212.961 Y-102.104
X-212.937 Y-102.103 Z-3.043 F711.2
G3 X-212.655 Y-101.791 Z-0.699 I-0.035 J0.316 F5080
G1 Y-101.776 Z-0.625
X-211.752 Y-24.624
Y-24.617 Z-0.661
G3 X-212.034 Y-24.297 Z-3.043 I-0.317 J0.004
G1 X-212.058 Y-24.295 Z-3.165 F711.2
X-213.319 F5080
G3 X-214.744 Y-24.874 I0.108 J-2.311
X-215.875 Y-26.133 I3.081 J-3.905
X-217.097 Y-28.764 I9.271 J-5.907
X-218.539 Y-34.543 I42.769 J-13.74
X-220.724 Y-50.778 I138.117 J-26.853
X-217.136 Y-98.881 I155.931 J-12.554
X-216.375 Y-101.421 I21.847 J5.16
G1 X-216.236 Y-101.688
G3 X-215.567 Y-102.105 I0.675 J0.338
G1 X-214.265 Y-102.104
X-214.242 Y-102.103 Z-3.043 F711.2
G3 X-213.959 Y-101.791 Z-0.7 I-0.035 J0.316 F5080
G1 Y-101.776 Z-0.625
X-213.013 Y-24.624
Y-24.617 Z-0.66
G3 X-213.295 Y-24.297 Z-3.043 I-0.317 J0.004
G1 X-213.319 Y-24.295 Z-3.165 F711.2
X-214.673 F5080
G3 X-215.905 Y-24.769 I0.131 J-2.179
X-216.988 Y-25.872 I2.677 J-3.714
X-218.263 Y-28.396 I7.937 J-5.593
X-219.601 Y-33.432 I35.163 J-12.035
X-221.692 Y-47.426 I129.401 J-26.489
X-218.521 Y-98.51 I156.977 J-15.899
X-217.759 Y-101.221 I27.859 J6.374
G1 X-217.603 Y-101.56
X-217.518 Y-101.717
G3 X-216.867 Y-102.104 I0.651 J0.353
G1 X-215.567
X-215.543 Y-102.103 Z-3.043 F711.2
G3 X-215.26 Y-101.791 Z-0.699 I-0.035 J0.316 F5080
G1 Y-101.776 Z-0.625
X-214.367 Y-24.624
Y-24.616 Z-0.661
G3 X-214.649 Y-24.297 Z-3.043 I-0.317 J0.004
G1 X-214.673 Y-24.295 Z-3.165 F711.2
X-215.951 F5080
G3 X-217.168 Y-24.748 I0.113 J-2.166
X-218.235 Y-25.806 I2.589 J-3.676
X-219.503 Y-28.255 I7.6 J-5.49
X-220.857 Y-33.286 I33.442 J-11.694
X-222.793 Y-45.798 I124.865 J-25.732
X-219.851 Y-98.372 I158.128 J-17.519
X-219.087 Y-101.143 I30.639 J6.951
G1 X-218.928 Y-101.509
X-218.796 Y-101.759
G3 X-218.17 Y-102.104 I0.627 J0.395
G1 X-216.867
X-216.843 Y-102.103 Z-3.043 F711.2
G3 X-216.561 Y-101.791 Z-0.699 I-0.035 J0.316 F5080
G1 X-216.56 Y-101.776 Z-0.625
X-215.644 Y-24.624
Y-24.617 Z-0.661
G3 X-215.927 Y-24.297 Z-3.043 I-0.317 J0.004
G1 X-215.951 Y-24.295 Z-3.165 F711.2
X-217.212 F5080
G3 X-218.638 Y-24.881 I0.116 J-2.312
X-219.768 Y-26.149 I3.104 J-3.905
X-220.982 Y-28.787 I9.314 J-5.885
X-222.402 Y-34.571 I42.657 J-13.54
X-224.536 Y-50.814 I140.445 J-26.71
X-221.185 Y-98.204 I159.758 J-12.518
X-220.411 Y-101.08 I34.122 J7.648
G1 X-220.257 Y-101.45
X-220.128 Y-101.708
G3 X-219.47 Y-102.105 I0.661 J0.352
G1 X-218.17 Y-102.104
X-218.146 Y-102.103 Z-3.043 F711.2
G3 X-217.863 Y-101.791 Z-0.7 I-0.035 J0.316 F5080
G1 Y-101.776 Z-0.625
X-216.905 Y-24.624
Y-24.617 Z-0.66
G3 X-217.188 Y-24.297 Z-3.043 I-0.317 J0.004
G1 X-217.212 Y-24.295 Z-3.165 F711.2
X-218.565 F5080
G3 X-219.801 Y-24.778 I0.14 J-2.179
X-220.885 Y-25.894 I2.709 J-3.72
X-222.151 Y-28.427 I8.013 J-5.585
X-223.469 Y-33.468 I35.178 J-11.892
X-225.438 Y-46.728 I129.366 J-25.987
X-222.4 Y-98.567 I160.708 J-16.591
X-221.648 Y-101.249 I26.933 J6.108
G1 X-221.495 Y-101.578
X-221.417 Y-101.72
G3 X-220.768 Y-102.104 I0.65 J0.356
G1 X-219.47
X-219.446 Y-102.103 Z-3.043 F711.2
G3 X-219.163 Y-101.791 Z-0.699 I-0.035 J0.316 F5080
G1 Y-101.776 Z-0.625
X-218.259 Y-24.624
Y-24.617 Z-0.661
G3 X-218.541 Y-24.297 Z-3.043 I-0.317 J0.004
G1 X-218.565 Y-24.295 Z-3.165 F711.2
X-219.843 F5080
G3 X-221.065 Y-24.759 I0.122 J-2.167
X-222.135 Y-25.834 I2.629 J-3.688
X-223.397 Y-28.303 I7.704 J-5.491
X-224.729 Y-33.34 I33.686 J-11.601
X-226.62 Y-45.859 I126.53 J-25.518
X-223.724 Y-98.447 I161.891 J-17.457
X-222.972 Y-101.175 I27.426 J6.088
G1 X-222.817 Y-101.528
X-222.721 Y-101.71
G3 X-222.066 Y-102.104 I0.655 J0.346
G1 X-220.768
X-220.744 Y-102.103 Z-3.043 F711.2
G3 X-220.461 Y-101.791 Z-0.7 I-0.035 J0.316 F5080
G1 Y-101.776 Z-0.625
X-219.537 Y-24.624
Y-24.617 Z-0.661
G3 X-219.819 Y-24.297 Z-3.043 I-0.317 J0.004
G1 X-219.843 Y-24.295 Z-3.165 F711.2
X-221.104 F5080
G3 X-222.534 Y-24.894 I0.13 J-2.318
X-223.666 Y-26.179 I3.148 J-3.914
X-224.869 Y-28.829 I9.424 J-5.879
X-226.267 Y-34.618 I42.813 J-13.395
X-228.292 Y-50.125 I141.577 J-26.374
X-225.058 Y-98.27 I163.499 J-13.201
X-224.302 Y-101.092 I32.562 J7.219
G1 X-224.141 Y-101.473
X-224.014 Y-101.722
G3 X-223.365 Y-102.105 I0.651 J0.362
G1 X-222.066 Y-102.104
X-222.042 Y-102.103 Z-3.043 F711.2
G3 X-221.759 Y-101.791 Z-0.7 I-0.035 J0.316 F5080
G1 Y-101.776 Z-0.625
X-220.798 Y-24.624
Y-24.617 Z-0.66
G3 X-221.08 Y-24.297 Z-3.043 I-0.317 J0.004
G1 X-221.104 Y-24.295 Z-3.165 F711.2
X-222.382 F5080
G3 X-223.805 Y-24.878 I0.111 J-2.301
X-224.929 Y-26.135 I3.064 J-3.871
X-226.137 Y-28.764 I9.203 J-5.821
X-227.538 Y-34.553 I41.872 J-13.197
X-229.495 Y-49.318 I140.349 J-26.118
X-226.366 Y-98.211 I164.697 J-14.005
X-225.605 Y-101.078 I33.939 J7.481
G1 X-225.452 Y-101.448
X-225.323 Y-101.704
G3 X-224.663 Y-102.105 I0.663 J0.349
G1 X-223.365 Y-102.104
X-223.341 Y-102.103 Z-3.043 F711.2
G3 X-223.059 Y-101.791 Z-0.701 I-0.035 J0.316 F5080
G1 X-223.058 Y-101.776 Z-0.625
X-222.075 Y-24.624
Y-24.617 Z-0.66
G3 X-222.358 Y-24.297 Z-3.043 I-0.317 J0.004
G1 X-222.382 Y-24.295 Z-3.165 F711.2
X-223.643 F5080
G3 X-225.097 Y-24.879 I0.078 J-2.299
X-226.219 Y-26.135 I3.05 J-3.856
X-227.424 Y-28.757 I9.16 J-5.796
X-228.821 Y-34.547 I41.673 J-13.117
X-230.765 Y-49.314 I140.857 J-26.06
X-227.661 Y-98.211 I165.914 J-14.012
X-226.905 Y-101.069 I34.543 J7.603
G1 X-226.752 Y-101.442
X-226.624 Y-101.699
G3 X-225.961 Y-102.105 I0.667 J0.345
G1 X-224.663 Y-102.104
X-224.64 Y-102.103 Z-3.043 F711.2
G3 X-224.357 Y-101.791 Z-0.702 I-0.035 J0.316 F5080
G1 Y-101.776 Z-0.625
X-223.336 Y-24.624
Y-24.617 Z-0.659
G3 X-223.619 Y-24.297 Z-3.043 I-0.317 J0.004
G1 X-223.643 Y-24.295 Z-3.165 F711.2
X-224.997 F5080
G3 X-226.442 Y-24.921 I0.151 J-2.33
X-227.592 Y-26.262 I3.266 J-3.964
X-228.769 Y-28.926 I9.695 J-5.877
X-230.138 Y-34.723 I43.742 J-13.389
X-232.166 Y-50.979 I145.377 J-26.388
X-228.916 Y-98.392 I167.196 J-12.358
X-228.173 Y-101.147 I28.848 J6.305
G1 X-228.022 Y-101.5
X-227.897 Y-101.742
G3 X-227.26 Y-102.105 I0.638 J0.379
G1 X-225.961 Y-102.104
X-225.937 Y-102.103 Z-3.043 F711.2
G3 X-225.655 Y-101.791 Z-0.7 I-0.035 J0.316 F5080
G1 X-225.654 Y-101.776 Z-0.625
X-224.69 Y-24.624
Y-24.617 Z-0.66
G3 X-224.973 Y-24.297 Z-3.043 I-0.317 J0.004
G1 X-224.997 Y-24.295 Z-3.165 F711.2
X-226.274 F5080
G3 X-227.708 Y-24.901 I0.134 J-2.316
X-228.838 Y-26.192 I3.153 J-3.901
X-230.031 Y-28.846 I9.46 J-5.847
X-231.406 Y-34.641 I42.596 J-13.163
X-233.373 Y-50.156 I144.13 J-26.16
X-230.226 Y-98.316 I168.406 J-13.178
X-229.478 Y-101.125 I31.887 J6.987
G1 X-229.329 Y-101.479
X-229.203 Y-101.726
G3 X-228.556 Y-102.105 I0.648 J0.365
G1 X-227.26 Y-102.104
X-227.236 Y-102.103 Z-3.043 F711.2
G3 X-226.953 Y-101.791 Z-0.701 I-0.035 J0.316 F5080
G1 Y-101.776 Z-0.625
X-225.968 Y-24.624
Y-24.617 Z-0.66
G3 X-226.25 Y-24.297 Z-3.043 I-0.317 J0.004
G1 X-226.274 Y-24.295 Z-3.165 F711.2
X-227.535 F5080
G3 X-228.964 Y-24.874 I0.098 J-2.295
X-230.079 Y-26.118 I3.034 J-3.842
X-231.284 Y-28.74 I9.085 J-5.764
X-232.531 Y-33.801 I38.018 J-12.052
X-234.447 Y-47.82 I136.961 J-25.852
X-231.541 Y-98.214 I169.494 J-15.508
X-230.792 Y-101.074 I34.307 J7.453
G1 X-230.641 Y-101.443
X-230.514 Y-101.699
G3 X-229.851 Y-102.105 I0.667 J0.344
G1 X-228.556 Y-102.104
X-228.532 Y-102.103 Z-3.043 F711.2
G3 X-228.25 Y-101.791 Z-0.702 I-0.035 J0.316 F5080
G1 X-228.249 Y-101.776 Z-0.625
X-227.229 Y-24.624
Y-24.617 Z-0.659
G3 X-227.511 Y-24.297 Z-3.043 I-0.317 J0.004
G1 X-227.535 Y-24.295 Z-3.165 F711.2
X-228.889 F5080
G3 X-230.114 Y-24.764 I0.127 J-2.164
X-231.182 Y-25.85 I2.632 J-3.658
X-232.439 Y-28.344 I7.735 J-5.462
X-233.734 Y-33.391 I33.674 J-11.332
X-235.536 Y-45.923 I129.162 J-24.967
X-232.918 Y-97.811 I170.631 J-17.401
X-232.21 Y-100.705 I46.893 J9.94
G1 X-232.027 Y-101.228
X-231.88 Y-101.562
X-231.797 Y-101.715
G3 X-231.145 Y-102.104 I0.652 J0.351
G1 X-229.851
X-229.827 Y-102.103 Z-3.043 F711.2
G3 X-229.545 Y-101.791 Z-0.7 I-0.035 J0.316 F5080
G1 Y-101.776 Z-0.625
X-228.583 Y-24.624
Y-24.617 Z-0.66
G3 X-228.865 Y-24.297 Z-3.043 I-0.317 J0.004
G1 X-228.889 Y-24.295 Z-3.165 F711.2
X-230.167 F5080
G3 X-231.383 Y-24.751 I0.115 J-2.156
X-232.751 Y-26.259 I3.047 J-4.139
X-233.927 Y-28.94 I9.86 J-5.923
X-235.273 Y-34.742 I43.538 J-13.16
X-237.191 Y-50.263 I146.664 J-25.999
X-234.232 Y-97.704 I172.205 J-13.071
X-233.353 Y-101.162 I33.802 J6.746
G1 X-233.196 Y-101.516
X-233.096 Y-101.706
G3 X-232.439 Y-102.104 I0.657 J0.343
G1 X-231.145
X-231.121 Y-102.103 Z-3.043 F711.2
G3 X-230.839 Y-101.791 Z-0.701 I-0.035 J0.316 F5080
G1 Y-101.776 Z-0.625
X-229.86 Y-24.624
Y-24.617 Z-0.66
G3 X-230.143 Y-24.297 Z-3.043 I-0.317 J0.004
G1 X-230.167 Y-24.295 Z-3.165 F711.2
X-231.428 F5080
G3 X-232.853 Y-24.889 I0.124 J-2.306
X-233.974 Y-26.16 I3.108 J-3.872
X-235.168 Y-28.8 I9.243 J-5.771
X-236.529 Y-34.598 I41.596 J-12.821
X-238.332 Y-48.633 I142.786 J-25.471
X-235.551 Y-97.565 I173.406 J-14.692
X-234.67 Y-101.096 I36.145 J7.143
G1 X-234.51 Y-101.472
X-234.385 Y-101.72
G3 X-233.734 Y-102.105 I0.652 J0.36
G1 X-232.439 Y-102.104
X-232.415 Y-102.103 Z-3.043 F711.2
G3 X-232.133 Y-101.791 Z-0.701 I-0.035 J0.316 F5080
G1 Y-101.776 Z-0.625
X-231.121 Y-24.624
Y-24.617 Z-0.659
G3 X-231.404 Y-24.297 Z-3.043 I-0.317 J0.004
G1 X-231.428 Y-24.295 Z-3.165 F711.2
X-232.705 F5080
G3 X-234.125 Y-24.877 I0.11 J-2.292
X-235.24 Y-26.126 I3.04 J-3.835
X-236.438 Y-28.748 I9.065 J-5.725
X-237.667 Y-33.812 I37.726 J-11.84
X-239.533 Y-47.839 I138.717 J-25.589
X-236.851 Y-97.517 I174.496 J-15.493
X-235.967 Y-101.087 I36.621 J7.174
G1 X-235.815 Y-101.451
X-235.688 Y-101.704
G3 X-235.029 Y-102.105 I0.663 J0.348
G1 X-233.734 Y-102.104
X-233.71 Y-102.103 Z-3.043 F711.2
G3 X-233.428 Y-101.791 Z-0.702 I-0.035 J0.316 F5080
G1 Y-101.776 Z-0.625
X-232.399 Y-24.624
Y-24.617 Z-0.659
G3 X-232.681 Y-24.297 Z-3.043 I-0.317 J0.004
G1 X-232.705 Y-24.295 Z-3.165 F711.2
X-233.966 F5080
G3 X-235.413 Y-24.877 I0.081 J-2.29
X-236.526 Y-26.124 I3.032 J-3.827
X-237.721 Y-28.74 I9.019 J-5.702
X-238.948 Y-33.805 I37.54 J-11.774
X-240.737 Y-47.091 I136.877 J-25.193
X-238.142 Y-97.515 I175.7 J-16.237
X-237.264 Y-101.078 I37.011 J7.232
G1 X-237.111 Y-101.445
X-236.986 Y-101.699
G3 X-236.323 Y-102.105 I0.667 J0.344
G1 X-235.029 Y-102.104
X-235.005 Y-102.103 Z-3.043 F711.2
G3 X-234.722 Y-101.792 Z-0.702 I-0.035 J0.316 F5080
G1 Y-101.776 Z-0.625
X-233.66 Y-24.624
Y-24.617 Z-0.658
G3 X-233.942 Y-24.297 Z-3.043 I-0.317 J0.004
G1 X-233.966 Y-24.295 Z-3.165 F711.2
X-235.32 F5080
G3 X-236.768 Y-24.931 I0.159 J-2.33
X-237.914 Y-26.281 I3.293 J-3.955
X-239.076 Y-28.95 I9.675 J-5.801
X-240.403 Y-34.756 I43.208 J-12.93
X-242.215 Y-49.541 I147.325 J-25.558
X-239.389 Y-97.737 I177.121 J-13.794
X-238.519 Y-101.189 I32.342 J6.317
G1 X-238.365 Y-101.529
X-238.271 Y-101.708
G3 X-237.615 Y-102.104 I0.656 J0.344
G1 X-236.323
X-236.299 Y-102.103 Z-3.043 F711.2
G3 X-236.016 Y-101.791 Z-0.701 I-0.035 J0.316 F5080
G1 Y-101.776 Z-0.625
X-235.014 Y-24.624
Y-24.617 Z-0.659
G3 X-235.296 Y-24.297 Z-3.043 I-0.317 J0.004
G1 X-235.32 Y-24.295 Z-3.165 F711.2
X-236.598 F5080
G3 X-237.815 Y-24.745 I0.104 J-2.153
X-239.162 Y-26.214 I2.972 J-4.078
X-240.338 Y-28.876 I9.604 J-5.835
X-241.671 Y-34.681 I42.202 J-12.744
X-243.421 Y-48.723 I145.354 J-25.241
X-240.693 Y-97.667 I178.325 J-14.608
X-239.829 Y-101.138 I33.803 J6.569
G1 X-239.671 Y-101.498
X-239.546 Y-101.743
G3 X-238.909 Y-102.105 I0.637 J0.38
G1 X-237.615 Y-102.104
X-237.591 Y-102.103 Z-3.043 F711.2
G3 X-237.309 Y-101.791 Z-0.702 I-0.035 J0.316 F5080
G1 Y-101.776 Z-0.625
X-236.292 Y-24.624
X-236.291 Y-24.617 Z-0.659
G3 X-236.574 Y-24.297 Z-3.043 I-0.317 J0.004
G1 X-236.598 Y-24.295 Z-3.165 F711.2
X-237.859 F5080
G3 X-239.277 Y-24.877 I0.111 J-2.292
X-240.387 Y-26.122 I3.04 J-3.826
X-241.581 Y-28.745 I9.019 J-5.691
X-242.796 Y-33.813 I37.358 J-11.636
X-244.552 Y-47.104 I137.933 J-24.984
X-242.007 Y-97.537 I179.405 J-16.228
X-241.134 Y-101.101 I35.627 J6.837
G1 X-240.984 Y-101.458
X-240.859 Y-101.709
G3 X-240.202 Y-102.105 I0.66 J0.351
G1 X-238.909 Y-102.104
X-238.885 Y-102.103 Z-3.043 F711.2
G3 X-238.603 Y-101.792 Z-0.702 I-0.035 J0.316 F5080
G1 Y-101.776 Z-0.625
X-237.552 Y-24.624
Y-24.617 Z-0.658
G3 X-237.835 Y-24.297 Z-3.043 I-0.317 J0.004
G1 X-237.859 Y-24.295 Z-3.165 F711.2
X-239.213 F5080
G3 X-240.443 Y-24.781 I0.143 J-2.165
X-241.514 Y-25.89 I2.69 J-3.669
X-242.757 Y-28.412 I7.887 J-5.451
X-244.013 Y-33.469 I33.618 J-11.037
X-245.651 Y-45.273 I129.338 J-23.961
X-243.22 Y-97.929 I180.474 J-18.053
X-242.517 Y-100.825 I40.371 J8.271
G1 X-242.35 Y-101.285
X-242.209 Y-101.598
G3 X-241.688 Y-102.078 I0.751 J0.292
G1 X-241.492 Y-102.104
X-240.202
X-240.178 Y-102.103 Z-3.043 F711.2
G3 X-239.895 Y-101.791 Z-0.701 I-0.035 J0.316 F5080
G1 Y-101.776 Z-0.625
X-238.906 Y-24.624
Y-24.617 Z-0.659
G3 X-239.189 Y-24.297 Z-3.043 I-0.317 J0.004
G1 X-239.213 Y-24.295 Z-3.165 F711.2
X-240.49 F5080
G3 X-241.713 Y-24.769 I0.133 J-2.158
X-242.775 Y-25.853 I2.651 J-3.659
X-244.009 Y-28.319 I7.671 J-5.379
X-245.276 Y-33.373 I32.552 J-10.849
X-246.913 Y-45.177 I128.331 J-23.815
X-244.527 Y-97.837 I181.674 J-18.152
X-243.834 Y-100.736 I41.957 J8.5
G1 X-243.665 Y-101.224
X-243.521 Y-101.555
X-243.436 Y-101.713
G3 X-242.783 Y-102.104 I0.653 J0.349
G1 X-241.492
X-241.468 Y-102.103 Z-3.043 F711.2
G3 X-241.186 Y-101.791 Z-0.701 I-0.035 J0.316 F5080
G1 Y-101.776 Z-0.625
X-240.184 Y-24.624
Y-24.617 Z-0.659
G3 X-240.466 Y-24.297 Z-3.043 I-0.317 J0.004
G1 X-240.49 Y-24.295 Z-3.165 F711.2
X-241.751 F5080
G3 X-243.183 Y-24.913 I0.15 J-2.315
X-244.307 Y-26.216 I3.193 J-3.89
X-245.481 Y-28.879 I9.448 J-5.757
X-246.797 Y-34.688 I41.736 J-12.504
X-248.503 Y-48.736 I147.253 J-25.018
X-245.844 Y-97.691 I183.259 J-14.597
X-244.991 Y-101.15 I33.397 J6.403
G1 X-244.834 Y-101.506
X-244.709 Y-101.748
G3 X-244.076 Y-102.105 I0.633 J0.385
G1 X-242.783 Y-102.104
X-242.759 Y-102.103 Z-3.043 F711.2
G3 X-242.477 Y-101.791 Z-0.702 I-0.035 J0.316 F5080
G1 X-242.476 Y-101.776 Z-0.625
X-241.445 Y-24.624
Y-24.617 Z-0.659
G3 X-241.727 Y-24.297 Z-3.043 I-0.317 J0.004
G1 X-241.751 Y-24.295 Z-3.165 F711.2
X-243.029 F5080
G3 X-244.457 Y-24.904 I0.138 J-2.305
X-245.579 Y-26.193 I3.142 J-3.865
X-246.754 Y-28.844 I9.334 J-5.726
X-248.071 Y-34.653 I41.221 J-12.396
X-249.711 Y-47.958 I145.121 J-24.646
X-247.139 Y-97.66 I184.46 J-15.371
X-246.282 Y-101.151 I33.698 J6.422
G1 X-246.132 Y-101.494
X-246.01 Y-101.735
G3 X-245.368 Y-102.105 I0.642 J0.373
G1 X-244.076 Y-102.104
X-244.052 Y-102.103 Z-3.043 F711.2
G3 X-243.77 Y-101.792 Z-0.702 I-0.035 J0.316 F5080
G1 Y-101.776 Z-0.625
X-242.723 Y-24.624
Y-24.617 Z-0.658
G3 X-243.005 Y-24.297 Z-3.043 I-0.317 J0.004
G1 X-243.029 Y-24.295 Z-3.165 F711.2
X-244.29 F5080
G3 X-245.706 Y-24.874 I0.107 J-2.285
X-246.809 Y-26.11 I3.015 J-3.803
X-248.001 Y-28.728 I8.925 J-5.641
X-249.201 Y-33.799 I36.718 J-11.368
X-250.842 Y-46.354 I136.785 J-24.265
X-248.448 Y-97.544 I185.528 J-16.976
X-247.591 Y-101.097 I35.696 J6.733
G1 X-247.442 Y-101.453
X-247.323 Y-101.693
G3 X-246.66 Y-102.104 I0.664 J0.329
G1 X-245.368
X-245.344 Y-102.103 Z-3.043 F711.2
G3 X-245.062 Y-101.792 Z-0.703 I-0.035 J0.316 F5080
G1 X-245.061 Y-101.776 Z-0.625
X-243.983 Y-24.624
Y-24.617 Z-0.658
G3 X-244.266 Y-24.297 Z-3.043 I-0.317 J0.004
G1 X-244.29 Y-24.295 Z-3.165 F711.2
X-245.644 F5080
G3 X-246.873 Y-24.78 I0.141 J-2.161
X-247.939 Y-25.884 I2.677 J-3.653
X-249.176 Y-28.399 I7.834 J-5.415
X-250.418 Y-33.459 I33.087 J-10.805
X-252.012 Y-45.269 I130.149 J-23.572
X-249.799 Y-97.208 I186.677 J-18.062
X-248.968 Y-100.838 I44.339 J8.235
G1 X-248.797 Y-101.304
X-248.669 Y-101.588
G3 X-248.143 Y-102.078 I0.76 J0.289
G1 X-247.947 Y-102.104
X-246.66
X-246.636 Y-102.103 Z-3.043 F711.2
G3 X-246.353 Y-101.791 Z-0.701 I-0.035 J0.316 F5080
G1 Y-101.776 Z-0.625
X-245.337 Y-24.624
Y-24.617 Z-0.659
G3 X-245.62 Y-24.297 Z-3.043 I-0.317 J0.004
G1 X-245.644 Y-24.295 Z-3.165 F711.2
X-246.921 F5080
G3 X-248.143 Y-24.77 I0.133 J-2.155
X-249.512 Y-26.315 I3.133 J-4.153
X-250.663 Y-29.02 I10.039 J-5.867
X-251.943 Y-34.837 I43.126 J-12.543
X-253.596 Y-48.891 I150.402 J-24.817
X-251.102 Y-97.122 I188.266 J-14.443
X-250.282 Y-100.755 I46.465 J8.58
G1 X-250.114 Y-101.231
X-249.972 Y-101.558
X-249.889 Y-101.713
G3 X-249.236 Y-102.104 I0.653 J0.349
G1 X-247.947
X-247.923 Y-102.103 Z-3.043 F711.2
G3 X-247.641 Y-101.791 Z-0.702 I-0.035 J0.316 F5080
G1 Y-101.776 Z-0.625
X-246.615 Y-24.624
Y-24.617 Z-0.659
G3 X-246.897 Y-24.297 Z-3.043 I-0.317 J0.004
G1 X-246.921 Y-24.295 Z-3.165 F711.2
X-248.182 F5080
G3 X-249.393 Y-24.745 I0.109 J-2.148
X-250.736 Y-26.219 I2.977 J-4.063
X-251.903 Y-28.883 I9.54 J-5.766
X-253.199 Y-34.696 I41.379 J-12.272
X-254.605 Y-45.732 I140.758 J-23.539
G1 Y-79.451
G3 X-254.036 Y-86.129 I65.026 J2.171
X-252.089 Y-98.641 I161.04 J18.659
X-251.389 Y-101.283 I21.488 J4.275
G1 X-251.249 Y-101.583
X-251.174 Y-101.719
G3 X-250.525 Y-102.104 I0.65 J0.356
G1 X-249.236
X-249.212 Y-102.103 Z-3.043 F711.2
G3 X-248.929 Y-101.776 Z-0.625 I-0.035 J0.316 F5080
X-248.937 Y-101.717 I-0.317 J-0.011
G1 X-253.977 Y-79.392
G3 X-254.276 Y-79.145 I-0.31 J-0.07
X-254.603 Y-79.427 Z-3.043 I-0.011 J-0.317
G1 X-254.605 Y-79.451 Z-3.165 F711.2
Y-90.113 F5080
G3 X-254.11 Y-94.552 I30.698 J1.171
X-252.967 Y-100.4 I69.671 J10.589
G1 X-252.762 Y-101.051
X-252.61 Y-101.434
X-252.487 Y-101.686
G3 X-251.816 Y-102.105 I0.676 J0.335
G1 X-250.525 Y-102.104
X-250.501 Y-102.103 Z-3.043 F711.2
G3 X-250.218 Y-101.776 Z-0.625 I-0.035 J0.316 F5080
X-250.233 Y-101.69 I-0.317 J-0.011
G1 X-253.985 Y-90.027
G3 X-254.276 Y-89.807 I-0.302 J-0.097
X-254.603 Y-90.089 Z-3.043 I-0.011 J-0.317
G1 X-254.605 Y-90.113 Z-3.165 F711.2
Y-97.559 F5080
G3 X-253.895 Y-101.438 I11.743 J0.145
G1 X-253.767 Y-101.685
G3 X-253.097 Y-102.105 I0.675 J0.333
G1 X-253.073 Y-102.103 Z-3.043 F711.2
G3 X-252.791 Y-101.776 Z-0.625 I-0.035 J0.316 F5080
X-252.802 Y-101.702 I-0.317 J-0.011
G1 X-253.981 Y-97.485
G3 X-254.276 Y-97.253 I-0.306 J-0.086
X-254.603 Y-97.536 Z-3.043 I-0.011 J-0.317
G1 X-254.605 Y-97.559 Z-3.165 F711.2
Y-101.283 F5080
G3 X-253.862 Y-102.106 I0.752 J-0.068
G1 X-253.838 Y-102.103 Z-3.043 F711.2
G3 X-253.556 Y-101.776 Z-0.625 I-0.035 J0.316 F5080
X-253.63 Y-101.583 I-0.317 J-0.011
G1 X-254.044 Y-101.09
G3 X-254.276 Y-100.976 I-0.243 J-0.204
X-254.603 Y-101.259 Z-3.043 I-0.011 J-0.317
G1 X-254.605 Y-101.283 Z-3.165 F711.2
X-254.604 Y-101.79 F5080
X-254.599 Y-101.833
X-254.588 Y-101.875
X-254.57 Y-101.917
X-254.544 Y-101.96
X-254.494 Y-102.015
X-254.469 Y-102.037
X-254.444 Y-102.055
X-254.402 Y-102.077
X-254.359 Y-102.093 F2540
X-254.317 Y-102.101 F5080
X-254.275 Y-102.104
X-251.816
X-251.792 Y-102.103 Z-3.043 F711.2
G3 X-251.51 Y-101.802 Z-0.756 I-0.035 J0.316 F5080
G1 X-251.509 Y-101.776 Z-0.625
X-247.876 Y-24.628
Y-24.624
G3 X-248.158 Y-24.297 Z-3.043 I-0.317 J0.011
G1 X-248.182 Y-24.295 Z-3.165 F711.2
X-249.46 F5080
G3 X-250.888 Y-24.908 I0.142 J-2.304
X-252.008 Y-26.201 I3.15 J-3.858
X-253.177 Y-28.854 I9.328 J-5.693
X-254.473 Y-34.667 I40.903 J-12.172
G1 X-254.595 Y-35.353
X-254.6 Y-35.393
X-254.603 Y-35.434
X-254.605 Y-35.474
Y-45.732
X-254.603 Y-45.756 Z-3.043 F711.2
G3 X-254.276 Y-46.038 Z-0.625 I0.316 J0.035 F5080
X-253.978 Y-45.792 I-0.011 J0.317
G1 X-249.162 Y-24.683
G3 X-249.154 Y-24.624 I-0.31 J0.071
X-249.436 Y-24.297 Z-3.043 I-0.317 J0.011
G1 X-249.46 Y-24.295 Z-3.165 F711.2
X-250.721 F5080
G3 X-252.138 Y-24.88 I0.113 J-2.285
X-253.24 Y-26.121 I3.029 J-3.8
X-254.424 Y-28.744 I8.943 J-5.616
G1 X-254.572 Y-29.222
X-254.59 Y-29.293
X-254.601 Y-29.365
X-254.605 Y-29.437
Y-35.474
X-254.603 Y-35.498 Z-3.043 F711.2
G3 X-254.276 Y-35.78 Z-0.625 I0.316 J0.035 F5080
X-253.985 Y-35.562 I-0.011 J0.317
G1 X-250.43 Y-24.712
G3 X-250.415 Y-24.624 I-0.302 J0.099
X-250.697 Y-24.297 Z-3.043 I-0.317 J0.011
G1 X-250.721 Y-24.295 Z-3.165 F711.2
X-251.999 F5080
G3 X-253.413 Y-24.873 I0.105 J-2.278
X-254.542 Y-26.171 I2.903 J-3.667
G1 X-254.589 Y-26.316
X-254.605 Y-26.469
X-254.603 Y-26.492 Z-3.043 F711.2
G3 X-254.276 Y-26.775 Z-0.625 I0.316 J0.035 F5080
X-254.087 Y-26.704 I-0.011 J0.317
G1 X-251.81 Y-24.86
G3 X-251.692 Y-24.624 I-0.2 J0.247
X-251.975 Y-24.297 Z-3.043 I-0.317 J0.011
G1 X-251.999 Y-24.295 Z-3.165 F711.2
X-253.26 F5080
G3 X-254.367 Y-24.659 I0 J-1.87
G1 X-254.495 Y-24.817
X-254.577 Y-25.004
X-254.605 Y-25.205
X-254.603 Y-25.229 Z-3.043 F711.2
G3 X-254.276 Y-25.511 Z-0.625 I0.316 J0.035 F5080
X-254.13 Y-25.47 I-0.011 J0.317
G1 X-253.113 Y-24.888
G3 X-252.953 Y-24.624 I-0.158 J0.276
X-253.235 Y-24.297 Z-3.043 I-0.317 J0.011
G1 X-253.259 Y-24.295 Z-3.165 F711.2
X-254.275 Y-24.296 F5080
X-254.317 Y-24.299
X-254.359 Y-24.307
X-254.402 Y-24.323
X-254.444 Y-24.345
X-254.497 Y-24.387
X-254.528 Y-24.418
X-254.551 Y-24.448
X-254.575 Y-24.49
X-254.591 Y-24.533 F2540
X-254.601 Y-24.575 F5080
X-254.604 Y-24.617
X-254.605 Y-29.437
X-254.596 Y-29.475 Z-3.159 F711.2
X-254.588 Y-29.508 Z-3.141
X-254.582 Y-29.535 Z-3.113
X-254.577 Y-29.552 Z-3.079
X-254.576 Y-29.558 Z-3.04
G0 Z-0.308
X-63.649 Y-64.707
G1 Z-0.625 F711.2
G3 X-63.774 Y-61.693 Z-0.79 I-0.062 J1.507
X-63.649 Y-64.707 Z-0.956 I0.062 J-1.507
X-63.774 Y-61.693 Z-1.121 I-0.062 J1.507
X-63.649 Y-64.707 Z-1.287 I0.062 J-1.507
X-63.774 Y-61.693 Z-1.452 I-0.062 J1.507
X-63.649 Y-64.707 Z-1.618 I0.062 J-1.507
X-63.774 Y-61.693 Z-1.783 I-0.062 J1.507
X-63.649 Y-64.707 Z-1.949 I0.062 J-1.507
X-63.774 Y-61.693 Z-2.114 I-0.062 J1.507
X-63.649 Y-64.707 Z-2.28 I0.062 J-1.507
X-63.774 Y-61.693 Z-2.445 I-0.062 J1.507
X-63.649 Y-64.707 Z-2.61 I0.062 J-1.507
X-63.774 Y-61.693 Z-2.776 I-0.062 J1.507
X-63.649 Y-64.707 Z-2.941 I0.062 J-1.507
X-63.774 Y-61.693 Z-3.107 I-0.062 J1.507
X-63.649 Y-64.707 Z-3.272 I0.062 J-1.507
X-63.774 Y-61.693 Z-3.438 I-0.062 J1.507
X-63.649 Y-64.707 Z-3.603 I0.062 J-1.507
X-63.774 Y-61.693 Z-3.769 I-0.062 J1.507
X-63.649 Y-64.707 Z-3.934 I0.062 J-1.507
X-63.774 Y-61.693 Z-4.099 I-0.062 J1.507
X-63.649 Y-64.707 Z-4.265 I0.062 J-1.507
X-63.774 Y-61.693 Z-4.43 I-0.062 J1.507
X-63.649 Y-64.707 Z-4.596 I0.062 J-1.507
X-63.774 Y-61.693 Z-4.761 I-0.062 J1.507
X-63.649 Y-64.707 Z-4.927 I0.062 J-1.507
X-63.774 Y-61.693 Z-5.092 I-0.062 J1.507
X-63.649 Y-64.707 Z-5.258 I0.062 J-1.507
X-63.774 Y-61.693 Z-5.423 I-0.062 J1.507
X-63.649 Y-64.707 Z-5.589 I0.062 J-1.507
X-63.774 Y-61.693 Z-5.754 I-0.062 J1.507
X-63.649 Y-64.707 Z-5.919 I0.062 J-1.507
X-62.204 Y-63.2 Z-6 I-0.062 J1.507
X-65.22 I-1.508 J0
X-62.204 I1.508 J0
G1 X-62.184 Y-62.455 F5080
G3 X-62.528 Y-61.407 I-1.04 J0.24
X-64.643 Y-61.034 I-1.336 J-1.393
X-65.369 Y-64.943 I0.867 J-2.183
X-61.46 Y-64.071 I1.666 J1.729
X-61.142 Y-62.165 I-3.045 J1.489
X-63.767 Y-59.924 I-2.673 J-0.473
X-67.104 Y-62.913 I-0.124 J-3.218
X-61.176 Y-65.497 I3.392 J-0.31
X-60.316 Y-61.243 I-2.985 J2.817
X-64.993 Y-59.006 I-3.604 J-1.527
X-68.003 Y-64.517 I1.131 J-4.195
X-60.662 Y-66.515 I4.294 J1.293
X-59.603 Y-60.214 I-3.368 J3.806
X-66.016 Y-58.184 I-4.355 J-2.614
X-68.792 Y-65.599 I2.165 J-5.037
X-59.954 Y-67.401 I5.088 J2.379
X-59.11 Y-58.923 I-4.018 J4.681
X-66.849 Y-57.304 I-4.864 J-3.946
X-69.884 Y-65.991 I3.001 J-5.922
X-59.718 Y-68.694 I6.179 J2.77
X-58.498 Y-57.845 I-4.236 J5.969
X-67.272 Y-56.201 I-5.484 J-5.036
X-71.422 Y-65.153 I3.406 J-7.017
X-59.687 Y-70.084 I7.715 J1.93
X-57.524 Y-57.149 I-4.25 J7.359
X-67.008 Y-54.789 I-6.456 J-5.706
X-72.821 Y-62.394 I3.104 J-8.396
X-60.589 Y-71.823 I9.104 J-0.838
X-55.209 Y-66.942 I-3.231 J8.966
X-61.512 Y-53.357 I-8.677 J4.229
X-71.106 Y-56.032 I-2.487 J-9.625
X-74.021 Y-64.183 I7.206 J-7.174
X-62.629 Y-73.521 I10.3 J0.947
X-54.339 Y-67.891 I-1.141 J10.598
X-62.296 Y-51.965 I-9.549 J5.18
X-70.123 Y-53.668 I-1.724 J-10.915
X-75.09 Y-65.307 I6.257 J-9.55
X-70.999 Y-72.21 I11.321 J2.046
X-57.736 Y-73.144 I7.3 J9.021
X-53.682 Y-56.244 I-6.208 J10.426
X-69.424 Y-51.878 I-10.309 J-6.608
X-76.469 Y-64.031 I5.518 J-11.317
X-72.959 Y-72.053 I12.622 J0.744
X-57.88 Y-74.613 I9.258 J8.84
X-55.174 Y-52.66 I-6.048 J11.889
X-74.009 Y-53.789 I-8.834 J-10.298
X-77.696 Y-64.017 I10.056 J-9.404
X-57.574 Y-75.822 I13.986 J0.787
X-49.69 Y-59.673 I-6.336 J13.092
X-64.252 Y-48.176 I-14.23 J-3.054
X-77.388 Y-56.551 I0.264 J-14.903
X-60.318 Y-78.071 I13.656 J-6.699
X-49.369 Y-68.812 I-3.448 J15.179
X-61.207 Y-47.189 I-14.516 J6.105
X-77.39 Y-54.112 I-2.801 J-15.828
X-76.036 Y-74.138 I13.575 J-9.141
X-54.381 Y-76.814 I12.344 J10.937
X-63.067 Y-45.737 I-9.534 J14.088
X-79.156 Y-54.627 I-0.924 J-17.331
X-61.761 Y-80.807 I15.416 J-8.626
X-48.028 Y-71.674 I-1.965 J17.848
X-61.673 Y-44.626 I-15.869 J8.96
X-80.703 Y-54.924 I-2.327 J-18.433
X-68.473 Y-81.541 I16.943 J-8.334
X-48.998 Y-75.242 I4.788 J18.452
X-62.193 Y-43.326 I-14.906 J12.523
X-81.766 Y-54.28 I-1.804 J-19.741
X-60.725 Y-83.164 I18.028 J-8.973
X-44.917 Y-70.96 I-3.021 J20.252
X-60.912 Y-42.234 I-18.973 J8.252
X-83.012 Y-54.013 I-3.091 J-20.824
X-64.404 Y-84.614 I19.264 J-9.244
X-45.91 Y-75.278 I0.704 J21.592
X-60.776 Y-40.999 I-17.99 J12.561
X-83.046 Y-51.48 I-3.229 J-22.039
X-78.336 Y-80.515 I19.252 J-11.777
X-49.466 Y-80.87 I14.651 J17.339
X-63.263 Y-39.536 I-14.447 J18.147
X-86.231 Y-55.297 I-0.728 J-23.555
X-58.703 Y-86.579 I22.499 J-7.955
X-40.965 Y-71.095 I-5.06 J23.699
X-59.474 Y-38.699 I-22.921 J8.39
X-85.096 Y-50.072 I-4.537 J-24.327
X-82.551 Y-79.859 I21.281 J-13.183
X-49.408 Y-83.919 I18.861 J16.663
X-62.718 Y-37.069 I-14.505 J21.195
X-89.065 Y-55.998 I-1.27 J-26.033
X-64.79 Y-89.575 I25.32 J-7.258
X-40.99 Y-76.836 I1.081 J26.583
X-60.413 Y-36.029 I-22.907 J14.123
X-85.46 Y-46.249 I-3.604 J-26.971
X-75.133 Y-88.369 I21.68 J-17.011
X-44.652 Y-83.282 I11.455 J25.222
X-61.437 Y-34.66 I-19.256 J20.561
X-91.003 Y-53.859 I-2.556 J-28.429
X-62.729 Y-92.073 I27.261 J-9.397
X-38.727 Y-77.917 I-0.984 J29.094
X-59.859 Y-33.588 I-25.171 J15.203
X-88.407 Y-46.039 I-4.154 J-29.43
X-78.058 Y-89.701 I24.625 J-17.221
X-43.936 Y-85.992 I14.378 J26.542
X-61.594 Y-32.143 I-19.975 J23.27
X-93.611 Y-53.797 I-2.398 J-30.952
X-68.162 Y-94.269 I29.859 J-9.462
X-38.583 Y-82.135 I4.47 J31.222
X-59.973 Y-31.053 I-25.32 J19.417
X-89.993 Y-43.964 I-4.04 J-31.962
X-77.728 Y-92.669 I26.214 J-19.296
X-41.613 Y-87.274 I14.05 J29.52
X-60.917 Y-29.692 I-22.296 J24.552
X-95.474 Y-51.526 I-3.079 J-33.392
X-66.276 Y-96.988 I31.725 J-11.732
X-35.946 Y-82.775 I2.58 J33.961
X-59.237 Y-28.628 I-27.956 J20.058
X-93.616 Y-44.866 I-4.772 J-34.408
X-84.575 Y-91.468 I29.825 J-18.392
X-42.226 Y-91.042 I20.892 J28.293
X-60.85 Y-27.186 I-21.685 J28.319
X-97.776 Y-50.536 I-3.145 J-35.898
X-68.971 Y-99.206 I34.023 J-12.722
X-35.186 Y-85.909 I5.283 J36.148
X-59.831 Y-26.03 I-28.72 J23.191
X-99.099 Y-50.509 I-4.166 J-37.053
X-65.751 Y-100.784 I35.351 J-12.75
X-31.285 Y-82.523 I2.048 J37.79
X-58.401 Y-24.954 I-32.611 J19.81
X-97.098 Y-43.365 I-5.61 J-38.08
X-80.266 Y-98.391 I33.32 J-19.895
X-36.698 Y-91.246 I16.589 J35.253
X-24.795 Y-67.589 I-27.088 J28.451
G1 Y-59.142
G3 X-25.647 Y-53.257 I-25.337 J-0.66
X-55.126 Y-24.294 I-38.234 J-9.432
G1 X-55.182 Y-24.295 F2540
X-71.497 F5080
G3 X-74.441 Y-24.708 I0.201 J-12.167
X-88.354 Y-31.631 I9.982 J-37.498
X-90.014 Y-93.521 I24.537 J-31.625
X-73.62 Y-102.108 I26.183 J30.045
G1 X-73.554 Y-102.104 F2540
X-55.081 F5080
G3 X-52.147 Y-101.632 I-0.226 J10.744
X-40.774 Y-96.186 I-10.862 J37.283
X-24.805 Y-73.911 I-23.073 J33.402
G1 X-24.799 Y-73.842 F2540
X-24.795 Y-73.773 F5080
Y-67.589
X-24.797 Y-67.565 Z-5.878 F711.2
G3 X-25.124 Y-67.283 Z-3.46 I-0.316 J-0.035 F5080
X-25.352 Y-67.391 I0.011 J-0.317
G1 X-55.308 Y-101.578
G3 X-55.387 Y-101.776 I0.239 J-0.209
X-55.104 Y-102.103 Z-5.878 I0.317 J-0.011
G1 X-55.08 Y-102.104 Z-6 F711.2
X-50.849 F5080
X-50.377 Y-102.081
X-49.89 Y-102.017
G3 X-47.105 Y-101.124 I-2.472 J12.502
X-32.717 Y-90.746 I-16.277 J37.728
X-24.814 Y-77.871 I-30.929 J27.849
G1 X-24.801 Y-77.78 F2540
X-24.795 Y-77.69 F5080
Y-73.773
X-24.797 Y-73.749 Z-5.878 F711.2
G3 X-25.124 Y-73.467 Z-3.46 I-0.316 J-0.035 F5080
X-25.347 Y-73.569 I0.011 J-0.317
G1 X-51.072 Y-101.572
G3 X-51.156 Y-101.776 I0.234 J-0.215
X-50.873 Y-102.103 Z-5.878 I0.317 J-0.011
G1 X-50.849 Y-102.104 Z-6 F711.2
X-47.634 F5080
X-47.169 Y-102.081
X-46.789 Y-102.031
X-46.298 Y-101.926
G3 X-43.582 Y-100.812 I-3.509 J12.421
X-29.513 Y-88.834 I-19.787 J37.491
X-24.821 Y-81.077 I-33.609 J25.626
G1 X-24.803 Y-80.97
X-24.795 Y-80.863
Y-77.69
X-24.797 Y-77.666 Z-5.878 F711.2
G3 X-25.124 Y-77.384 Z-3.46 I-0.316 J-0.035 F5080
X-25.345 Y-77.484 I0.011 J-0.317
G1 X-47.855 Y-101.57
G3 X-47.94 Y-101.776 I0.232 J-0.217
X-47.658 Y-102.103 Z-5.878 I0.317 J-0.011
G1 X-47.634 Y-102.104 Z-6 F711.2
X-44.757 F5080
G3 X-43.142 Y-101.801 I-0.09 J4.916
X-40.48 Y-100.475 I-4.813 J13.006
X-25.551 Y-85.157 I-23.033 J37.381
G1 X-25.175 Y-84.514
X-24.887 Y-83.991
X-24.837 Y-83.878
X-24.806 Y-83.758
X-24.795 Y-83.634
Y-80.863
X-24.797 Y-80.839 Z-5.878 F711.2
G3 X-25.124 Y-80.557 Z-3.46 I-0.316 J-0.035 F5080
X-25.344 Y-80.657 I0.011 J-0.317
G1 X-44.977 Y-101.57
G3 X-45.063 Y-101.776 I0.231 J-0.217
X-44.781 Y-102.103 Z-5.878 I0.317 J-0.011
G1 X-44.757 Y-102.104 Z-6 F711.2
X-42.218 F5080
G3 X-40.804 Y-101.846 I-0.051 J4.279
X-38.28 Y-100.531 I-3.976 J10.715
X-28.898 Y-92.088 I-24.189 J36.31
X-24.836 Y-86.412 I-33.198 J28.045
G1 X-24.808 Y-86.279
X-24.795 Y-86.145
Y-83.634
X-24.797 Y-83.61 Z-5.878 F711.2
G3 X-25.124 Y-83.328 Z-3.46 I-0.316 J-0.035 F5080
X-25.344 Y-83.427 I0.011 J-0.317
G1 X-42.438 Y-101.569
G3 X-42.525 Y-101.776 I0.231 J-0.218
X-42.242 Y-102.103 Z-5.878 I0.317 J-0.011
G1 X-42.218 Y-102.104 Z-6 F711.2
X-39.849 F5080
G3 X-38.103 Y-101.684 I-0.11 J4.287
X-35.576 Y-100.144 I-5.431 J11.756
X-24.849 Y-88.766 I-27.261 J36.449
G1 X-24.81 Y-88.622
X-24.795 Y-88.475
Y-86.145
X-24.797 Y-86.121 Z-5.878 F711.2
G3 X-25.124 Y-85.839 Z-3.46 I-0.316 J-0.035 F5080
X-25.344 Y-85.939 I0.011 J-0.317
G1 X-40.069 Y-101.569
G3 X-40.155 Y-101.776 I0.231 J-0.218
X-39.873 Y-102.103 Z-5.878 I0.317 J-0.011
G1 X-39.849 Y-102.104 Z-6 F711.2
X-37.649 F5080
G3 X-36.05 Y-101.726 I-0.08 J3.901
G1 X-35.489 Y-101.456
G3 X-33.052 Y-99.749 I-7.918 J13.904
X-24.855 Y-90.978 I-29.367 J35.658
G1 X-24.812 Y-90.824
X-24.795 Y-90.668
Y-88.475
X-24.797 Y-88.451 Z-5.878 F711.2
G3 X-25.124 Y-88.169 Z-3.46 I-0.316 J-0.035 F5080
X-25.344 Y-88.269 I0.011 J-0.317
G1 X-37.869 Y-101.57
G3 X-37.955 Y-101.776 I0.231 J-0.218
