%
(1)
(planck-wrest-wood-cutout-rev1)
(T5  D=3.175 CR=0 - ZMIN=-18 - flat end mill)
G90
G17
G21
G28 G91 Z0
G90

(2D Contour7)
M9
T5 M6
S16000 M3
G54
M7
G0 X-268.74 Y-49.826
Z15.24
Z5.08
G1 Z4.175 F711.2
Z2.858 F304.8
G18 G2 X-268.422 Z2.54 I0.318 K0
G1 X-268.105 F711.2
G17 G3 X-267.788 Y-49.509 I0 J0.317
G1 Y-17.7 Z1.429
G2 X-261.2 Y-11.113 Z1.068 I6.587 J0
G1 X-139.7 Z-3.175
X-18.2 F2540
G2 X-11.613 Y-17.7 I0 J-6.588
G1 Y-198.7
G2 X-18.2 Y-205.288 I-6.588 J0
G1 X-261.2
G2 X-267.788 Y-198.7 I0 J6.588
G1 Y-17.7
G2 X-261.2 Y-11.113 I6.587 J0
G1 X-139.7
X-18.2 Z-4.91 F711.2
G2 X-11.613 Y-17.7 Z-5.058 I0 J-6.588
G1 Y-108.2 Z-6.35
Y-198.7 F2540
G2 X-18.2 Y-205.288 I-6.588 J0
G1 X-261.2
G2 X-267.788 Y-198.7 I0 J6.588
G1 Y-17.7
G2 X-261.2 Y-11.113 I6.587 J0
G1 X-18.2
G2 X-11.613 Y-17.7 I0 J-6.588
G1 Y-108.2
Y-198.7 Z-7.642 F711.2
G2 X-18.2 Y-205.288 Z-7.79 I-6.588 J0
G1 X-139.7 Z-9.525
X-261.2 F2540
G2 X-267.788 Y-198.7 I0 J6.588
G1 Y-17.7
G2 X-261.2 Y-11.113 I6.587 J0
G1 X-18.2
G2 X-11.613 Y-17.7 I0 J-6.588
G1 Y-198.7
G2 X-18.2 Y-205.288 I-6.588 J0
G1 X-139.7
X-261.2 Z-11.26 F711.2
G2 X-267.788 Y-198.7 Z-11.408 I0 J6.588
G1 Y-108.2 Z-12.7
Y-17.7 F2540
G2 X-261.2 Y-11.113 I6.587 J0
G1 X-18.2
G2 X-11.613 Y-17.7 I0 J-6.588
G1 Y-198.7
G2 X-18.2 Y-205.288 I-6.588 J0
G1 X-261.2
G2 X-267.788 Y-198.7 I0 J6.588
G1 Y-108.2
Y-17.7 Z-13.992 F711.2
G2 X-261.2 Y-11.113 Z-14.14 I6.587 J0
G1 X-202.348 Z-14.98
X-202.038 Z-14.825
X-198.863
X-198.44 Z-15.036 F304.8
X-139.7 Z-15.875 F711.2
X-82.637 F2540
X-80.537 Z-14.825
X-77.363
X-75.262 Z-15.875 F304.8
X-18.2 F2540
G2 X-11.613 Y-17.7 I0 J-6.588
G1 Y-104.512
Y-106.613 Z-14.825
Y-109.787
Y-111.887 Z-15.875 F304.8
Y-198.7 F2540
G2 X-18.2 Y-205.288 I-6.588 J0
G1 X-75.262
X-77.363 Z-14.825
X-80.537
X-82.637 Z-15.875 F304.8
X-196.762 F2540
X-198.863 Z-14.825
X-202.038
X-204.137 Z-15.875 F304.8
X-261.2 F2540
G2 X-267.788 Y-198.7 I0 J6.588
G1 Y-111.887
Y-109.787 Z-14.825
Y-106.613
Y-104.512 Z-15.875 F304.8
Y-17.7 F2540
G2 X-261.2 Y-11.113 I6.587 J0
G1 X-204.137
X-202.038 Z-14.825
X-198.863
X-196.762 Z-15.875 F304.8
X-139.7 F2540
X-84.222 Z-16.667 F711.2
X-80.537 Z-14.825
X-77.363
X-73.368 Z-16.822 F304.8
X-18.2 Z-17.61 F711.2
G2 X-11.613 Y-17.7 Z-17.758 I0 J-6.588
G1 Y-34.668 Z-18
Y-100.262 F2540
Y-106.613 Z-14.825
Y-109.787
Y-116.137 Z-18 F304.8
Y-198.7 F2540
G2 X-18.2 Y-205.288 I-6.588 J0
G1 X-71.012
X-77.363 Z-14.825
X-80.537
X-86.887 Z-18 F304.8
X-192.512 F2540
X-198.863 Z-14.825
X-202.038
X-208.387 Z-18 F304.8
X-261.2 F2540
G2 X-267.788 Y-198.7 I0 J6.588
G1 Y-116.137
Y-109.787 Z-14.825
Y-106.613
Y-100.262 Z-18 F304.8
Y-17.7 F2540
G2 X-261.2 Y-11.113 I6.587 J0
G1 X-208.387
X-202.038 Z-14.825
X-198.863
X-192.512 Z-18 F304.8
X-86.887 F2540
X-80.537 Z-14.825
X-77.363
X-71.012 Z-18 F304.8
X-18.2 F2540
G2 X-11.613 Y-17.7 I0 J-6.588
G1 Y-34.668
G3 X-11.295 Y-34.985 I0.318 J0 F711.2
G1 X-10.977
G18 G2 X-10.66 Z-17.683 I0 K0.317
G0 Z15.24
G17
M9
G28 G91 Z0
G28 X0 Y0
M30
%
