%
(1001)
(planck-wrest-wood-bottom-rev1)
(T5  D=3.175 CR=0 - ZMIN=-11 - flat end mill)
G90
G17
G21
G28 G91 Z0
G90

(Drill3)
M9
T5 M6
S16000 M3
G54
M7
G0 X-183.5 Y-167.5
Z15.24
Z5.08
Z2
G1 Z-0.794 F304.8
G0 Z5.08
Z1.206
G1 Z-1.587 F304.8
G0 Z5.08
Z0.413
G1 Z-2.381 F304.8
G0 Z5.08
Z-0.381
G1 Z-3.175 F304.8
G0 Z5.08
Z-1.175
G1 Z-3.969 F304.8
G0 Z5.08
Z-1.969
G1 Z-4 F304.8
G0 Z5.08
Z15.24

(2D Pocket2)
M7
X-201.262 Y-179.601
Z15.24
Z5.08
G1 Z2.857 F711.2
X-201.284 Y-179.593 Z2.738
X-201.347 Y-179.574 Z2.637
X-201.444 Y-179.55 Z2.567
X-201.56 Y-179.53 Z2.54
G3 X-201.955 Y-182.52 Z2.375 I-0.198 J-1.495
X-201.56 Y-179.53 Z2.209 I0.198 J1.495
X-201.955 Y-182.52 Z2.044 I-0.198 J-1.495
X-201.56 Y-179.53 Z1.878 I0.198 J1.495
X-201.955 Y-182.52 Z1.713 I-0.198 J-1.495
X-201.56 Y-179.53 Z1.547 I0.198 J1.495
X-201.955 Y-182.52 Z1.382 I-0.198 J-1.495
X-201.56 Y-179.53 Z1.216 I0.198 J1.495
X-201.955 Y-182.52 Z1.051 I-0.198 J-1.495
X-201.56 Y-179.53 Z0.885 I0.198 J1.495
X-201.955 Y-182.52 Z0.72 I-0.198 J-1.495
X-201.56 Y-179.53 Z0.555 I0.198 J1.495
X-201.955 Y-182.52 Z0.389 I-0.198 J-1.495
X-201.56 Y-179.53 Z0.224 I0.198 J1.495
X-201.955 Y-182.52 Z0.058 I-0.198 J-1.495
X-201.56 Y-179.53 Z-0.107 I0.198 J1.495
X-201.955 Y-182.52 Z-0.273 I-0.198 J-1.495
X-201.56 Y-179.53 Z-0.438 I0.198 J1.495
X-201.955 Y-182.52 Z-0.604 I-0.198 J-1.495
X-201.56 Y-179.53 Z-0.769 I0.198 J1.495
X-201.955 Y-182.52 Z-0.934 I-0.198 J-1.495
X-201.56 Y-179.53 Z-1.1 I0.198 J1.495
X-201.955 Y-182.52 Z-1.265 I-0.198 J-1.495
X-201.56 Y-179.53 Z-1.431 I0.198 J1.495
X-201.955 Y-182.52 Z-1.596 I-0.198 J-1.495
X-201.56 Y-179.53 Z-1.762 I0.198 J1.495
X-201.955 Y-182.52 Z-1.927 I-0.198 J-1.495
X-201.56 Y-179.53 Z-2.093 I0.198 J1.495
X-201.955 Y-182.52 Z-2.258 I-0.198 J-1.495
X-201.56 Y-179.53 Z-2.424 I0.198 J1.495
X-201.955 Y-182.52 Z-2.589 I-0.198 J-1.495
X-201.56 Y-179.53 Z-2.754 I0.198 J1.495
X-201.955 Y-182.52 Z-2.92 I-0.198 J-1.495
X-201.56 Y-179.53 Z-3.085 I0.198 J1.495
X-203.266 Y-181.025 Z-3.175 I-0.198 J-1.495
G2 X-203.454 Y-183.288 I-13.713 J0 F2540
X-203.978 Y-185.498 I-16.742 J2.801
G3 X-203.757 Y-185.797 I0.221 J-0.068
G1 X-201.493
G3 X-201.272 Y-185.498 I0 J0.231
G2 X-201.797 Y-183.276 I16.057 J4.961
X-201.983 Y-181 I13.777 J2.276
G1 X-201.968 Y-180.514
X-201.953 Y-180.027
G3 X-202.277 Y-179.703 I-0.324 J0
G1 X-202.973
G3 X-203.297 Y-180.027 I0 J-0.324
G1 X-203.281 Y-180.526
X-203.266 Y-181.025
G2 X-203.986 Y-182.071 I-1.12 J0
G3 X-204.788 Y-183.057 I0.453 J-1.187
G2 X-204.983 Y-184.03 I-12.67 J2.032
X-205.986 Y-186.884 I-14.488 J3.489
G3 X-205.803 Y-187.172 I0.183 J-0.086
G1 X-199.447
G3 X-199.264 Y-186.884 I0 J0.202
G2 X-200.269 Y-184.017 I13.416 J6.311
X-200.624 Y-181 I12.633 J3.017
X-200.601 Y-179.826 I30.136 J0
G3 X-200.578 Y-178.653 I-30.113 J1.174
X-200.903 Y-178.328 I-0.324 J0
G1 X-204.347
G3 X-204.672 Y-178.653 I0 J-0.324
X-204.649 Y-179.839 I30.788 J0
G2 X-204.626 Y-181.025 I-30.765 J-1.186
X-204.788 Y-183.057 I-12.832 J0
X-206.304 Y-184.62 I-1.874 J0.301
G3 X-208.025 Y-185.955 I0.454 J-2.363
G2 X-210.082 Y-188.963 I-10.475 J4.955
X-210.531 Y-189.413 I-8.418 J7.963 F635
G1 X-195.354 F2540
X-194.719 F635
G2 X-198.337 Y-181 I7.969 J8.412 F2540
G1 Y-176.722
Y-176.087 F635
X-206.278 F2540
X-206.913 F635
Y-181 F2540
G2 X-208.025 Y-185.955 I-11.587 J0
G3 X-207.833 Y-186.245 I0.184 J-0.087
G1 X-201.335 Y-185.964
G3 X-201.207 Y-185.911 I-0.009 J0.203
X-203.238 Y-183.681 Z-3.34 I-1.016 J1.115 F711.2
X-201.207 Y-185.911 Z-3.506 I1.016 J-1.115
X-203.238 Y-183.681 Z-3.671 I-1.016 J1.115
X-201.207 Y-185.911 Z-3.837 I1.016 J-1.115
X-203.238 Y-183.681 Z-4.002 I-1.016 J1.115
X-201.207 Y-185.911 Z-4.168 I1.016 J-1.115
X-203.238 Y-183.681 Z-4.333 I-1.016 J1.115
X-201.207 Y-185.911 Z-4.499 I1.016 J-1.115
X-203.238 Y-183.681 Z-4.664 I-1.016 J1.115
X-201.207 Y-185.911 Z-4.83 I1.016 J-1.115
X-203.238 Y-183.681 Z-4.995 I-1.016 J1.115
X-201.207 Y-185.911 Z-5.16 I1.016 J-1.115
X-203.238 Y-183.681 Z-5.326 I-1.016 J1.115
X-201.207 Y-185.911 Z-5.491 I1.016 J-1.115
X-203.238 Y-183.681 Z-5.657 I-1.016 J1.115
X-201.207 Y-185.911 Z-5.822 I1.016 J-1.115
X-203.238 Y-183.681 Z-5.988 I-1.016 J1.115
X-201.207 Y-185.911 Z-6.153 I1.016 J-1.115
X-203.238 Y-183.681 Z-6.319 I-1.016 J1.115
X-203.689 Y-184.445 Z-6.35 I1.016 J-1.115
G2 X-203.978 Y-185.498 I-16.506 J3.958 F2540
G3 X-203.757 Y-185.797 I0.221 J-0.068
G1 X-201.493
G3 X-201.272 Y-185.498 I0 J0.231
G2 X-201.797 Y-183.276 I16.057 J4.961
X-201.983 Y-181 I13.777 J2.276
G1 X-201.968 Y-180.514
X-201.953 Y-180.027
G3 X-202.277 Y-179.703 I-0.324 J0
G1 X-202.973
G3 X-203.297 Y-180.027 I0 J-0.324
G1 X-203.281 Y-180.526
X-203.266 Y-181.025
G2 X-203.454 Y-183.288 I-13.713 J0
X-203.689 Y-184.445 I-16.742 J2.801
X-204.63 Y-185.288 I-1.081 J0.259
G3 X-205.629 Y-186.062 I0.157 J-1.235
G2 X-205.986 Y-186.884 I-13.842 J5.522
G3 X-205.803 Y-187.172 I0.183 J-0.086
G1 X-199.447
G3 X-199.264 Y-186.884 I0 J0.202
G2 X-200.269 Y-184.017 I13.416 J6.311
X-200.624 Y-181 I12.633 J3.017
X-200.601 Y-179.826 I30.136 J0
G3 X-200.578 Y-178.653 I-30.113 J1.174
X-200.903 Y-178.328 I-0.324 J0
G1 X-204.347
G3 X-204.672 Y-178.653 I0 J-0.324
X-204.649 Y-179.839 I30.788 J0
G2 X-204.626 Y-181.025 I-30.765 J-1.186
X-204.983 Y-184.03 I-12.832 J0
X-205.629 Y-186.062 I-14.488 J3.489
X-207.428 Y-187.236 I-1.734 J0.692
G3 X-209.376 Y-188.143 I-0.083 J-2.366
G2 X-210.082 Y-188.963 I-9.124 J7.142
X-210.531 Y-189.413 I-8.418 J7.963 F635
G1 X-195.354 F2540
X-194.719 F635
G2 X-198.337 Y-181 I7.969 J8.412 F2540
G1 Y-176.722
Y-176.087 F635
X-206.278 F2540
X-206.913 F635
Y-181 F2540
G2 X-209.376 Y-188.143 I-11.587 J0
G3 X-209.154 Y-188.461 I0.16 J-0.125
G1 X-201.282 Y-185.954
G3 X-201.207 Y-185.911 I-0.062 J0.194
X-203.238 Y-183.681 Z-6.515 I-1.016 J1.115 F711.2
X-201.207 Y-185.911 Z-6.681 I1.016 J-1.115
X-203.238 Y-183.681 Z-6.846 I-1.016 J1.115
X-201.207 Y-185.911 Z-7.012 I1.016 J-1.115
X-203.238 Y-183.681 Z-7.177 I-1.016 J1.115
X-201.207 Y-185.911 Z-7.343 I1.016 J-1.115
X-203.238 Y-183.681 Z-7.508 I-1.016 J1.115
X-201.207 Y-185.911 Z-7.674 I1.016 J-1.115
X-203.238 Y-183.681 Z-7.839 I-1.016 J1.115
X-201.207 Y-185.911 Z-8.005 I1.016 J-1.115
X-203.238 Y-183.681 Z-8.17 I-1.016 J1.115
X-201.207 Y-185.911 Z-8.335 I1.016 J-1.115
X-203.238 Y-183.681 Z-8.501 I-1.016 J1.115
X-201.207 Y-185.911 Z-8.666 I1.016 J-1.115
X-203.238 Y-183.681 Z-8.832 I-1.016 J1.115
X-201.207 Y-185.911 Z-8.997 I1.016 J-1.115
X-203.238 Y-183.681 Z-9.163 I-1.016 J1.115
X-201.207 Y-185.911 Z-9.328 I1.016 J-1.115
X-203.238 Y-183.681 Z-9.494 I-1.016 J1.115
X-203.689 Y-184.445 Z-9.525 I1.016 J-1.115
G2 X-203.978 Y-185.498 I-16.506 J3.958 F2540
G3 X-203.757 Y-185.797 I0.221 J-0.068
G1 X-201.493
G3 X-201.272 Y-185.498 I0 J0.231
G2 X-201.797 Y-183.276 I16.057 J4.961
X-201.983 Y-181 I13.777 J2.276
G1 X-201.968 Y-180.514
X-201.953 Y-180.027
G3 X-202.277 Y-179.703 I-0.324 J0
G1 X-202.973
G3 X-203.297 Y-180.027 I0 J-0.324
G1 X-203.281 Y-180.526
X-203.266 Y-181.025
G2 X-203.454 Y-183.288 I-13.713 J0
X-203.689 Y-184.445 I-16.742 J2.801
X-204.63 Y-185.288 I-1.081 J0.259
G3 X-205.629 Y-186.062 I0.157 J-1.235
G2 X-205.986 Y-186.884 I-13.842 J5.522
G3 X-205.803 Y-187.172 I0.183 J-0.086
G1 X-199.447
G3 X-199.264 Y-186.884 I0 J0.202
G2 X-200.269 Y-184.017 I13.416 J6.311
X-200.624 Y-181 I12.633 J3.017
X-200.601 Y-179.826 I30.136 J0
G3 X-200.578 Y-178.653 I-30.113 J1.174
X-200.903 Y-178.328 I-0.324 J0
G1 X-204.347
G3 X-204.672 Y-178.653 I0 J-0.324
X-204.649 Y-179.839 I30.788 J0
G2 X-204.626 Y-181.025 I-30.765 J-1.186
X-204.983 Y-184.03 I-12.832 J0
X-205.629 Y-186.062 I-14.488 J3.489
X-207.428 Y-187.236 I-1.734 J0.692
G3 X-209.376 Y-188.143 I-0.083 J-2.366
G2 X-210.082 Y-188.963 I-9.124 J7.142
X-210.531 Y-189.413 I-8.418 J7.963 F635
G1 X-195.354 F2540
X-194.719 F635
G2 X-198.337 Y-181 I7.969 J8.412 F2540
G1 Y-176.722
Y-176.087 F635
X-206.278 F2540
X-206.913 F635
Y-181 F2540
G2 X-209.376 Y-188.143 I-11.587 J0
G3 X-209.136 Y-188.455 I0.16 J-0.125
G1 X-200.839 Y-184.942
G3 X-200.715 Y-184.748 I-0.079 J0.187
X-203.73 Y-184.844 Z-9.69 I-1.507 J-0.048 F711.2
X-200.715 Y-184.748 Z-9.856 I1.507 J0.048
X-203.73 Y-184.844 Z-10.021 I-1.507 J-0.048
X-200.715 Y-184.748 Z-10.187 I1.507 J0.048
X-203.73 Y-184.844 Z-10.352 I-1.507 J-0.048
X-200.715 Y-184.748 Z-10.518 I1.507 J0.048
X-203.73 Y-184.844 Z-10.683 I-1.507 J-0.048
X-200.715 Y-184.748 Z-10.849 I1.507 J0.048
X-203.689 Y-184.445 Z-11 I-1.507 J-0.048
G2 X-203.978 Y-185.498 I-16.506 J3.958 F2540
G3 X-203.757 Y-185.797 I0.221 J-0.068
G1 X-201.493
G3 X-201.272 Y-185.498 I0 J0.231
G2 X-201.797 Y-183.276 I16.057 J4.961
X-201.983 Y-181 I13.777 J2.276
G1 X-201.968 Y-180.514
X-201.953 Y-180.027
G3 X-202.277 Y-179.703 I-0.324 J0
G1 X-202.973
G3 X-203.297 Y-180.027 I0 J-0.324
G1 X-203.281 Y-180.526
X-203.266 Y-181.025
G2 X-203.454 Y-183.288 I-13.713 J0
X-203.689 Y-184.445 I-16.742 J2.801
X-204.63 Y-185.288 I-1.081 J0.259
G3 X-205.629 Y-186.062 I0.157 J-1.235
G2 X-205.986 Y-186.884 I-13.842 J5.522
G3 X-205.803 Y-187.172 I0.183 J-0.086
G1 X-199.447
G3 X-199.264 Y-186.884 I0 J0.202
G2 X-200.269 Y-184.017 I13.416 J6.311
X-200.624 Y-181 I12.633 J3.017
X-200.601 Y-179.826 I30.136 J0
G3 X-200.578 Y-178.653 I-30.113 J1.174
X-200.903 Y-178.328 I-0.324 J0
G1 X-204.347
G3 X-204.672 Y-178.653 I0 J-0.324
X-204.649 Y-179.839 I30.788 J0
G2 X-204.626 Y-181.025 I-30.765 J-1.186
X-204.983 Y-184.03 I-12.832 J0
X-205.629 Y-186.062 I-14.488 J3.489
X-207.428 Y-187.236 I-1.734 J0.692
G3 X-209.376 Y-188.143 I-0.083 J-2.366
G2 X-210.082 Y-188.963 I-9.124 J7.142
X-210.531 Y-189.413 I-8.418 J7.963 F635
G1 X-195.354 F2540
X-194.719 F635
G2 X-198.337 Y-181 I7.969 J8.412 F2540
G1 Y-176.722
Y-176.087 F635
X-206.278 F2540
X-206.913 F635
Y-181 F2540
G2 X-209.376 Y-188.143 I-11.587 J0
G3 X-209.431 Y-188.25 Z-10.976 I0.25 J-0.196 F711.2
X-209.443 Y-188.352 Z-10.907 I0.305 J-0.088
X-209.432 Y-188.42 Z-10.804 I0.317 J0.014
G1 X-209.425 Y-188.443 Z-10.682
G0 Z15.24
M9
G28 G91 Z0
G28 X0 Y0
M30
%
