%
(1001)
(planck-wood-top)
(T5  D=3.175 CR=0 - ZMIN=-11 - flat end mill)
G90
G17
G21
G28 G91 Z0
G90

(Adaptive1)
M9
T5 M6
S16000 M3
G54
M7
G0 X-101.31 Y-42.469
Z15.24
Z2.862
G1 Z2.544 F1524
G3 X-103.087 Y-40.031 Z2.379 I-0.888 J1.219 F711.2
X-101.31 Y-42.469 Z2.213 I0.888 J-1.219
X-103.087 Y-40.031 Z2.048 I-0.888 J1.219
X-101.31 Y-42.469 Z1.882 I0.888 J-1.219
X-103.087 Y-40.031 Z1.717 I-0.888 J1.219
X-101.31 Y-42.469 Z1.551 I0.888 J-1.219
X-103.087 Y-40.031 Z1.386 I-0.888 J1.219
X-101.31 Y-42.469 Z1.22 I0.888 J-1.219
X-103.087 Y-40.031 Z1.055 I-0.888 J1.219
X-101.31 Y-42.469 Z0.889 I0.888 J-1.219
X-103.087 Y-40.031 Z0.724 I-0.888 J1.219
X-101.31 Y-42.469 Z0.559 I0.888 J-1.219
X-103.087 Y-40.031 Z0.393 I-0.888 J1.219
X-101.31 Y-42.469 Z0.228 I0.888 J-1.219
X-103.087 Y-40.031 Z0.062 I-0.888 J1.219
X-101.31 Y-42.469 Z-0.103 I0.888 J-1.219
X-103.087 Y-40.031 Z-0.269 I-0.888 J1.219
X-101.31 Y-42.469 Z-0.434 I0.888 J-1.219
X-103.087 Y-40.031 Z-0.6 I-0.888 J1.219
X-101.31 Y-42.469 Z-0.765 I0.888 J-1.219
X-103.087 Y-40.031 Z-0.93 I-0.888 J1.219
X-101.31 Y-42.469 Z-1.096 I0.888 J-1.219
X-103.087 Y-40.031 Z-1.261 I-0.888 J1.219
X-101.31 Y-42.469 Z-1.427 I0.888 J-1.219
X-103.087 Y-40.031 Z-1.592 I-0.888 J1.219
X-101.31 Y-42.469 Z-1.758 I0.888 J-1.219
X-103.087 Y-40.031 Z-1.923 I-0.888 J1.219
X-101.31 Y-42.469 Z-2.089 I0.888 J-1.219
X-103.087 Y-40.031 Z-2.254 I-0.888 J1.219
X-101.31 Y-42.469 Z-2.42 I0.888 J-1.219
X-103.087 Y-40.031 Z-2.585 I-0.888 J1.219
X-101.31 Y-42.469 Z-2.75 I0.888 J-1.219
X-100.691 Y-41.25 Z-2.8 I-0.888 J1.219
X-103.707 I-1.508 J0
X-100.691 I1.508 J0
G1 X-100.671 Y-40.505 F5080
G3 X-101.158 Y-39.508 I-1.136 J0.063
X-103.553 Y-39.575 I-1.156 J-1.523
X-100.854 Y-42.956 I1.35 J-1.691
X-100.325 Y-42.338 I-1.35 J1.691
X-99.93 Y-40.275 I-2.65 J1.576
X-102.601 Y-38.44 I-2.344 J-0.55
X-105.048 Y-41.808 I0.299 J-2.79
X-99.804 Y-42.908 I2.851 J0.544
X-99.705 Y-38.952 I-2.653 J2.046
X-104.478 Y-38.384 I-2.665 J-2.056
X-103.277 Y-44.788 I2.238 J-2.895
X-99.22 Y-43.475 I1.094 J3.543
X-100.309 Y-37.36 I-3.132 J2.596
X-106.428 Y-39.676 I-2.065 J-3.784
X-99.653 Y-45.002 I4.222 J-1.601
X-99.708 Y-36.735 I-2.715 J4.115
X-106.996 Y-38.836 I-2.68 J-4.393
X-100.024 Y-46.19 I4.785 J-2.445
X-103.508 Y-35.215 I-2.327 J5.301
X-108.099 Y-43.379 I1.18 J-6.036
X-98.776 Y-46.529 I5.906 J2.108
X-103.38 Y-34.286 I-3.571 J5.645
X-109.334 Y-41.991 I1.024 J-6.944
X-98.564 Y-47.46 I7.139 J0.718
X-102.657 Y-33.302 I-3.776 J6.579
X-110.289 Y-41.191 I0.285 J-7.911
X-98.925 Y-48.673 I8.088 J-0.087
X-102.304 Y-32.372 I-3.412 J7.793
X-111.153 Y-40.189 I-0.082 J-8.824
X-98.93 Y-49.681 I8.949 J-1.091
X-94.146 Y-36.193 I-3.386 J8.793
X-105.65 Y-31.999 I-8.245 J-4.741
X-111.503 Y-44.822 I3.323 J-9.264
X-97.17 Y-49.883 I9.317 J3.558
X-101.35 Y-30.544 I-5.164 J9.005
X-112.21 Y-36.957 I-1.059 J-10.608
X-99.898 Y-51.931 I9.997 J-4.329
X-91.776 Y-44.987 I-2.324 J10.94
X-102.677 Y-29.543 I-10.562 J4.114
X-113.409 Y-37.401 I0.284 J-11.645
X-99.47 Y-52.813 I11.202 J-3.878
X-91.842 Y-47.271 I-2.721 J11.765
X-102.384 Y-28.584 I-10.495 J6.396
X-113.021 Y-34.428 I-0.03 J-12.548
X-110.84 Y-50.736 I10.757 J-6.861
X-99.049 Y-53.699 I8.645 J9.459
X-90.924 Y-47.604 I-3.17 J12.688
X-98.375 Y-28.236 I-11.408 J6.729
X-113.516 Y-33.444 I-4.03 J-12.897
X-115.683 Y-44.09 I11.123 J-7.808
X-100.149 Y-54.892 I13.47 J2.8
X-91.794 Y-50.395 I-1.973 J13.677
X-88.214 Y-39.394 I-10.412 J9.471
X-93.413 Y-29.833 I-13.973 J-1.404
X-103.11 Y-26.684 I-8.914 J-10.946
X-112.991 Y-31.276 I0.648 J-14.319
X-116.905 Y-42.182 I10.517 J-9.93
X-111.115 Y-53.005 I14.614 J0.858
X-99.865 Y-55.824 I8.912 J11.71
X-90.928 Y-50.871 I-2.284 J14.659
X-87.207 Y-39.873 I-11.255 J9.936
X-92.354 Y-29.467 I-14.961 J-0.924
X-102.607 Y-25.706 I-9.957 J-11.288
X-113.313 Y-30.226 I0.138 J-15.267
X-117.892 Y-41.655 I10.824 J-10.969
X-112.784 Y-52.866 I15.558 J0.321
X-101.897 Y-56.963 I10.528 J11.461
X-91.699 Y-53.003 I-0.204 J15.638
X-86.215 Y-40.45 I-10.497 J12.061
X-91.234 Y-29.181 I-15.952 J-0.353
X-102.004 Y-24.743 I-11.07 J-11.579
X-113.551 Y-29.115 I-0.459 J-16.226
X-118.858 Y-41.769 I11.1 J-12.094
X-112.251 Y-54.572 I16.611 J0.465
X-90.415 Y-53.134 I10.084 J13.397
X-85.246 Y-40.393 I-11.803 J12.207
X-101.288 Y-23.805 I-17.082 J-0.47
X-114.783 Y-28.955 I-1.149 J-17.246
X-116.976 Y-50.893 I12.471 J-12.325
X-101.844 Y-58.9 I14.743 J9.56
X-87.37 Y-51.008 I-0.34 J17.841
X-101.936 Y-22.806 I-14.969 J10.132
X-119.47 Y-34.361 I-0.468 J-18.369
X-99.777 Y-59.718 I17.257 J-6.923
X-84.155 Y-46.524 I-2.44 J18.734
X-102.452 Y-21.83 I-18.183 J5.653
X-121.111 Y-36.22 I0.052 J-19.359
X-98.599 Y-60.515 I18.902 J-5.063
X-83.238 Y-46.853 I-3.623 J19.541
X-102.826 Y-20.863 I-19.103 J5.979
X-122.353 Y-37.269 I0.428 J-20.333
X-99.037 Y-61.576 I20.143 J-4.014
X-84.97 Y-52.661 I-3.145 J20.518
X-102.304 Y-19.886 I-17.369 J11.785
X-121.181 Y-31.143 I-0.111 J-21.27
X-101.115 Y-62.763 I18.961 J-10.145
X-84.628 Y-53.865 I-1.056 J21.678
X-101.625 Y-18.925 I-17.709 J12.99
X-121.925 Y-30.47 I-0.79 J-22.229
X-101.132 Y-63.74 I19.705 J-10.818
X-82.706 Y-52.739 I-1.052 J22.693
X-102.269 Y-17.936 I-19.635 J11.863
X-123.6 Y-31.644 I-0.142 J-23.231
X-99.091 Y-64.537 I21.386 J-9.642
X-79.588 Y-48.234 I-3.118 J23.548
X-102.742 Y-16.962 I-22.751 J7.363
X-125.347 Y-33.411 I0.334 J-24.217
X-97.973 Y-65.354 I23.137 J-7.873
X-79.781 Y-51.399 I-4.228 J24.347
X-103.038 Y-15.991 I-22.562 J10.523
X-125.961 Y-32.232 I0.628 J-25.186
X-99.243 Y-66.525 I23.748 J-9.053
X-81.215 Y-55.811 I-2.933 J25.46
X-101.661 Y-15.014 I-21.125 J14.935
X-125.849 Y-29.543 I-0.753 J-26.145
X-99.964 Y-67.58 I23.632 J-11.745
X-79.681 Y-55.28 I-2.217 J26.53
X-101.587 Y-14.037 I-22.66 J14.404
X-128.674 Y-34.287 I-0.817 J-27.149
X-97.181 Y-68.194 I26.465 J-6.998
X-75.105 Y-46.571 I-5.042 J27.228
X-102.064 Y-13.047 I-27.233 J5.702
X-130.22 Y-36.89 I-0.335 J-28.15
X-96.805 Y-69.12 I28.012 J-4.395
X-75.209 Y-50.559 I-5.406 J28.135
X-103.09 Y-12.074 I-27.134 J9.684
X-129.269 Y-29.956 I0.678 J-29.096
X-99.574 Y-70.497 I27.054 J-11.33
X-76.229 Y-55.215 I-2.614 J29.466
X-101.681 Y-11.093 I-26.112 J14.34
X-129.742 Y-28.597 I-0.732 J-30.07
X-99.595 Y-71.484 I27.525 J-12.691
X-74.194 Y-53.308 I-2.599 J30.469
X-101.557 Y-10.114 I-28.144 J12.434
X-132.278 Y-32.603 I-0.85 J-31.067
X-96.867 Y-72.123 I30.068 J-8.683
X-71.229 Y-47.206 I-5.353 J31.155
X-101.969 Y-9.124 I-31.108 J6.337
X-134.144 Y-36.588 I-0.432 J-32.074
X-96.563 Y-73.067 I31.935 J-4.698
X-73.346 Y-56.074 I-5.63 J32.049
X-102.169 Y-8.139 I-28.996 J15.198
X-133.821 Y-30.933 I-0.239 J-33.04
X-97.942 Y-74.271 I31.608 J-10.353
X-70.499 Y-51.96 I-4.264 J33.278
X-101.41 Y-7.17 I-31.84 J11.088
X-134.829 Y-30.858 I-0.999 J-34.007
X-96.589 Y-75.066 I32.617 J-10.428
X-69.068 Y-50.721 I-5.62 J34.081
X-101.922 Y-6.175 I-33.271 J9.85
X-136.856 Y-34.908 I-0.481 J-35.019
X-95.457 Y-75.862 I34.647 J-6.378
X-68.612 Y-52.529 I-6.75 J34.875
X-102.959 Y-5.193 I-33.73 J11.655
X-136.646 Y-30.081 I0.549 J-35.986
X-104.752 Y-77.403 I34.425 J-11.208
G1 X-100.676 Y-77.405
X-99.932 Y-77.367
G3 X-94.763 Y-76.731 I-0.72 J27.14
X-92.578 Y-76.202 I-3.87 J20.772
G1 X-92.515 Y-76.169
G3 X-92.47 Y-76.137 Z-2.688 I-0.158 J0.275 F1524
X-92.398 Y-75.735 Z-1.8 I-0.204 J0.243 F5080
X-92.72 Y-75.579 I-0.275 J-0.158
G1 X-100.711 Y-76.773
G3 X-100.982 Y-77.076 I0.047 J-0.314
X-100.731 Y-77.398 Z-2.688 I0.317 J-0.011
X-100.676 Y-77.405 Z-2.8 I0.066 J0.311 F1524
G1 X-94.583 F5080
X-93.839 Y-77.367
X-93.647 Y-77.313
X-93.481 Y-77.201
X-93.36 Y-77.042
G3 X-93.339 Y-76.991 Z-2.688 I-0.285 J0.141 F1524
X-93.503 Y-76.617 Z-1.8 I-0.305 J0.089 F5080
X-93.707 Y-76.59 I-0.141 J-0.284
G1 X-94.634 Y-76.776
G3 X-94.889 Y-77.076 I0.062 J-0.311
X-94.638 Y-77.398 Z-2.688 I0.317 J-0.011
X-94.583 Y-77.405 Z-2.8 I0.066 J0.311 F1524
G1 X-93.737 Y-77.404 F5080
X-93.694 Y-77.4
X-93.652 Y-77.391
X-93.61 Y-77.374
X-93.567 Y-77.35
X-93.51 Y-77.305 F1270
X-93.49 Y-77.284 F5080
G2 X-93.213 Y-76.796 I8.551 J-4.534
X-91.9 Y-75.946 I1.705 J-1.194
G3 X-89.158 Y-75.084 I-4.159 J18.013
X-94.212 Y-5.126 I-13.162 J34.211
G1 X-94.278 Y-5.106 F1270
X-94.347 Y-5.098 F5080
X-94.415 Y-5.095
X-109.307
G3 X-112.133 Y-5.517 I0.279 J-11.56
X-126.49 Y-13.135 I9.456 J-35.159
X-128.028 Y-68.047 I24.199 J-28.156
X-111.041 Y-77.409 I25.657 J26.463
G1 X-110.966 Y-77.405 F1270
X-104.752 F5080
X-104.697 Y-77.398 Z-2.688 F1524
X-104.257 Y-77.348 Z-1.8 F5080
X-92.395 Y-76.002
X-91.955 Y-75.952 Z-2.688
X-91.9 Y-75.945 Z-2.8 F1524
G2 X-91.367 Y-75.905 I0.456 J-2.453 F5080
G1 X-89.844
G3 X-88.172 Y-75.635 I-0.117 J6.042
X-84.756 Y-74.165 I-5.753 J18.072
X-90.566 Y-5.116 I-17.566 J33.291
G1 X-90.66 Y-5.1 F1270
X-90.755 Y-5.095 F5080
X-94.415
G3 X-94.471 Y-5.102 Z-2.688 I0.011 J-0.317 F1524
X-94.722 Y-5.424 Z-1.8 I0.066 J-0.311 F5080
G1 X-94.721 Y-5.433
X-90.152 Y-75.576
X-90.15 Y-75.608 Z-1.863
G3 X-89.899 Y-75.898 Z-2.688 I0.317 J0.021
X-89.844 Y-75.905 Z-2.8 I0.066 J0.311 F1524
G1 X-87.305 F5080
G3 X-85.488 Y-75.514 I-0.226 J5.477
X-82.813 Y-74.21 I-6.019 J15.738
X-87.703 Y-5.123 I-19.506 J33.335
G1 X-87.819 Y-5.103
X-87.937 Y-5.095
X-90.755
G3 X-90.81 Y-5.102 Z-2.688 I0.011 J-0.317 F1524
X-91.062 Y-5.424 Z-1.8 I0.066 J-0.311 F5080
G1 X-91.061 Y-5.428
X-87.613 Y-75.576
X-87.611 Y-75.603 Z-1.853
G3 X-87.36 Y-75.898 Z-2.688 I0.317 J0.016
X-87.305 Y-75.905 Z-2.8 I0.066 J0.311 F1524
G1 X-85.105 F5080
G3 X-83.595 Y-75.583 I-0.184 J4.575
X-81.066 Y-74.291 I-4.821 J12.555
X-65.059 Y-54.308 I-21.074 J33.282
X-85.253 Y-5.129 I-37.27 J13.432
G1 X-85.388 Y-5.105
X-85.522 Y-5.095
X-87.937
G3 X-87.992 Y-5.102 Z-2.688 I0.011 J-0.317 F1524
X-88.244 Y-5.424 Z-1.8 I0.066 J-0.311 F5080
G1 X-88.243 Y-5.426
X-85.412 Y-75.576
X-85.411 Y-75.6 Z-1.847
G3 X-85.16 Y-75.898 Z-2.688 I0.317 J0.013
X-85.105 Y-75.905 Z-2.8 I0.066 J0.311 F1524
G1 X-83.074 F5080
G3 X-81.332 Y-75.442 I-0.29 J4.61
X-78.811 Y-73.963 I-6.06 J13.21
X-62.179 Y-34.886 I-23.429 J33.05
X-83.062 Y-5.139 I-40.108 J-5.953
G1 X-83.213 Y-5.108
X-83.365 Y-5.095
X-85.522
G3 X-85.578 Y-5.102 Z-2.688 I0.011 J-0.317 F1524
X-85.829 Y-5.424 Z-1.8 I0.066 J-0.311 F5080
G1 X-83.381 Y-75.576
X-83.38 Y-75.598 Z-1.844
G3 X-83.129 Y-75.898 Z-2.688 I0.317 J0.011
X-83.074 Y-75.905 Z-2.8 I0.066 J0.311 F1524
G1 X-81.212 F5080
G3 X-79.635 Y-75.483 I-0.256 J4.123
X-77.234 Y-74.02 I-5.346 J11.476
X-65.341 Y-59.893 I-24.659 J32.828
X-81.042 Y-5.149 I-36.989 J19.014
G1 X-81.209 Y-5.111
X-81.377 Y-5.095
X-83.365
G3 X-83.42 Y-5.102 Z-2.688 I0.011 J-0.317 F1524
X-83.671 Y-5.423 Z-1.802 I0.066 J-0.311 F5080
G1 Y-5.424 Z-1.8
X-81.519 Y-75.576
Y-75.597 Z-1.841
G3 X-81.268 Y-75.898 Z-2.688 I0.317 J0.01
X-81.213 Y-75.905 Z-2.8 I0.066 J0.311 F1524
G1 X-79.52 F5080
G3 X-78.054 Y-75.535 I-0.154 J3.703
X-75.804 Y-74.145 I-4.557 J9.894
X-68.059 Y-66.137 I-24.867 J31.8
X-79.015 Y-5.254 I-34.263 J25.262
G1 X-79.172 Y-5.165
X-79.344 Y-5.113
X-79.524 Y-5.095
X-81.377
G3 X-81.432 Y-5.102 Z-2.688 I0.011 J-0.317 F1524
X-81.683 Y-5.421 Z-1.805 I0.066 J-0.311 F5080
G1 Y-5.424 Z-1.8
X-79.827 Y-75.576
X-79.826 Y-75.596 Z-1.839
G3 X-79.575 Y-75.898 Z-2.688 I0.317 J0.008
X-79.52 Y-75.905 Z-2.8 I0.066 J0.311 F1524
G1 X-77.828 F5080
G3 X-76.486 Y-75.562 I-0.17 J3.464
X-74.376 Y-74.237 I-4.118 J8.9
X-68.135 Y-67.862 I-24.7 J30.427
X-77.246 Y-5.264 I-34.185 J26.987
G1 X-77.406 Y-5.17
X-77.583 Y-5.114
X-77.768 Y-5.095
X-79.524
G3 X-79.579 Y-5.102 Z-2.688 I0.011 J-0.317 F1524
X-79.83 Y-5.42 Z-1.806 I0.066 J-0.311 F5080
G1 Y-5.424 Z-1.8
X-78.134 Y-75.576
Y-75.595 Z-1.837
G3 X-77.883 Y-75.898 Z-2.688 I0.317 J0.008
X-77.828 Y-75.905 Z-2.8 I0.066 J0.311 F1524
G1 X-76.304 F5080
G3 X-74.616 Y-75.41 I-0.144 J3.624
X-72.417 Y-73.85 I-5.223 J9.691
X-65.143 Y-65.41 I-27.88 J31.382
X-75.544 Y-5.28 I-37.186 J24.532
G1 X-75.712 Y-5.178
X-75.898 Y-5.116
X-76.093 Y-5.095
X-77.768
G3 X-77.823 Y-5.102 Z-2.688 I0.011 J-0.317 F1524
X-78.074 Y-5.419 Z-1.808 I0.066 J-0.311 F5080
G1 Y-5.424 Z-1.8
X-76.611 Y-75.576
Y-75.594 Z-1.835
G3 X-76.36 Y-75.898 Z-2.688 I0.317 J0.007
X-76.304 Y-75.905 Z-2.8 I0.066 J0.311 F1524
G1 X-74.688 F5080
G3 X-73.114 Y-75.415 I-0.219 J3.482
X-71.005 Y-73.878 I-5.028 J9.11
X-64.714 Y-66.543 I-28.159 J30.52
X-73.91 Y-5.298 I-37.615 J25.664
G1 X-74.083 Y-5.187
X-74.278 Y-5.119
X-74.483 Y-5.095
X-76.093
G3 X-76.148 Y-5.102 Z-2.688 I0.011 J-0.317 F1524
X-76.4 Y-5.419 Z-1.809 I0.066 J-0.311 F5080
G1 Y-5.424 Z-1.8
X-74.995 Y-75.576
X-74.994 Y-75.594 Z-1.834
G3 X-74.743 Y-75.898 Z-2.688 I0.317 J0.006
X-74.688 Y-75.905 Z-2.8 I0.066 J0.311 F1524
G1 X-73.258 F5080
G3 X-71.742 Y-75.464 I-0.125 J3.26
X-69.737 Y-74.009 I-4.449 J8.239
X-64.831 Y-68.417 I-26.63 J28.309
X-72.33 Y-5.319 I-37.494 J27.538
G1 X-72.508 Y-5.196
X-72.711 Y-5.121
X-72.926 Y-5.095
X-74.483
G3 X-74.538 Y-5.102 Z-2.688 I0.011 J-0.317 F1524
X-74.789 Y-5.418 Z-1.811 I0.066 J-0.311 F5080
G1 Y-5.424 Z-1.8
X-73.565 Y-75.576
X-73.564 Y-75.593 Z-1.833
G3 X-73.313 Y-75.898 Z-2.688 I0.317 J0.006
X-73.258 Y-75.905 Z-2.8 I0.066 J0.311 F1524
G1 X-71.735 F5080
G3 X-70.264 Y-75.441 I-0.204 J3.216
X-68.326 Y-73.983 I-4.468 J7.954
X-63.528 Y-68.298 I-27.161 J27.79
X-70.818 Y-5.321 I-38.796 J27.42
G1 X-70.997 Y-5.198
X-71.202 Y-5.121
X-71.419 Y-5.095
X-72.926
G3 X-72.981 Y-5.102 Z-2.688 I0.011 J-0.317 F1524
X-73.232 Y-5.418 Z-1.811 I0.066 J-0.311 F5080
G1 Y-5.424 Z-1.8
X-72.041 Y-75.576
Y-75.593 Z-1.833
G3 X-71.79 Y-75.898 Z-2.688 I0.317 J0.005
X-71.735 Y-75.905 Z-2.8 I0.066 J0.311 F1524
G1 X-70.381 F5080
G3 X-68.966 Y-75.495 I-0.109 J3.024
X-67.182 Y-74.183 I-3.91 J7.185
X-63.748 Y-70.266 I-22.222 J22.948
X-69.319 Y-5.348 I-38.573 J29.388
G1 X-69.504 Y-5.21
X-69.719 Y-5.125
X-69.948 Y-5.095
X-71.419
G3 X-71.474 Y-5.102 Z-2.688 I0.011 J-0.317 F1524
X-71.725 Y-5.418 Z-1.812 I0.066 J-0.311 F5080
G1 Y-5.424 Z-1.8
X-70.687 Y-75.576
Y-75.592 Z-1.831
G3 X-70.436 Y-75.898 Z-2.688 I0.317 J0.005
X-70.381 Y-75.905 Z-2.8 I0.066 J0.311 F1524
G1 X-68.934 F5080
G3 X-67.541 Y-75.466 I-0.174 J2.984
G1 X-67.215 Y-75.277
G3 X-65.251 Y-73.585 I-5.902 J8.838
X-60.327 Y-67.05 I-31.086 J28.543
X-67.887 Y-5.344 I-41.999 J26.171
G1 X-68.074 Y-5.209
X-68.289 Y-5.124
X-68.518 Y-5.095
X-69.948
G3 X-70.003 Y-5.102 Z-2.688 I0.011 J-0.317 F1524
X-70.255 Y-5.417 Z-1.813 I0.066 J-0.311 F5080
G1 Y-5.424 Z-1.8
X-69.24 Y-75.576
Y-75.592 Z-1.831
G3 X-68.989 Y-75.898 Z-2.688 I0.317 J0.005
X-68.934 Y-75.905 Z-2.8 I0.066 J0.311 F1524
G1 X-67.58 F5080
G3 X-66.215 Y-75.476 I-0.16 J2.897
G1 X-65.916 Y-75.303
G3 X-64.006 Y-73.648 I-5.551 J8.333
X-59.558 Y-67.684 I-30.351 J27.28
X-66.453 Y-5.373 I-42.767 J26.805
G1 X-66.643 Y-5.222
X-66.868 Y-5.128
X-67.109 Y-5.095
X-68.518
G3 X-68.573 Y-5.102 Z-2.688 I0.011 J-0.317 F1524
X-68.824 Y-5.417 Z-1.813 I0.066 J-0.311 F5080
G1 Y-5.424 Z-1.8
X-67.886 Y-75.576
Y-75.591 Z-1.83
G3 X-67.635 Y-75.898 Z-2.688 I0.317 J0.004
X-67.58 Y-75.905 Z-2.8 I0.066 J0.311 F1524
G1 X-66.226 F5080
G3 X-64.871 Y-75.464 I-0.177 J2.853
G1 X-64.566 Y-75.284
G3 X-62.692 Y-73.616 I-5.584 J8.16
X-58.335 Y-67.585 I-30.819 J26.855
X-65.081 Y-5.366 I-43.988 J26.705
G1 X-65.274 Y-5.22
X-65.497 Y-5.127
X-65.737 Y-5.095
X-67.109
G3 X-67.164 Y-5.102 Z-2.688 I0.011 J-0.317 F1524
X-67.416 Y-5.417 Z-1.814 I0.066 J-0.311 F5080
G1 Y-5.424 Z-1.8
X-66.532 Y-75.576
Y-75.591 Z-1.83
G3 X-66.281 Y-75.898 Z-2.688 I0.317 J0.004
X-66.226 Y-75.905 Z-2.8 I0.066 J0.311 F1524
G1 X-64.965 F5080
G3 X-63.65 Y-75.51 I-0.106 J2.739
X-62.169 Y-74.39 I-3.308 J5.917
X-59.778 Y-71.54 I-15.311 J15.271
X-49.882 Y-40.848 I-42.364 J30.6
X-63.723 Y-5.378 I-52.314 J0.022
G1 X-63.915 Y-5.225
X-64.141 Y-5.128
X-64.385 Y-5.095
X-65.737
G3 X-65.792 Y-5.102 Z-2.688 I0.011 J-0.317 F1524
X-66.043 Y-5.416 Z-1.815 I0.066 J-0.311 F5080
G1 Y-5.424 Z-1.8
X-65.272 Y-75.576
X-65.271 Y-75.591 Z-1.829
G3 X-65.02 Y-75.898 Z-2.688 I0.317 J0.003
X-64.965 Y-75.905 Z-2.8 I0.066 J0.311 F1524
G1 X-63.611 F5080
G3 X-62.318 Y-75.484 I-0.165 J2.706
G1 X-62.01 Y-75.3
G3 X-60.275 Y-73.729 I-5.191 J7.479
X-56.813 Y-68.887 I-27.54 J23.352
X-62.361 Y-5.403 I-45.507 J28.007
G1 X-62.559 Y-5.237
X-62.795 Y-5.132
X-63.05 Y-5.095
X-64.385
G3 X-64.44 Y-5.102 Z-2.688 I0.011 J-0.317 F1524
X-64.692 Y-5.416 Z-1.815 I0.066 J-0.311 F5080
G1 Y-5.424 Z-1.8
X-63.918 Y-75.576
X-63.917 Y-75.591 Z-1.829
G3 X-63.666 Y-75.898 Z-2.688 I0.317 J0.004
X-63.611 Y-75.905 Z-2.8 I0.066 J0.311 F1524
G1 X-62.333 F5080
G3 X-61.046 Y-75.482 I-0.163 J2.667
X-59.567 Y-74.303 I-3.473 J5.875
X-57.258 Y-71.386 I-15.538 J14.671
X-48.007 Y-44.208 I-44.781 J30.407
X-61.06 Y-5.397 I-54.167 J3.382
G1 X-61.257 Y-5.234
X-61.49 Y-5.131
X-61.743 Y-5.095
X-63.05
G3 X-63.105 Y-5.102 Z-2.688 I0.011 J-0.317 F1524
X-63.356 Y-5.416 Z-1.815 I0.066 J-0.311 F5080
G1 Y-5.424 Z-1.8
X-62.64 Y-75.576
Y-75.59 Z-1.828
G3 X-62.388 Y-75.898 Z-2.688 I0.317 J0.003
X-62.333 Y-75.905 Z-2.8 I0.066 J0.311 F1524
G1 X-61.072 F5080
G3 X-59.524 Y-75.31 I-0.223 J2.893
G1 X-59.205 Y-75.089
G3 X-57.401 Y-73.231 I-6.536 J8.155
X-53.42 Y-66.944 I-34.446 J26.212
X-59.768 Y-5.384 I-48.891 J26.066
G1 X-59.965 Y-5.229
X-60.195 Y-5.13
X-60.443 Y-5.095
X-61.743
G3 X-61.798 Y-5.102 Z-2.688 I0.011 J-0.317 F1524
X-62.049 Y-5.416 Z-1.816 I0.066 J-0.311 F5080
G1 Y-5.424 Z-1.8
X-61.379 Y-75.576
Y-75.59 Z-1.828
G3 X-61.128 Y-75.898 Z-2.688 I0.317 J0.003
X-61.072 Y-75.905 Z-2.8 I0.066 J0.311 F1524
G1 X-59.888 F5080
G3 X-58.408 Y-75.388 I-0.126 J2.737
G1 X-58.105 Y-75.188
G3 X-56.396 Y-73.486 I-5.687 J7.424
X-53.143 Y-68.499 I-29.658 J22.897
X-58.474 Y-5.399 I-49.167 J27.621
G1 X-58.677 Y-5.237
X-58.913 Y-5.132
X-59.168 Y-5.095
X-60.443
G3 X-60.498 Y-5.102 Z-2.688 I0.011 J-0.317 F1524
X-60.749 Y-5.415 Z-1.817 I0.066 J-0.311 F5080
G1 Y-5.424 Z-1.8
X-60.194 Y-75.576
Y-75.59 Z-1.827
G3 X-59.943 Y-75.898 Z-2.688 I0.317 J0.003
X-59.888 Y-75.905 Z-2.8 I0.066 J0.311 F1524
G1 X-58.61 F5080
G3 X-57.115 Y-75.343 I-0.186 J2.765
G1 X-56.818 Y-75.138
G3 X-55.086 Y-73.349 I-6.034 J7.572
X-51.558 Y-67.656 I-32.465 J24.062
X-57.215 Y-5.391 I-50.746 J26.778
G1 X-57.418 Y-5.234
X-57.651 Y-5.131
X-57.903 Y-5.095
X-59.168
G3 X-59.223 Y-5.102 Z-2.688 I0.011 J-0.317 F1524
X-59.475 Y-5.415 Z-1.817 I0.066 J-0.311 F5080
G1 Y-5.424 Z-1.8
X-58.916 Y-75.576
Y-75.59 Z-1.827
G3 X-58.665 Y-75.898 Z-2.688 I0.317 J0.003
X-58.61 Y-75.905 Z-2.8 I0.066 J0.311 F1524
G1 X-57.425 F5080
G3 X-55.98 Y-75.393 I-0.132 J2.67
X-54.567 Y-74.157 I-3.631 J5.576
X-52.4 Y-71.133 I-15.907 J13.687
X-44.594 Y-49.559 I-49.261 J30.023
X-55.956 Y-5.405 I-57.591 J8.719
G1 X-56.16 Y-5.24
X-56.397 Y-5.132
X-56.655 Y-5.095
X-57.903
G3 X-57.959 Y-5.102 Z-2.688 I0.011 J-0.317 F1524
X-58.21 Y-5.415 Z-1.817 I0.066 J-0.311 F5080
G1 Y-5.424 Z-1.8
X-57.732 Y-75.576
Y-75.589 Z-1.826
G3 X-57.48 Y-75.898 Z-2.688 I0.317 J0.002
X-57.425 Y-75.905 Z-2.8 I0.066 J0.311 F1524
G1 X-56.164 F5080
G3 X-54.694 Y-75.339 I-0.198 J2.705
G1 X-54.387 Y-75.122
G3 X-52.734 Y-73.369 I-5.938 J7.256
X-49.648 Y-68.277 I-30.482 J21.951
X-54.577 Y-5.583 I-52.659 J27.401
G1 X-54.713 Y-5.424
G3 X-55.418 Y-5.095 I-0.705 J-0.592
G1 X-56.655
G3 X-56.71 Y-5.102 Z-2.688 I0.011 J-0.317 F1524
X-56.961 Y-5.415 Z-1.817 I0.066 J-0.311 F5080
G1 Y-5.424 Z-1.8
X-56.471 Y-75.576
Y-75.589 Z-1.826
G3 X-56.219 Y-75.898 Z-2.688 I0.317 J0.002
X-56.164 Y-75.905 Z-2.8 I0.066 J0.311 F1524
G1 X-54.98 F5080
G3 X-53.523 Y-75.352 I-0.176 J2.659
X-52.13 Y-74.079 I-3.761 J5.515
X-50.029 Y-71.008 I-16.265 J13.385
X-42.782 Y-50.779 I-51.413 J29.83
X-53.469 Y-5.428 I-59.408 J9.936
X-54.189 Y-5.095 I-0.738 J-0.651
G1 X-55.418
G3 X-55.473 Y-5.102 Z-2.688 I0.011 J-0.317 F1524
X-55.725 Y-5.415 Z-1.818 I0.066 J-0.311 F5080
G1 X-55.724 Y-5.424 Z-1.8
X-55.286 Y-75.576
Y-75.589 Z-1.826
G3 X-55.035 Y-75.898 Z-2.688 I0.317 J0.002
X-54.98 Y-75.905 Z-2.8 I0.066 J0.311 F1524
G1 X-53.795 F5080
G3 X-52.363 Y-75.368 I-0.163 J2.612
X-50.997 Y-74.121 I-3.68 J5.406
X-48.911 Y-71.041 I-15.507 J12.75
X-42.328 Y-53.697 I-52.078 J29.687
X-52.14 Y-5.582 I-59.887 J12.846
X-52.77 Y-5.118 I-0.886 J-0.545
G1 X-52.973 Y-5.095
X-54.189
G3 X-54.244 Y-5.102 Z-2.688 I0.011 J-0.317 F1524
X-54.495 Y-5.415 Z-1.818 I0.066 J-0.311 F5080
G1 Y-5.424 Z-1.8
X-54.101 Y-75.576
Y-75.589 Z-1.825
G3 X-53.85 Y-75.898 Z-2.688 I0.317 J0.002
X-53.795 Y-75.905 Z-2.8 I0.066 J0.311 F1524
G1 X-52.61 F5080
G3 X-51.185 Y-75.365 I-0.166 J2.591
X-49.835 Y-74.122 I-3.658 J5.331
X-47.771 Y-71.028 I-15.232 J12.394
X-41.625 Y-55.093 I-52.849 J29.535
X-50.953 Y-5.553 I-60.586 J14.24
X-51.566 Y-5.118 I-0.869 J-0.575
G1 X-51.769 Y-5.095
X-52.973
G3 X-53.028 Y-5.102 Z-2.688 I0.011 J-0.317 F1524
X-53.28 Y-5.414 Z-1.818 I0.066 J-0.311 F5080
G1 Y-5.424 Z-1.8
X-52.917 Y-75.576
Y-75.589 Z-1.825
G3 X-52.665 Y-75.898 Z-2.688 I0.317 J0.002
X-52.61 Y-75.905 Z-2.8 I0.066 J0.311 F1524
G1 X-51.425 F5080
G3 X-50 Y-75.353 I-0.181 J2.584
X-48.658 Y-74.098 I-3.687 J5.293
X-46.62 Y-70.986 I-15.247 J12.203
X-40.759 Y-55.731 I-53.731 J29.4
X-49.579 Y-5.816 I-61.448 J14.878
G1 X-49.816 Y-5.487
G3 X-50.574 Y-5.095 I-0.766 J-0.552
G1 X-51.769
G3 X-51.824 Y-5.102 Z-2.688 I0.011 J-0.317 F1524
X-52.076 Y-5.414 Z-1.819 I0.066 J-0.311 F5080
G1 Y-5.424 Z-1.8
X-51.732 Y-75.576
Y-75.589 Z-1.825
G3 X-51.481 Y-75.898 Z-2.688 I0.317 J0.002
X-51.425 Y-75.905 Z-2.8 I0.066 J0.311 F1524
G1 X-50.241 F5080
G3 X-48.81 Y-75.331 I-0.207 J2.587
X-47.464 Y-74.045 I-3.777 J5.301
X-45.459 Y-70.913 I-15.56 J12.17
X-39.712 Y-55.613 I-54.809 J29.316
X-48.483 Y-5.681 I-62.477 J14.762
G1 X-48.679 Y-5.423
G3 X-49.383 Y-5.095 I-0.705 J-0.594
G1 X-50.574
G3 X-50.629 Y-5.102 Z-2.688 I0.011 J-0.317 F1524
X-50.881 Y-5.414 Z-1.819 I0.066 J-0.311 F5080
G1 Y-5.424 Z-1.8
X-50.547 Y-75.576
Y-75.589 Z-1.825
G3 X-50.296 Y-75.898 Z-2.688 I0.317 J0.002
X-50.241 Y-75.905 Z-2.8 I0.066 J0.311 F1524
G1 X-49.132 F5080
G3 X-47.741 Y-75.388 I-0.137 J2.501
X-46.508 Y-74.265 I-3.296 J4.86
X-44.844 Y-71.821 I-11.441 J9.577
X-40.622 Y-62.299 I-50.19 J27.951
X-47.224 Y-5.799 I-61.625 J21.434
G1 X-47.441 Y-5.495
G3 X-48.204 Y-5.095 I-0.771 J-0.542
G1 X-49.383
G3 X-49.439 Y-5.102 Z-2.688 I0.011 J-0.317 F1524
X-49.69 Y-5.414 Z-1.819 I0.066 J-0.311 F5080
G1 Y-5.424 Z-1.8
X-49.439 Y-75.576
Y-75.588 Z-1.824
G3 X-49.187 Y-75.898 Z-2.688 I0.317 J0.001
X-49.132 Y-75.905 Z-2.8 I0.066 J0.311 F1524
G1 X-47.947 F5080
G3 X-46.55 Y-75.357 I-0.178 J2.51
X-45.27 Y-74.148 I-3.492 J4.981
X-43.634 Y-71.662 I-12.136 J9.767
X-39.505 Y-62.099 I-51.54 J27.925
X-46.125 Y-5.684 I-62.733 J21.235
G1 X-46.314 Y-5.438
G3 X-47.031 Y-5.095 I-0.718 J-0.58
G1 X-48.204
G3 X-48.259 Y-5.102 Z-2.688 I0.011 J-0.317 F1524
X-48.511 Y-5.414 Z-1.819 I0.066 J-0.311 F5080
G1 Y-5.424 Z-1.8
X-48.254 Y-75.576
Y-75.588 Z-1.824
G3 X-48.003 Y-75.898 Z-2.688 I0.317 J0.001
X-47.947 Y-75.905 Z-2.8 I0.066 J0.311 F1524
G1 X-46.856 F5080
G3 X-45.495 Y-75.415 I-0.108 J2.434
X-44.31 Y-74.35 I-3.117 J4.663
X-42.683 Y-71.954 I-10.474 J8.862
X-39.048 Y-63.796 I-48.672 J26.573
X-44.904 Y-5.77 I-63.209 J22.929
G1 X-45.112 Y-5.483
G3 X-45.865 Y-5.095 I-0.758 J-0.546
G1 X-47.031
G3 X-47.086 Y-5.102 Z-2.688 I0.011 J-0.317 F1524
X-47.338 Y-5.414 Z-1.82 I0.066 J-0.311 F5080
G1 Y-5.424 Z-1.8
X-47.162 Y-75.576
Y-75.588 Z-1.823
G3 X-46.911 Y-75.898 Z-2.688 I0.318 J0.001
X-46.856 Y-75.905 Z-2.8 I0.066 J0.311 F1524
G1 X-45.671 F5080
G3 X-44.29 Y-75.367 I-0.167 J2.469
X-43.058 Y-74.205 I-3.38 J4.818
X-41.456 Y-71.746 I-11.302 J9.119
X-37.664 Y-62.846 I-51.32 J27.119
X-43.549 Y-6.099 I-64.585 J21.981
G1 X-43.812 Y-5.682
G3 X-44.314 Y-5.181 I-1.105 J-0.606
G1 X-44.506 Y-5.118
X-44.706 Y-5.095
X-45.865
G3 X-45.92 Y-5.102 Z-2.688 I0.011 J-0.317 F1524
X-46.171 Y-5.414 Z-1.82 I0.066 J-0.311 F5080
G1 Y-5.424 Z-1.8
X-45.978 Y-75.576
Y-75.588 Z-1.823
G3 X-45.726 Y-75.898 Z-2.688 I0.317 J0.001
X-45.671 Y-75.905 Z-2.8 I0.066 J0.311 F1524
G1 X-44.563 F5080
G3 X-43.203 Y-75.395 I-0.133 J2.426
X-42.021 Y-74.307 I-3.17 J4.627
X-40.427 Y-71.888 I-10.578 J8.706
X-36.903 Y-63.681 I-49.726 J26.212
X-42.364 Y-6.159 I-65.346 J22.816
G1 X-42.644 Y-5.707
X-42.823 Y-5.456
G3 X-43.554 Y-5.095 I-0.732 J-0.563
G1 X-44.706
G3 X-44.761 Y-5.102 Z-2.688 I0.011 J-0.317 F1524
X-45.012 Y-5.413 Z-1.82 I0.066 J-0.311 F5080
G1 Y-5.424 Z-1.8
X-44.869 Y-75.576
Y-75.588 Z-1.823
G3 X-44.618 Y-75.898 Z-2.688 I0.317 J0.001
X-44.563 Y-75.905 Z-2.8 I0.066 J0.311 F1524
G1 X-43.471 F5080
G3 X-42.137 Y-75.434 I-0.086 J2.372
X-40.62 Y-73.951 I-3.436 J5.032
X-39.073 Y-71.409 I-13.083 J9.708
X-35.217 Y-61.731 I-54.805 J27.441
X-41.162 Y-6.262 I-67.024 J20.869
G1 X-41.465 Y-5.757
X-41.651 Y-5.488
G3 X-42.407 Y-5.095 I-0.76 J-0.54
G1 X-43.554
G3 X-43.609 Y-5.102 Z-2.688 I0.011 J-0.317 F1524
X-43.86 Y-5.413 Z-1.821 I0.066 J-0.311 F5080
G1 Y-5.424 Z-1.8
X-43.777 Y-75.576
Y-75.588 Z-1.822
G3 X-43.526 Y-75.898 Z-2.688 I0.318 J0
X-43.471 Y-75.905 Z-2.8 I0.066 J0.311 F1524
G1 X-42.286 F5080
G3 X-40.917 Y-75.365 I-0.166 J2.428
X-39.746 Y-74.253 I-3.255 J4.6
X-38.183 Y-71.811 I-10.641 J8.531
X-35.006 Y-64.265 I-49.57 J25.316
X-40.207 Y-5.936 I-67.251 J23.399
G1 X-40.421 Y-5.61
G3 X-41.051 Y-5.121 I-0.889 J-0.493
G1 X-41.265 Y-5.095
X-42.407
G3 X-42.463 Y-5.102 Z-2.688 I0.011 J-0.317 F1524
X-42.714 Y-5.413 Z-1.821 I0.066 J-0.311 F5080
G1 Y-5.424 Z-1.8
X-42.593 Y-75.576
Y-75.588 Z-1.823
G3 X-42.341 Y-75.898 Z-2.688 I0.317 J0.001
X-42.286 Y-75.905 Z-2.8 I0.066 J0.311 F1524
G1 X-41.178 F5080
G3 X-39.826 Y-75.381 I-0.15 J2.396
X-38.668 Y-74.292 I-3.157 J4.514
X-37.118 Y-71.867 I-10.373 J8.34
X-33.972 Y-64.308 I-49.249 J24.931
X-39.079 Y-5.923 I-68.269 J23.444
G1 X-39.294 Y-5.597
G3 X-39.915 Y-5.121 I-0.873 J-0.495
G1 X-40.129 Y-5.095
X-41.265
G3 X-41.32 Y-5.102 Z-2.688 I0.011 J-0.317 F1524
X-41.572 Y-5.413 Z-1.821 I0.066 J-0.311 F5080
G1 Y-5.424 Z-1.8
X-41.484 Y-75.576
Y-75.588 Z-1.823
G3 X-41.233 Y-75.898 Z-2.688 I0.317 J0
X-41.178 Y-75.905 Z-2.8 I0.066 J0.311 F1524
G1 X-40.086 F5080
G3 X-38.752 Y-75.407 I-0.12 J2.361
X-37.256 Y-73.895 I-3.507 J4.968
X-35.753 Y-71.326 I-13.149 J9.415
X-32.277 Y-62.296 I-55.652 J26.605
X-37.918 Y-5.979 I-69.951 J21.434
G1 X-38.134 Y-5.638
X-38.282 Y-5.432
G3 X-38.993 Y-5.095 I-0.712 J-0.584
G1 X-40.129
G3 X-40.184 Y-5.102 Z-2.688 I0.011 J-0.317 F1524
X-40.435 Y-5.413 Z-1.821 I0.066 J-0.311 F5080
G1 Y-5.424 Z-1.8
X-40.392 Y-75.576
Y-75.587 Z-1.822
G3 X-40.141 Y-75.898 Z-2.688 I0.318 J0
X-40.086 Y-75.905 Z-2.8 I0.066 J0.311 F1524
G1 X-38.977 F5080
G3 X-37.649 Y-75.409 I-0.118 J2.347
X-36.175 Y-73.92 I-3.485 J4.923
X-34.678 Y-71.348 I-12.803 J9.174
X-31.243 Y-62.303 I-55.833 J26.378
X-36.814 Y-5.939 I-70.967 J21.443
G1 X-37.012 Y-5.631
X-37.118 Y-5.482
G3 X-37.868 Y-5.095 I-0.75 J-0.534
G1 X-38.993
G3 X-39.049 Y-5.102 Z-2.688 I0.011 J-0.317 F1524
X-39.3 Y-5.413 Z-1.822 I0.066 J-0.311 F5080
G1 Y-5.424 Z-1.8
X-39.284 Y-75.576
Y-75.587 Z-1.822
G3 X-39.033 Y-75.898 Z-2.688 I0.317 J0
X-38.978 Y-75.905 Z-2.8 I0.066 J0.311 F1524
G1 X-37.886 F5080
G3 X-36.569 Y-75.423 I-0.102 J2.323
X-35.129 Y-73.986 I-3.359 J4.805
X-33.629 Y-71.417 I-12.142 J8.812
X-30.44 Y-63.073 I-54.456 J25.587
X-35.688 Y-5.947 I-71.766 J22.211
G1 X-35.896 Y-5.622
G3 X-36.529 Y-5.121 I-0.894 J-0.479
G1 X-36.746 Y-5.095
X-37.868
G3 X-37.923 Y-5.102 Z-2.688 I0.011 J-0.317 F1524
X-38.174 Y-5.413 Z-1.822 I0.066 J-0.311 F5080
G1 Y-5.424 Z-1.8
X-38.192 Y-75.576
Y-75.587 Z-1.822
G3 X-37.941 Y-75.898 Z-2.688 I0.318 J0
X-37.886 Y-75.905 Z-2.8 I0.066 J0.311 F1524
G1 X-36.777 F5080
G3 X-35.454 Y-75.412 I-0.113 J2.327
X-34.024 Y-73.97 I-3.398 J4.8
X-32.537 Y-71.393 I-12.154 J8.733
X-29.391 Y-63.033 I-54.864 J25.415
X-34.585 Y-5.919 I-72.797 J22.172
G1 X-34.789 Y-5.609
G3 X-35.413 Y-5.121 I-0.879 J-0.482
G1 X-35.629 Y-5.095
X-36.746
G3 X-36.801 Y-5.102 Z-2.688 I0.011 J-0.317 F1524
X-37.053 Y-5.413 Z-1.822 I0.066 J-0.311 F5080
G1 Y-5.424 Z-1.8
X-37.084 Y-75.576
Y-75.587 Z-1.821
G3 X-36.832 Y-75.898 Z-2.688 I0.318 J0
X-36.777 Y-75.905 Z-2.8 I0.066 J0.311 F1524
G1 X-35.686 F5080
G3 X-34.371 Y-75.42 I-0.105 J2.31
X-32.96 Y-74.005 I-3.324 J4.723
X-31.483 Y-71.444 I-11.797 J8.513
X-28.367 Y-63.072 I-54.703 J25.126
X-33.164 Y-6.527 I-73.812 J22.214
G1 X-33.478 Y-5.93
X-33.671 Y-5.616
G3 X-34.298 Y-5.122 I-0.885 J-0.477
G1 X-34.516 Y-5.095
X-35.629
G3 X-35.685 Y-5.102 Z-2.688 I0.011 J-0.317 F1524
X-35.936 Y-5.413 Z-1.822 I0.066 J-0.311 F5080
G1 Y-5.424 Z-1.8
X-35.992 Y-75.576
Y-75.587 Z-1.821
G3 X-35.741 Y-75.898 Z-2.688 I0.318 J0
X-35.686 Y-75.905 Z-2.8 I0.066 J0.311 F1524
G1 X-34.577 F5080
G3 X-33.252 Y-75.401 I-0.123 J2.32
X-31.84 Y-73.96 I-3.405 J4.747
X-30.376 Y-71.378 I-12.023 J8.524
X-27.307 Y-62.989 I-55.408 J25.027
X-32.115 Y-6.411 I-74.856 J22.131
G1 X-32.392 Y-5.894
X-32.575 Y-5.597
G3 X-33.191 Y-5.121 I-0.865 J-0.483
G1 X-33.407 Y-5.095
X-34.516
G3 X-34.571 Y-5.102 Z-2.688 I0.011 J-0.317 F1524
X-34.822 Y-5.413 Z-1.822 I0.066 J-0.311 F5080
G1 Y-5.424 Z-1.8
X-34.884 Y-75.576
Y-75.587 Z-1.821
G3 X-34.632 Y-75.898 Z-2.688 I0.318 J0
X-34.577 Y-75.905 Z-2.8 I0.066 J0.311 F1524
G1 X-33.486 F5080
G3 X-32.169 Y-75.406 I-0.121 J2.306
X-30.768 Y-73.975 I-3.363 J4.696
X-29.314 Y-71.402 I-11.822 J8.375
X-26.488 Y-63.716 I-53.84 J24.164
X-31.024 Y-6.386 I-75.671 J22.857
G1 X-31.29 Y-5.888
X-31.471 Y-5.596
G3 X-32.084 Y-5.121 I-0.863 J-0.482
G1 X-32.302 Y-5.095
X-33.407
G3 X-33.462 Y-5.102 Z-2.688 I0.011 J-0.317 F1524
X-33.714 Y-5.412 Z-1.822 I0.066 J-0.311 F5080
G1 Y-5.424 Z-1.8
X-33.792 Y-75.576
Y-75.587 Z-1.821
G3 X-33.541 Y-75.898 Z-2.688 I0.318 J0
X-33.486 Y-75.905 Z-2.8 I0.066 J0.311 F1524
G1 X-32.377 F5080
G3 X-31.05 Y-75.382 I-0.147 J2.32
X-29.64 Y-73.91 I-3.48 J4.746
X-28.2 Y-71.306 I-12.189 J8.44
X-25.419 Y-63.604 I-54.77 J24.13
X-29.991 Y-6.244 I-76.724 J22.746
G1 X-30.224 Y-5.827
X-30.39 Y-5.564
G3 X-31.199 Y-5.095 I-0.822 J-0.486
G1 X-32.302
G3 X-32.357 Y-5.102 Z-2.688 I0.011 J-0.317 F1524
X-32.608 Y-5.412 Z-1.822 I0.066 J-0.311 F5080
G1 Y-5.424 Z-1.8
X-32.683 Y-75.576
Y-75.587 Z-1.821
G3 X-32.432 Y-75.898 Z-2.688 I0.318 J0
X-32.377 Y-75.905 Z-2.8 I0.066 J0.311 F1524
G1 X-31.285 F5080
G3 X-29.96 Y-75.378 I-0.153 J2.315
X-28.548 Y-73.892 I-3.496 J4.735
X-27.12 Y-71.282 I-12.228 J8.386
X-24.373 Y-63.567 I-55.102 J23.966
X-28.926 Y-6.174 I-77.749 J22.71
G1 X-29.145 Y-5.791
X-29.302 Y-5.545
G3 X-30.098 Y-5.095 I-0.806 J-0.496
G1 X-31.199
G3 X-31.254 Y-5.102 Z-2.688 I0.011 J-0.317 F1524
X-31.505 Y-5.412 Z-1.823 I0.066 J-0.311 F5080
G1 Y-5.424 Z-1.8
X-31.592 Y-75.576
Y-75.587 Z-1.821
G3 X-31.34 Y-75.898 Z-2.688 I0.317 J0
X-31.285 Y-75.905 Z-2.8 I0.066 J0.311 F1524
G1 X-30.219 F5080
G3 X-28.908 Y-75.398 I-0.131 J2.286
X-27.522 Y-73.961 I-3.362 J4.631
X-26.101 Y-71.385 I-11.651 J8.11
X-23.369 Y-63.665 I-54.32 J23.564
X-27.802 Y-6.233 I-78.737 J22.809
G1 X-28.023 Y-5.835
X-28.19 Y-5.567
G3 X-29.001 Y-5.095 I-0.825 J-0.482
G1 X-30.098
G3 X-30.153 Y-5.102 Z-2.688 I0.011 J-0.317 F1524
X-30.405 Y-5.412 Z-1.823 I0.066 J-0.311 F5080
G1 Y-5.424 Z-1.8
X-30.525 Y-75.576
Y-75.587 Z-1.821
G3 X-30.274 Y-75.898 Z-2.688 I0.317 J-0.001
X-30.219 Y-75.905 Z-2.8 I0.066 J0.311 F1524
G1 X-29.161 F5080
G3 X-27.866 Y-75.423 I-0.103 J2.258
X-26.518 Y-74.056 I-3.201 J4.507
X-25.098 Y-71.524 I-10.92 J7.787
X-22.584 Y-64.517 I-51.151 J22.31
X-26.665 Y-6.329 I-79.521 J23.66
G1 X-26.902 Y-5.883
X-27.074 Y-5.6
G3 X-27.688 Y-5.122 I-0.863 J-0.476
G1 X-27.907 Y-5.095
X-29.001
G3 X-29.056 Y-5.102 Z-2.688 I0.011 J-0.317 F1524
X-29.307 Y-5.412 Z-1.823 I0.066 J-0.311 F5080
G1 Y-5.424 Z-1.8
X-29.468 Y-75.576
Y-75.586 Z-1.82
G3 X-29.216 Y-75.898 Z-2.688 I0.317 J-0.001
X-29.161 Y-75.905 Z-2.8 I0.066 J0.311 F1524
G1 X-28.07 F5080
G3 X-26.756 Y-75.398 I-0.123 J2.275
X-25.403 Y-73.998 I-3.302 J4.545
X-23.999 Y-71.444 I-11.245 J7.845
X-21.521 Y-64.423 I-51.915 J22.271
X-25.325 Y-6.887 I-80.574 J23.567
G1 X-25.64 Y-6.212
X-25.849 Y-5.818
X-26.003 Y-5.569
G3 X-26.815 Y-5.095 I-0.825 J-0.48
G1 X-27.907
G3 X-27.962 Y-5.102 Z-2.688 I0.011 J-0.317 F1524
X-28.213 Y-5.412 Z-1.823 I0.066 J-0.311 F5080
G1 Y-5.424 Z-1.8
X-28.376 Y-75.576
Y-75.586 Z-1.82
G3 X-28.125 Y-75.898 Z-2.688 I0.317 J-0.001
X-28.07 Y-75.905 Z-2.8 I0.066 J0.311 F1524
G1 X-26.961 F5080
G3 X-25.634 Y-75.363 I-0.165 J2.302
X-24.256 Y-73.888 I-3.48 J4.632
X-22.868 Y-71.284 I-11.891 J8.011
X-20.236 Y-63.53 I-55.464 J23.151
X-24.327 Y-6.689 I-81.837 J22.677
G1 X-24.633 Y-6.05
G3 X-25.13 Y-5.308 I-2.405 J-1.076
G1 X-25.311 Y-5.193
X-25.512 Y-5.12
X-25.724 Y-5.095
X-26.815
G3 X-26.87 Y-5.102 Z-2.688 I0.011 J-0.317 F1524
X-27.122 Y-5.412 Z-1.823 I0.066 J-0.311 F5080
G1 Y-5.424 Z-1.8
X-27.268 Y-75.576
Y-75.587 Z-1.82
G3 X-27.016 Y-75.898 Z-2.688 I0.317 J-0.001
X-26.961 Y-75.905 Z-2.8 I0.066 J0.311 F1524
G1 X-25.946 F5080
G3 X-24.438 Y-75.263 I-0.135 J2.409
X-23.34 Y-74.101 I-3.353 J4.268
X-21.942 Y-71.592 I-10.446 J7.464
X-19.495 Y-64.561 I-50.557 J21.537
X-23.424 Y-6.277 I-82.571 J23.707
G1 X-23.646 Y-5.866
X-23.81 Y-5.593
G3 X-24.418 Y-5.121 I-0.864 J-0.486
G1 X-24.638 Y-5.095
X-25.724
G3 X-25.779 Y-5.102 Z-2.688 I0.011 J-0.317 F1524
X-26.03 Y-5.412 Z-1.824 I0.066 J-0.311 F5080
G1 Y-5.424 Z-1.8
X-26.252 Y-75.576
Y-75.586 Z-1.82
G3 X-26.001 Y-75.898 Z-2.688 I0.317 J-0.001
X-25.946 Y-75.905 Z-2.8 I0.066 J0.311 F1524
G1 X-24.854 F5080
G3 X-23.551 Y-75.404 I-0.117 J2.249
X-22.219 Y-74.024 I-3.241 J4.463
X-20.84 Y-71.492 I-10.799 J7.521
X-18.43 Y-64.448 I-51.464 J21.541
X-22.105 Y-6.824 I-83.631 J23.596
G1 X-22.415 Y-6.146
X-22.606 Y-5.789
G3 X-23.131 Y-5.195 I-1.279 J-0.602
G1 X-23.337 Y-5.121
X-23.553 Y-5.095
X-24.638
G3 X-24.693 Y-5.102 Z-2.688 I0.011 J-0.317 F1524
X-24.944 Y-5.412 Z-1.824 I0.066 J-0.311 F5080
G1 Y-5.424 Z-1.8
X-25.16 Y-75.576
Y-75.586 Z-1.82
G3 X-24.909 Y-75.898 Z-2.688 I0.317 J-0.001
X-24.854 Y-75.905 Z-2.8 I0.066 J0.311 F1524
G1 X-23.745 F5080
G3 X-22.424 Y-75.36 I-0.167 J2.284
X-21.062 Y-73.891 I-3.451 J4.564
X-19.702 Y-71.299 I-11.587 J7.734
X-17.341 Y-64.238 I-53.413 J21.785
X-21.123 Y-6.597 I-84.715 J23.387
X-21.728 Y-5.468 I-6.145 J-2.572
X-22.471 Y-5.095 I-0.746 J-0.56
G1 X-23.553
G3 X-23.608 Y-5.102 Z-2.688 I0.011 J-0.317 F1524
X-23.86 Y-5.412 Z-1.823 I0.066 J-0.311 F5080
G1 Y-5.424 Z-1.8
X-24.052 Y-75.576
Y-75.586 Z-1.82
G3 X-23.801 Y-75.898 Z-2.688 I0.317 J-0.001
X-23.746 Y-75.905 Z-2.8 I0.066 J0.311 F1524
G1 X-22.73 F5080
G3 X-21.45 Y-75.426 I-0.098 J2.215
X-20.143 Y-74.092 I-3.096 J4.342
X-18.766 Y-71.58 I-10.224 J7.236
X-16.39 Y-64.524 I-50.503 J20.931
X-19.942 Y-6.844 I-85.653 J23.676
G1 X-20.247 Y-6.164
G3 X-20.783 Y-5.32 I-2.82 J-1.199
G1 X-20.967 Y-5.199
X-21.173 Y-5.122
X-21.391 Y-5.095
X-22.471
G3 X-22.526 Y-5.102 Z-2.688 I0.011 J-0.317 F1524
X-22.777 Y-5.412 Z-1.824 I0.066 J-0.311 F5080
G1 Y-5.424 Z-1.8
X-23.036 Y-75.576
Y-75.586 Z-1.819
G3 X-22.785 Y-75.898 Z-2.688 I0.317 J-0.001
X-22.73 Y-75.905 Z-2.8 I0.066 J0.311 F1524
G1 X-21.638 F5080
G3 X-20.336 Y-75.39 I-0.134 J2.243
X-19.009 Y-73.99 I-3.288 J4.446
X-17.656 Y-71.447 I-10.803 J7.377
X-15.321 Y-64.378 I-51.801 J21.036
X-18.936 Y-6.679 I-86.71 J23.53
X-19.564 Y-5.477 I-6.275 J-2.514
X-20.313 Y-5.095 I-0.753 J-0.553
G1 X-21.391
G3 X-21.446 Y-5.102 Z-2.688 I0.011 J-0.317 F1524
X-21.697 Y-5.412 Z-1.824 I0.066 J-0.311 F5080
G1 Y-5.424 Z-1.8
X-21.945 Y-75.576
Y-75.586 Z-1.819
G3 X-21.694 Y-75.898 Z-2.688 I0.317 J-0.001
X-21.638 Y-75.905 Z-2.8 I0.066 J0.311 F1524
G1 X-20.623 F5080
G3 X-19.139 Y-75.282 I-0.118 J2.362
X-17.731 Y-73.66 I-3.799 J4.717
X-16.416 Y-70.99 I-12.827 J7.977
X-13.977 Y-63.173 I-58.663 J22.597
X-17.781 Y-6.88 I-88.07 J22.323
G1 X-18.081 Y-6.198
G3 X-18.626 Y-5.324 I-2.929 J-1.219
G1 X-18.811 Y-5.201
X-19.018 Y-5.122
X-19.238 Y-5.095
X-20.313
G3 X-20.368 Y-5.102 Z-2.688 I0.011 J-0.317 F1524
X-20.62 Y-5.411 Z-1.825 I0.066 J-0.311 F5080
G1 Y-5.424 Z-1.8
X-20.929 Y-75.576
Y-75.586 Z-1.819
G3 X-20.678 Y-75.898 Z-2.688 I0.317 J-0.001
X-20.623 Y-75.905 Z-2.8 I0.066 J0.311 F1524
G1 X-19.514 F5080
G3 X-18.218 Y-75.391 I-0.134 J2.232
X-16.886 Y-73.978 I-3.301 J4.445
X-15.555 Y-71.449 I-10.633 J7.215
X-13.261 Y-64.367 I-51.713 J20.658
X-16.816 Y-6.619 I-88.756 J23.52
X-17.416 Y-5.477 I-6.242 J-2.552
X-18.165 Y-5.095 I-0.753 J-0.552
G1 X-19.238
G3 X-19.293 Y-5.102 Z-2.688 I0.011 J-0.317 F1524
X-19.545 Y-5.412 Z-1.824 I0.066 J-0.311 F5080
G1 Y-5.424 Z-1.8
X-19.821 Y-75.576
Y-75.586 Z-1.819
G3 X-19.57 Y-75.898 Z-2.688 I0.317 J-0.001
X-19.514 Y-75.905 Z-2.8 I0.066 J0.311 F1524
G1 X-18.499 F5080
G3 X-17.016 Y-75.277 I-0.124 J2.358
X-15.619 Y-73.657 I-3.788 J4.679
X-14.316 Y-70.983 I-12.663 J7.823
X-11.923 Y-63.15 I-58.814 J22.253
X-15.668 Y-6.814 I-90.114 J22.302
G1 X-15.962 Y-6.15
G3 X-16.483 Y-5.323 I-2.726 J-1.139
G1 X-16.668 Y-5.2
X-16.874 Y-5.122
X-17.094 Y-5.095
X-18.165
G3 X-18.22 Y-5.102 Z-2.688 I0.011 J-0.317 F1524
X-18.471 Y-5.411 Z-1.825 I0.066 J-0.311 F5080
G1 X-18.472 Y-5.424 Z-1.8
X-18.805 Y-75.576
Y-75.586 Z-1.819
G3 X-18.554 Y-75.898 Z-2.688 I0.317 J-0.002
X-18.499 Y-75.905 Z-2.8 I0.066 J0.311 F1524
G1 X-17.407 F5080
G3 X-16.116 Y-75.399 I-0.122 J2.217
X-14.809 Y-74.024 I-3.219 J4.365
X-13.483 Y-71.51 I-10.298 J7.041
X-11.41 Y-65.138 I-48.342 J19.246
X-14.407 Y-7.316 I-90.602 J24.292
G1 X-14.687 Y-6.626
G3 X-15.273 Y-5.482 I-5.527 J-2.11
X-16.025 Y-5.095 I-0.756 J-0.546
G1 X-17.094
G3 X-17.149 Y-5.102 Z-2.688 I0.011 J-0.317 F1524
X-17.4 Y-5.411 Z-1.825 I0.066 J-0.311 F5080
G1 Y-5.424 Z-1.8
X-17.714 Y-75.576
Y-75.586 Z-1.819
G3 X-17.462 Y-75.898 Z-2.688 I0.317 J-0.001
X-17.407 Y-75.905 Z-2.8 I0.066 J0.311 F1524
G1 X-16.392 F5080
G3 X-14.916 Y-75.286 I-0.115 J2.342
X-13.538 Y-73.694 I-3.719 J4.613
X-12.242 Y-71.026 I-12.295 J7.624
X-10.063 Y-63.906 I-56.051 J21.046
X-13.54 Y-6.803 I-91.965 J23.058
G1 X-13.827 Y-6.154
G3 X-14.345 Y-5.325 I-2.724 J-1.125
G1 X-14.53 Y-5.201
X-14.737 Y-5.122
X-14.958 Y-5.095
X-16.025
G3 X-16.08 Y-5.102 Z-2.688 I0.011 J-0.317 F1524
X-16.331 Y-5.411 Z-1.825 I0.066 J-0.311 F5080
G1 Y-5.424 Z-1.8
X-16.698 Y-75.576
Y-75.586 Z-1.818
G3 X-16.447 Y-75.898 Z-2.688 I0.317 J-0.002
X-16.392 Y-75.905 Z-2.8 I0.066 J0.311 F1524
G1 X-15.283 F5080
G3 X-13.992 Y-75.388 I-0.139 J2.22
X-12.678 Y-73.983 I-3.275 J4.38
X-11.369 Y-71.458 I-10.386 J6.986
X-9.338 Y-65.073 I-48.741 J19.022
X-12.321 Y-7.212 I-92.665 J24.229
G1 X-12.601 Y-6.521
G3 X-13.145 Y-5.476 I-5.225 J-2.056
X-13.892 Y-5.095 I-0.751 J-0.549
G1 X-14.958
G3 X-15.013 Y-5.102 Z-2.688 I0.011 J-0.317 F1524
X-15.264 Y-5.411 Z-1.825 I0.066 J-0.311 F5080
G1 Y-5.424 Z-1.8
X-15.59 Y-75.576
Y-75.586 Z-1.819
G3 X-15.338 Y-75.898 Z-2.688 I0.317 J-0.001
X-15.283 Y-75.905 Z-2.8 I0.066 J0.311 F1524
G1 X-14.268 F5080
G3 X-12.789 Y-75.267 I-0.136 J2.351
X-11.41 Y-73.648 I-3.787 J4.623
X-10.13 Y-70.964 I-12.456 J7.585
X-7.997 Y-63.831 I-56.657 J20.831
X-11.195 Y-7.387 I-94.037 J22.984
G1 X-11.468 Y-6.694
G3 X-12.071 Y-5.488 I-5.716 J-2.109
X-12.828 Y-5.095 I-0.761 J-0.54
G1 X-13.892
G3 X-13.947 Y-5.102 Z-2.688 I0.011 J-0.317 F1524
X-14.199 Y-5.411 Z-1.825 I0.066 J-0.311 F5080
G1 Y-5.424 Z-1.8
X-14.574 Y-75.576
Y-75.585 Z-1.818
G3 X-14.323 Y-75.898 Z-2.688 I0.317 J-0.002
X-14.268 Y-75.905 Z-2.8 I0.066 J0.311 F1524
G1 X-13.176 F5080
G3 X-11.884 Y-75.384 I-0.141 J2.213
X-10.583 Y-73.987 I-3.267 J4.347
X-9.284 Y-71.463 I-10.308 J6.901
X-7.284 Y-65.068 I-48.414 J18.649
X-5.095 Y-53.744 I-88.247 J22.93
G1 Y-29.247
G3 X-5.567 Y-24.806 I-29.79 J-0.918
X-10.346 Y-6.833 I-94.774 J-15.575
G1 X-10.624 Y-6.185
G3 X-11.148 Y-5.329 I-2.821 J-1.141
G1 X-11.335 Y-5.203
X-11.544 Y-5.123
X-11.766 Y-5.095
X-12.828
G3 X-12.883 Y-5.102 Z-2.688 I0.011 J-0.317 F1524
X-13.135 Y-5.424 Z-1.8 I0.066 J-0.311 F5080
X-13.12 Y-5.507 I0.317 J0.011
G1 X-5.716 Y-29.33
G3 X-5.424 Y-29.553 I0.303 J0.094
X-5.102 Y-29.302 Z-2.688 I0.011 J0.317
X-5.095 Y-29.247 Z-2.8 I-0.311 J0.066 F1524
G1 Y-23.155 F5080
G3 X-5.595 Y-19.47 I-17.873 J-0.545
X-9.373 Y-6.615 I-90.31 J-19.561
X-9.949 Y-5.488 I-6.019 J-2.365
X-10.706 Y-5.095 I-0.761 J-0.542
G1 X-11.766
G3 X-11.821 Y-5.102 Z-2.688 I0.011 J-0.317 F1524
X-12.072 Y-5.424 Z-1.8 I0.066 J-0.311 F5080
X-12.054 Y-5.52 I0.317 J0.011
G1 X-5.712 Y-23.251
G3 X-5.424 Y-23.461 I0.299 J0.107
X-5.102 Y-23.21 Z-2.688 I0.011 J0.317
X-5.095 Y-23.155 Z-2.8 I-0.311 J0.066 F1524
G1 Y-18.417 F5080
G3 X-5.51 Y-15.627 I-12.058 J-0.368
X-8.407 Y-6.391 I-78.47 J-19.537
X-8.902 Y-5.471 I-5.558 J-2.397
X-9.646 Y-5.095 I-0.746 J-0.552
G1 X-10.706
G3 X-10.761 Y-5.102 Z-2.688 I0.011 J-0.317 F1524
X-11.012 Y-5.424 Z-1.8 I0.066 J-0.311 F5080
X-10.989 Y-5.532 I0.317 J0.011
G1 X-5.707 Y-18.526
G3 X-5.424 Y-18.723 I0.294 J0.12
X-5.102 Y-18.472 Z-2.688 I0.011 J0.317
X-5.095 Y-18.417 Z-2.8 I-0.311 J0.066 F1524
G1 Y-14.525 F5080
G3 X-5.499 Y-12.021 I-10.05 J-0.333
X-7.368 Y-6.364 I-54.706 J-14.939
X-7.845 Y-5.47 I-5.013 J-2.102
X-8.587 Y-5.095 I-0.744 J-0.551
G1 X-9.646
G3 X-9.701 Y-5.102 Z-2.688 I0.011 J-0.317 F1524
X-9.952 Y-5.424 Z-1.8 I0.066 J-0.311 F5080
X-9.923 Y-5.546 I0.317 J0.011
G1 X-5.701 Y-14.648
G3 X-5.424 Y-14.831 I0.288 J0.134
X-5.102 Y-14.58 Z-2.688 I0.011 J0.317
X-5.095 Y-14.525 Z-2.8 I-0.311 J0.066 F1524
G1 Y-11.141 F5080
G3 X-5.479 Y-8.825 I-8.732 J-0.256
X-6.571 Y-5.816 I-18.615 J-5.055
X-7.1 Y-5.2 I-1.376 J-0.646
G1 X-7.312 Y-5.123
X-7.534 Y-5.095
X-8.587
G3 X-8.643 Y-5.102 Z-2.688 I0.011 J-0.317 F1524
X-8.894 Y-5.424 Z-1.8 I0.066 J-0.311 F5080
X-8.854 Y-5.567 I0.317 J0.011
G1 X-5.691 Y-11.283
G3 X-5.424 Y-11.447 I0.278 J0.154
X-5.102 Y-11.196 Z-2.688 I0.011 J0.317
X-5.095 Y-11.141 Z-2.8 I-0.311 J0.066 F1524
G1 Y-8.095 F5080
G3 X-5.773 Y-5.509 I-5.379 J-0.026
X-6.547 Y-5.095 I-0.783 J-0.534
X-6.602 Y-5.102 Z-2.688 I0.011 J-0.318 F1524
X-6.853 Y-5.424 Z-1.8 I0.066 J-0.311 F5080
X-6.828 Y-5.536 I0.317 J0.011
G1 X-5.706 Y-8.207
G3 X-5.424 Y-8.401 I0.293 J0.123
X-5.102 Y-8.15 Z-2.688 I0.011 J0.317
X-5.095 Y-8.095 Z-2.8 I-0.311 J0.066 F1524
G1 Y-5.971 F5080
G3 X-5.947 Y-5.096 I-0.849 J0.026
X-6.002 Y-5.102 Z-2.688 I0.011 J-0.317 F1524
X-6.253 Y-5.424 Z-1.8 I0.066 J-0.311 F5080
X-6.165 Y-5.632 I0.317 J0.011
G1 X-5.642 Y-6.18
G3 X-5.424 Y-6.277 I0.23 J0.219
X-5.102 Y-6.026 Z-2.688 I0.011 J0.317
X-5.095 Y-5.971 Z-2.8 I-0.311 J0.066 F1524
X-5.105 Y-5.345 I-4.579 J0.246 F5080
G1 X-5.121 Y-5.303
X-5.143 Y-5.261
X-5.175 Y-5.218
X-5.198 Y-5.194
X-5.222 Y-5.174
X-5.264 Y-5.144
X-5.306 Y-5.121 F1270
X-5.349 Y-5.107
X-5.391 Y-5.098 F5080
X-5.56 Y-5.095
X-7.534
G3 X-7.589 Y-5.102 Z-2.688 I0.011 J-0.317 F1524
X-7.84 Y-5.387 Z-1.873 I0.066 J-0.311 F5080
G1 X-7.842 Y-5.424 Z-1.8
X-13.482 Y-75.562
Y-75.576
G3 X-13.231 Y-75.898 Z-2.688 I0.317 J-0.011
X-13.176 Y-75.905 Z-2.8 I0.066 J0.311 F1524
G1 X-12.161 F5080
G3 X-10.683 Y-75.262 I-0.143 J2.349
X-9.312 Y-73.642 I-3.789 J4.596
X-8.045 Y-70.956 I-12.402 J7.494
X-5.948 Y-63.811 I-56.623 J20.501
X-5.093 Y-59.9 I-69.982 J17.339
G1 X-5.095 Y-59.84
Y-53.744
G3 X-5.102 Y-53.689 Z-2.688 I-0.317 J-0.011 F1524
X-5.424 Y-53.438 Z-1.8 I-0.311 J-0.066 F5080
X-5.716 Y-53.661 I0.011 J-0.317
G1 X-12.453 Y-75.494
G3 X-12.467 Y-75.576 I0.303 J-0.094
X-12.216 Y-75.898 Z-2.688 I0.317 J-0.011
X-12.161 Y-75.905 Z-2.8 I0.066 J0.311 F1524
G1 X-11.094 F5080
G3 X-9.809 Y-75.4 I-0.12 J2.193
X-8.541 Y-74.06 I-3.143 J4.245
X-7.238 Y-71.554 I-9.883 J6.731
X-5.257 Y-65.154 I-47.038 J18.069
G1 X-5.123 Y-64.649
X-5.108 Y-64.575
X-5.099 Y-64.501
X-5.095 Y-64.426
Y-59.84
G3 X-5.102 Y-59.785 Z-2.688 I-0.317 J-0.011 F1524
X-5.424 Y-59.534 Z-1.8 I-0.311 J-0.066 F5080
X-5.712 Y-59.743 I0.011 J-0.317
G1 X-11.382 Y-75.48
G3 X-11.4 Y-75.576 I0.299 J-0.108
X-11.149 Y-75.898 Z-2.688 I0.317 J-0.011
X-11.094 Y-75.905 Z-2.8 I0.066 J0.311 F1524
G1 X-10.037 F5080
G3 X-8.745 Y-75.387 I-0.135 J2.206
X-7.487 Y-74.047 I-3.152 J4.219
X-6.187 Y-71.525 I-10.005 J6.754
X-5.091 Y-68.286 I-29.689 J11.849
G1 X-5.095 Y-68.194
Y-64.426
G3 X-5.102 Y-64.371 Z-2.688 I-0.317 J-0.011 F1524
X-5.424 Y-64.119 Z-1.8 I-0.311 J-0.066 F5080
X-5.706 Y-64.315 I0.011 J-0.317
G1 X-10.319 Y-75.466
G3 X-10.343 Y-75.576 I0.293 J-0.121
X-10.092 Y-75.898 Z-2.688 I0.317 J-0.011
X-10.037 Y-75.905 Z-2.8 I0.066 J0.311 F1524
G1 X-9.021 F5080
G3 X-7.552 Y-75.269 I-0.136 J2.332
X-6.199 Y-73.67 I-3.734 J4.532
X-5.121 Y-71.445 I-10.29 J6.357
G1 X-5.103 Y-71.332
X-5.095 Y-71.218
Y-68.194
G3 X-5.102 Y-68.139 Z-2.688 I-0.317 J-0.011 F1524
X-5.424 Y-67.888 Z-1.8 I-0.311 J-0.066 F5080
X-5.698 Y-68.066 I0.011 J-0.317
G1 X-9.296 Y-75.448
G3 X-9.327 Y-75.576 I0.285 J-0.139
X-9.076 Y-75.898 Z-2.688 I0.317 J-0.011
X-9.021 Y-75.905 Z-2.8 I0.066 J0.311 F1524
G1 X-7.93 F5080
G3 X-6.642 Y-75.377 I-0.149 J2.199
X-5.157 Y-73.644 I-3.293 J4.324
G1 X-5.112 Y-73.477
X-5.095 Y-73.305
G3 X-5.102 Y-73.25 Z-2.688 I-0.317 J-0.011 F1524
X-5.424 Y-72.999 Z-1.8 I-0.311 J-0.066 F5080
X-5.626 Y-73.081 I0.011 J-0.317
G1 X-8.132 Y-75.352
G3 X-8.236 Y-75.576 I0.213 J-0.235
X-7.985 Y-75.898 Z-2.688 I0.317 J-0.011
X-7.93 Y-75.905 Z-2.8 I0.066 J0.311 F1524
G1 X-6.914 F5080
G3 X-5.644 Y-75.409 I-0.115 J2.171
X-5.13 Y-74.797 I-0.542 J0.976
G1 X-5.095 Y-74.54
G3 X-5.102 Y-74.485 Z-2.688 I-0.317 J-0.011 F1524
X-5.424 Y-74.234 Z-1.8 I-0.311 J-0.066 F5080
X-5.594 Y-74.29 I0.011 J-0.317
G1 X-7.084 Y-75.326
G3 X-7.22 Y-75.576 I0.181 J-0.261
X-6.969 Y-75.898 Z-2.688 I0.317 J-0.011
X-6.914 Y-75.905 Z-2.8 I0.066 J0.311 F1524
G1 X-5.899 F5080
G3 X-5.095 Y-75.144 I0.04 J0.762
X-5.102 Y-75.089 Z-2.688 I-0.317 J-0.011 F1524
X-5.424 Y-74.838 Z-1.8 I-0.311 J-0.066 F5080
X-5.627 Y-74.92 I0.011 J-0.317
G1 X-6.101 Y-75.352
G3 X-6.205 Y-75.576 I0.214 J-0.235
X-5.954 Y-75.898 Z-2.688 I0.317 J-0.011
X-5.899 Y-75.905 Z-2.8 I0.066 J0.311 F1524
G1 X-5.56 F5080
X-5.391 Y-75.902
X-5.349 Y-75.893 F1270
X-5.306 Y-75.879
X-5.264 Y-75.856 F5080
X-5.222 Y-75.826
X-5.198 Y-75.806
X-5.175 Y-75.782
X-5.143 Y-75.739
X-5.121 Y-75.697 F1270
X-5.106 Y-75.655
X-5.098 Y-75.613 F5080
X-5.095 Y-75.443
Y-71.218
G3 X-5.124 Y-71.098 I-0.317 J-0.011 F1524
G1 X-5.153 Y-71.033 Z-2.792
X-5.181 Y-70.972 Z-2.769
X-5.206 Y-70.918 Z-2.731
X-5.227 Y-70.872 Z-2.68
X-5.243 Y-70.837 Z-2.62
X-5.252 Y-70.816 Z-2.553
X-5.256 Y-70.809 Z-2.483
G0 Z-2.165
X-109.591 Y-5.319
G1 Z-2.483 F1524
X-109.583 Y-5.316 Z-2.553
X-109.561 Y-5.309 Z-2.62
X-109.525 Y-5.297 Z-2.68
X-109.477 Y-5.281 Z-2.731
X-109.42 Y-5.262 Z-2.769
X-109.356 Y-5.241 Z-2.792
X-109.289 Y-5.219 Z-2.8
G3 X-109.307 Y-5.095 I-0.02 J0.06
G1 X-113.03 F5080
X-113.398 Y-5.114
G3 X-115.77 Y-5.674 I1.033 J-9.677
X-124.912 Y-10.621 I12.381 J-33.803
X-131.267 Y-66.039 I22.608 J-30.666
X-114.621 Y-77.386 I28.884 J24.488
G1 X-114.521 Y-77.399 F1270
X-114.42 Y-77.405 F5080
X-110.966
G3 X-110.911 Y-77.398 Z-2.688 I-0.011 J0.317 F1524
X-110.66 Y-77.078 Z-1.803 I-0.066 J0.311 F5080
G1 Y-77.076 Z-1.8
X-112.724 Y-5.424
Y-5.404 Z-1.84
G3 X-112.975 Y-5.102 Z-2.688 I-0.317 J-0.009
X-113.03 Y-5.095 Z-2.8 I-0.066 J-0.311 F1524
G1 X-115.738 F5080
G3 X-117.352 Y-5.354 I0.107 J-5.831
X-120.1 Y-6.496 I4.73 J-15.266
X-134.999 Y-62.686 I17.767 J-34.781
X-117.404 Y-77.379 I32.626 J21.191
G1 X-117.283 Y-77.397
X-117.163 Y-77.405
X-114.42
G3 X-114.365 Y-77.398 Z-2.688 I-0.011 J0.317 F1524
X-114.114 Y-77.081 Z-1.81 I-0.066 J0.311 F5080
G1 Y-77.076 Z-1.8
X-115.432 Y-5.424
Y-5.407 Z-1.833
G3 X-115.683 Y-5.102 Z-2.688 I-0.317 J-0.006
X-115.738 Y-5.095 Z-2.8 I-0.066 J-0.311 F1524
G1 X-118.277 F5080
G3 X-119.996 Y-5.472 I0.269 J-5.336
X-122.668 Y-6.783 I5.877 J-15.355
X-136.216 Y-62.616 I20.335 J-34.494
X-119.813 Y-77.367 I33.833 J21.126
G1 X-119.671 Y-77.394
X-119.53 Y-77.405
X-117.163
G3 X-117.108 Y-77.398 Z-2.688 I-0.011 J0.317 F1524
X-116.857 Y-77.082 Z-1.812 I-0.066 J0.311 F5080
G1 Y-77.076 Z-1.8
X-117.97 Y-5.424
X-117.971 Y-5.408 Z-1.832
G3 X-118.222 Y-5.102 Z-2.688 I-0.317 J-0.005
X-118.277 Y-5.095 Z-2.8 I-0.066 J-0.311 F1524
G1 X-120.308 F5080
G3 X-121.896 Y-5.416 I0.096 J-4.573
X-124.413 Y-6.706 I4.775 J-12.417
X-141.369 Y-28.668 I21.869 J-34.411
X-122.102 Y-77.292 I39.143 J-12.619
G1 X-121.964 Y-77.354
X-121.816 Y-77.392
X-121.664 Y-77.405
X-119.53
G3 X-119.475 Y-77.398 Z-2.688 I-0.011 J0.317 F1524
X-119.224 Y-77.084 Z-1.815 I-0.066 J0.311 F5080
G1 Y-77.076 Z-1.8
X-120.001 Y-5.424
X-120.002 Y-5.409 Z-1.829
G3 X-120.253 Y-5.102 Z-2.688 I-0.317 J-0.003
X-120.308 Y-5.095 Z-2.8 I-0.066 J-0.311 F1524
G1 X-122.339 F5080
G3 X-124.152 Y-5.559 I0.193 J-4.54
X-126.668 Y-7.036 I6.031 J-13.151
X-144.323 Y-42.217 I24.221 J-34.175
X-124.109 Y-77.267 I42.076 J0.912
G1 X-123.959 Y-77.343
X-123.797 Y-77.389
X-123.629 Y-77.405
X-121.664
G3 X-121.609 Y-77.398 Z-2.688 I-0.011 J0.317 F1524
X-121.358 Y-77.084 Z-1.816 I-0.066 J0.311 F5080
G1 Y-77.076 Z-1.8
X-122.032 Y-5.424
X-122.033 Y-5.41 Z-1.828
G3 X-122.284 Y-5.102 Z-2.688 I-0.317 J-0.003
X-122.339 Y-5.095 Z-2.8 I-0.066 J-0.311 F1524
G1 X-124.201 F5080
G3 X-125.816 Y-5.505 I0.169 J-4.06
X-128.212 Y-6.952 I5.202 J-11.314
X-139.884 Y-20.323 I25.309 J-33.874
X-125.978 Y-77.249 I37.65 J-20.964
G1 X-125.822 Y-77.336
X-125.651 Y-77.387
X-125.473 Y-77.405
X-123.629
G3 X-123.574 Y-77.398 Z-2.688 I-0.011 J0.317 F1524
X-123.323 Y-77.085 Z-1.817 I-0.066 J0.311 F5080
G1 Y-77.076 Z-1.8
X-123.894 Y-5.424
Y-5.41 Z-1.827
G3 X-124.145 Y-5.102 Z-2.688 I-0.317 J-0.003
X-124.201 Y-5.095 Z-2.8 I-0.066 J-0.311 F1524
G1 X-125.893 F5080
G3 X-127.436 Y-5.47 I0.09 J-3.737
X-129.691 Y-6.862 I4.592 J-9.96
X-137.482 Y-14.827 I25.586 J-32.819
X-127.749 Y-77.228 I35.228 J-26.465
G1 X-127.588 Y-77.327
X-127.408 Y-77.385
X-127.219 Y-77.405
X-125.473
G3 X-125.417 Y-77.398 Z-2.688 I-0.011 J0.317 F1524
X-125.166 Y-77.085 Z-1.818 I-0.066 J0.311 F5080
G1 Y-77.076 Z-1.8
X-125.587 Y-5.424
Y-5.411 Z-1.825
G3 X-125.838 Y-5.102 Z-2.688 I-0.317 J-0.002
X-125.893 Y-5.095 Z-2.8 I-0.066 J-0.311 F1524
G1 X-127.585 F5080
G3 X-129.006 Y-5.443 I0.1 J-3.487
X-131.125 Y-6.772 I4.152 J-8.975
X-137.4 Y-13.115 I25.364 J-31.369
X-131.562 Y-75.497 I35.132 J-28.177
X-129.281 Y-77.325 I18.22 J20.395
G1 X-129.087 Y-77.383
X-128.889 Y-77.405
X-127.219
G3 X-127.164 Y-77.398 Z-2.688 I-0.011 J0.317 F1524
X-126.913 Y-77.086 Z-1.818 I-0.066 J0.311 F5080
G1 Y-77.076 Z-1.8
X-127.279 Y-5.424
Y-5.411 Z-1.825
G3 X-127.53 Y-5.102 Z-2.688 I-0.317 J-0.002
X-127.586 Y-5.095 Z-2.8 I-0.066 J-0.311 F1524
G1 X-129.278 F5080
G3 X-130.603 Y-5.453 I0.193 J-3.351
X-132.661 Y-6.796 I4.124 J-8.565
X-138.329 Y-12.695 I25.74 J-30.404
X-134.771 Y-73.869 I36.051 J-28.594
X-131.072 Y-77.199 I30.158 J29.787
G1 X-130.896 Y-77.311
X-130.7 Y-77.381
X-130.493 Y-77.405
X-128.889
G3 X-128.833 Y-77.398 Z-2.688 I-0.011 J0.317 F1524
X-128.582 Y-77.085 Z-1.818 I-0.066 J0.311 F5080
G1 Y-77.076 Z-1.8
X-128.971 Y-5.424
X-128.972 Y-5.411 Z-1.825
G3 X-129.223 Y-5.102 Z-2.688 I-0.317 J-0.002
X-129.278 Y-5.095 Z-2.8 I-0.066 J-0.311 F1524
G1 X-130.801 F5080
G3 X-132.368 Y-5.578 I0.217 J-3.495
X-134.495 Y-7.117 I5.033 J-9.19
X-140.837 Y-14.409 I28.857 J-31.503
X-132.631 Y-77.184 I38.583 J-26.88
G1 X-132.456 Y-77.307
X-132.255 Y-77.38
X-132.043 Y-77.405
X-130.493
G3 X-130.437 Y-77.398 Z-2.688 I-0.011 J0.317 F1524
X-130.186 Y-77.086 Z-1.819 I-0.066 J0.311 F5080
G1 Y-77.076 Z-1.8
X-130.495 Y-5.424
Y-5.411 Z-1.824
G3 X-130.746 Y-5.102 Z-2.688 I-0.318 J-0.001
X-130.801 Y-5.095 Z-2.8 I-0.066 J-0.311 F1524
G1 X-132.324 F5080
G3 X-133.881 Y-5.599 I0.239 J-3.399
X-135.94 Y-7.145 I5.014 J-8.824
X-141.719 Y-13.946 I29.293 J-30.743
X-134.156 Y-77.167 I39.461 J-27.343
G1 X-133.977 Y-77.298
X-133.769 Y-77.378
X-133.548 Y-77.405
X-132.043
G3 X-131.988 Y-77.398 Z-2.688 I-0.011 J0.317 F1524
X-131.737 Y-77.086 Z-1.819 I-0.066 J0.311 F5080
G1 Y-77.076 Z-1.8
X-132.018 Y-5.424
Y-5.412 Z-1.824
G3 X-132.269 Y-5.102 Z-2.688 I-0.317 J-0.001
X-132.324 Y-5.095 Z-2.8 I-0.066 J-0.311 F1524
G1 X-133.771 F5080
G3 X-135.246 Y-5.561 I0.205 J-3.22
X-137.23 Y-7.052 I4.585 J-8.162
X-142.058 Y-12.713 I28.024 J-28.79
X-135.645 Y-77.147 I39.796 J-28.576
G1 X-135.463 Y-77.29
X-135.248 Y-77.375
X-135.017 Y-77.405
X-133.548
G3 X-133.493 Y-77.398 Z-2.688 I-0.011 J0.317 F1524
X-133.242 Y-77.086 Z-1.82 I-0.066 J0.311 F5080
G1 Y-77.076 Z-1.8
X-133.465 Y-5.424
Y-5.412 Z-1.824
G3 X-133.716 Y-5.102 Z-2.688 I-0.317 J-0.001
X-133.771 Y-5.095 Z-2.8 I-0.066 J-0.311 F1524
G1 X-135.202 F5080
G3 X-136.639 Y-5.553 I0.202 J-3.124
X-138.528 Y-6.99 I4.373 J-7.705
X-142.843 Y-12.111 I26.793 J-26.955
X-137.087 Y-77.139 I40.58 J-29.177
G1 X-136.902 Y-77.285
X-136.683 Y-77.374
X-136.449 Y-77.405
X-135.017
G3 X-134.962 Y-77.398 Z-2.688 I-0.011 J0.317 F1524
X-134.711 Y-77.086 Z-1.82 I-0.066 J0.311 F5080
G1 Y-77.076 Z-1.8
X-134.895 Y-5.424
Y-5.412 Z-1.823
G3 X-135.146 Y-5.102 Z-2.688 I-0.317 J-0.001
X-135.202 Y-5.095 Z-2.8 I-0.066 J-0.311 F1524
G1 X-136.555 F5080
G3 X-137.913 Y-5.497 I0.137 J-2.957
G1 X-138.233 Y-5.676
G3 X-140.175 Y-7.3 I5.495 J-8.546
X-144.766 Y-13.155 I30.348 J-28.517
X-138.496 Y-77.135 I42.507 J-28.131
G1 X-138.308 Y-77.282
X-138.087 Y-77.373
X-137.849 Y-77.405
X-136.449
G3 X-136.394 Y-77.398 Z-2.688 I-0.011 J0.317 F1524
X-136.143 Y-77.087 Z-1.821 I-0.066 J0.311 F5080
G1 Y-77.076 Z-1.8
X-136.249 Y-5.424
Y-5.412 Z-1.823
G3 X-136.5 Y-5.102 Z-2.688 I-0.317 J0
X-136.555 Y-5.095 Z-2.8 I-0.066 J-0.311 F1524
G1 X-137.909 F5080
G3 X-139.27 Y-5.501 I0.118 J-2.884
G1 X-139.574 Y-5.672
G3 X-141.482 Y-7.294 I5.39 J-8.271
X-145.986 Y-13.216 I30.595 J-27.941
X-141.006 Y-75.904 I43.72 J-28.069
X-140.576 Y-76.12 I1.091 J1.636
G2 X-139.562 Y-77.172 I-1.104 J-2.081
G1 X-139.421 Y-77.298
X-139.249 Y-77.377
X-139.063 Y-77.405
G3 X-139.008 Y-77.398 Z-2.688 I-0.011 J0.317 F1524
X-138.757 Y-77.076 Z-1.8 I-0.066 J0.311 F5080
X-138.899 Y-76.822 I-0.317 J-0.011
G1 X-139.181 Y-76.636
G3 X-139.497 Y-76.617 I-0.175 J-0.265
X-139.661 Y-76.99 Z-2.688 I0.141 J-0.284
X-139.641 Y-77.042 Z-2.8 I0.305 J0.089 F1524
G1 X-139.602 Y-77.114 F5080
X-139.554 Y-77.22
X-139.527 Y-77.262
X-139.51 Y-77.284
X-139.49 Y-77.305
X-139.433 Y-77.35
X-139.39 Y-77.374
X-139.348 Y-77.391 F1270
X-139.306 Y-77.4 F5080
X-139.263 Y-77.404
X-137.849 Y-77.405
G3 X-137.794 Y-77.398 Z-2.688 I-0.011 J0.317 F1524
X-137.543 Y-77.087 Z-1.821 I-0.066 J0.311 F5080
G1 Y-77.076 Z-1.8
X-137.603 Y-5.424
Y-5.413 Z-1.822
G3 X-137.854 Y-5.102 Z-2.688 I-0.317 J0
X-137.909 Y-5.095 Z-2.8 I-0.066 J-0.311 F1524
G1 X-139.263 F5080
G3 X-140.587 Y-5.493 I0.127 J-2.823
G1 X-140.878 Y-5.658
G3 X-142.715 Y-7.23 I5.122 J-7.844
X-146.749 Y-12.576 I29.179 J-26.215
X-142.606 Y-75.573 I44.481 J-28.709
X-141.904 Y-75.904 I0.693 J0.561
G2 X-140.757 Y-76.041 I0.234 J-2.922
G1 X-140.705 Y-76.059 Z-2.688 F1524
G3 X-140.352 Y-75.855 Z-1.8 I0.054 J0.313 F5080
X-140.333 Y-75.753 I-0.298 J0.108
G1 X-138.957 Y-5.424
Y-5.419 Z-1.809
G3 X-139.208 Y-5.102 Z-2.688 I-0.317 J0.006
X-139.263 Y-5.095 Z-2.8 I-0.066 J-0.311 F1524
G1 X-140.617 F5080
G3 X-141.938 Y-5.514 I0.16 J-2.795
G1 X-142.244 Y-5.694
G3 X-144.061 Y-7.306 I5.323 J-7.831
X-148.01 Y-12.715 I29.953 J-26.016
X-143.882 Y-75.589 I45.742 J-28.569
G1 X-143.682 Y-75.759
X-143.444 Y-75.867
X-143.185 Y-75.905
X-141.904
G3 X-141.849 Y-75.898 Z-2.688 I-0.011 J0.317 F1524
X-141.598 Y-75.593 Z-1.833 I-0.066 J0.311 F5080
G1 Y-75.576 Z-1.8
X-140.311 Y-5.424
Y-5.419 Z-1.81
G3 X-140.562 Y-5.102 Z-2.688 I-0.317 J0.006
X-140.617 Y-5.095 Z-2.8 I-0.066 J-0.311 F1524
G1 X-141.895 F5080
G3 X-143.45 Y-5.65 I0.176 J-2.95
G1 X-143.789 Y-5.874
G3 X-145.657 Y-7.698 I6.548 J-8.573
X-150.212 Y-14.498 I35.102 J-28.44
X-145.153 Y-75.593 I47.939 J-26.787
G1 X-144.951 Y-75.76
X-144.713 Y-75.868
X-144.455 Y-75.905
X-143.185
G3 X-143.13 Y-75.898 Z-2.688 I-0.011 J0.317 F1524
X-142.879 Y-75.593 Z-1.833 I-0.066 J0.311 F5080
G1 X-142.878 Y-75.576 Z-1.8
X-141.589 Y-5.424
Y-5.419 Z-1.81
G3 X-141.84 Y-5.102 Z-2.688 I-0.317 J0.006
X-141.895 Y-5.095 Z-2.8 I-0.066 J-0.311 F1524
G1 X-143.156 F5080
G3 X-144.684 Y-5.626 I0.139 J-2.864
G1 X-144.993 Y-5.828
G3 X-146.813 Y-7.598 I6.069 J-8.059
X-150.946 Y-13.785 I33.688 J-26.98
X-146.413 Y-75.592 I48.668 J-27.5
G1 X-146.21 Y-75.759
X-145.973 Y-75.867
X-145.714 Y-75.905
X-144.455
G3 X-144.4 Y-75.898 Z-2.688 I-0.011 J0.317 F1524
X-144.149 Y-75.593 Z-1.834 I-0.066 J0.311 F5080
G1 X-144.148 Y-75.576 Z-1.8
X-142.85 Y-5.424
Y-5.419 Z-1.81
G3 X-143.101 Y-5.102 Z-2.688 I-0.317 J0.006
X-143.156 Y-5.095 Z-2.8 I-0.066 J-0.311 F1524
G1 X-144.434 F5080
G3 X-145.942 Y-5.627 I0.15 J-2.831
G1 X-146.23 Y-5.815
G3 X-148.02 Y-7.571 I5.911 J-7.814
X-151.725 Y-13.151 I32.411 J-25.541
X-147.66 Y-75.591 I49.443 J-28.133
X-146.957 Y-75.905 I0.72 J0.665
G1 X-145.714
G3 X-145.659 Y-75.898 Z-2.688 I-0.011 J0.317 F1524
X-145.408 Y-75.593 Z-1.833 I-0.066 J0.311 F5080
G1 Y-75.576 Z-1.8
X-144.128 Y-5.424
X-144.127 Y-5.419 Z-1.81
G3 X-144.379 Y-5.102 Z-2.688 I-0.317 J0.006
X-144.434 Y-5.095 Z-2.8 I-0.066 J-0.311 F1524
G1 X-145.695 F5080
G3 X-147.197 Y-5.634 I0.157 J-2.8
G1 X-147.483 Y-5.824
G3 X-149.248 Y-7.584 I5.884 J-7.664
X-152.89 Y-13.206 I32.602 J-25.113
X-148.888 Y-75.597 I50.598 J-28.079
G1 X-148.682 Y-75.761
X-148.445 Y-75.868
X-148.188 Y-75.905
X-146.957
G3 X-146.902 Y-75.898 Z-2.688 I-0.011 J0.317 F1524
X-146.651 Y-75.593 Z-1.833 I-0.066 J0.311 F5080
G1 X-146.65 Y-75.576 Z-1.8
X-145.388 Y-5.424
Y-5.419 Z-1.81
G3 X-145.64 Y-5.102 Z-2.688 I-0.317 J0.006
X-145.695 Y-5.095 Z-2.8 I-0.066 J-0.311 F1524
G1 X-146.973 F5080
G3 X-148.219 Y-5.502 I0.144 J-2.552
X-149.568 Y-6.578 I3.126 J-5.31
X-151.42 Y-8.907 I11.677 J-11.182
X-157.476 Y-20.837 I46.255 J-30.982
X-150.255 Y-75.395 I55.14 J-20.459
G1 X-150.119 Y-75.566
G3 X-149.405 Y-75.905 I0.714 J0.582
G1 X-148.188
G3 X-148.133 Y-75.898 Z-2.688 I-0.011 J0.317 F1524
X-147.882 Y-75.593 Z-1.833 I-0.066 J0.311 F5080
G1 X-147.881 Y-75.576 Z-1.8
X-146.666 Y-5.424
Y-5.418 Z-1.811
G3 X-146.917 Y-5.102 Z-2.688 I-0.317 J0.005
X-146.972 Y-5.095 Z-2.8 I-0.066 J-0.311 F1524
G1 X-148.157 F5080
G3 X-149.603 Y-5.606 I0.134 J-2.685
X-151.051 Y-6.87 I3.707 J-5.706
X-153.231 Y-9.885 I16.531 J-14.246
X-161.632 Y-33.58 I50.466 J-31.23
X-151.349 Y-75.556 I59.208 J-7.743
X-150.618 Y-75.905 I0.748 J0.626
G1 X-149.405
G3 X-149.35 Y-75.898 Z-2.688 I-0.011 J0.317 F1524
X-149.099 Y-75.593 Z-1.833 I-0.066 J0.311 F5080
G1 X-149.098 Y-75.576 Z-1.8
X-147.851 Y-5.424
Y-5.418 Z-1.81
G3 X-148.102 Y-5.102 Z-2.688 I-0.317 J0.006
X-148.157 Y-5.095 Z-2.8 I-0.066 J-0.311 F1524
G1 X-149.418 F5080
G3 X-150.656 Y-5.506 I0.141 J-2.498
X-151.926 Y-6.529 I3.011 J-5.037
X-153.737 Y-8.86 I10.895 J-10.335
X-159.085 Y-19.489 I47.063 J-30.342
X-152.625 Y-75.455 I56.754 J-21.805
X-152.018 Y-75.882 I0.863 J0.583
G1 X-151.815 Y-75.905
X-150.617
G3 X-150.562 Y-75.898 Z-2.688 I-0.011 J0.317 F1524
X-150.311 Y-75.593 Z-1.833 I-0.066 J0.311 F5080
G1 Y-75.576 Z-1.8
X-149.112 Y-5.424
Y-5.418 Z-1.811
G3 X-149.363 Y-5.102 Z-2.688 I-0.317 J0.005
X-149.418 Y-5.095 Z-2.8 I-0.066 J-0.311 F1524
G1 X-150.603 F5080
G3 X-152.058 Y-5.637 I0.164 J-2.665
X-153.459 Y-6.902 I3.731 J-5.542
X-155.583 Y-9.957 I16.377 J-13.649
X-163.09 Y-30.096 I52.437 J-31.017
X-153.837 Y-75.423 I60.681 J-11.219
G1 X-153.729 Y-75.554
G3 X-153.006 Y-75.905 I0.723 J0.57
G1 X-151.815
G3 X-151.76 Y-75.898 Z-2.688 I-0.011 J0.317 F1524
X-151.508 Y-75.593 Z-1.833 I-0.066 J0.311 F5080
G1 Y-75.576 Z-1.8
X-150.297 Y-5.424
X-150.296 Y-5.418 Z-1.811
G3 X-150.548 Y-5.102 Z-2.688 I-0.317 J0.005
X-150.603 Y-5.095 Z-2.8 I-0.066 J-0.311 F1524
G1 X-151.788 F5080
G3 X-153.215 Y-5.615 I0.142 J-2.61
X-154.58 Y-6.839 I3.611 J-5.402
X-156.692 Y-9.9 I15.382 J-12.874
X-163.494 Y-27.163 I53.037 J-30.868
X-155.01 Y-75.439 I61.089 J-14.147
G1 X-154.911 Y-75.553
G3 X-154.187 Y-75.905 I0.724 J0.569
G1 X-153.006
G3 X-152.951 Y-75.898 Z-2.688 I-0.011 J0.317 F1524
X-152.699 Y-75.593 Z-1.833 I-0.066 J0.311 F5080
G1 Y-75.576 Z-1.8
X-151.481 Y-5.424
Y-5.418 Z-1.811
G3 X-151.732 Y-5.102 Z-2.688 I-0.317 J0.006
X-151.787 Y-5.095 Z-2.8 I-0.066 J-0.311 F1524
G1 X-152.972 F5080
G3 X-154.388 Y-5.611 I0.138 J-2.581
X-155.729 Y-6.816 I3.545 J-5.294
X-157.824 Y-9.889 I14.883 J-12.397
X-163.987 Y-25.026 I53.589 J-30.642
X-156.363 Y-75.159 I61.59 J-16.281
G1 X-156.141 Y-75.483
G3 X-155.361 Y-75.905 I0.792 J0.531
G1 X-154.187
G3 X-154.132 Y-75.898 Z-2.688 I-0.011 J0.317 F1524
X-153.881 Y-75.593 Z-1.833 I-0.066 J0.311 F5080
G1 Y-75.576 Z-1.8
X-152.666 Y-5.424
Y-5.418 Z-1.811
G3 X-152.917 Y-5.102 Z-2.688 I-0.317 J0.005
X-152.972 Y-5.095 Z-2.8 I-0.066 J-0.311 F1524
G1 X-154.157 F5080
G3 X-155.568 Y-5.616 I0.146 J-2.566
X-156.894 Y-6.819 I3.529 J-5.223
X-158.593 Y-9.262 I12.758 J-10.688
X-163.522 Y-20.094 I51.439 J-29.943
X-157.477 Y-75.244 I61.148 J-21.203
G1 X-157.277 Y-75.523
G3 X-156.529 Y-75.905 I0.752 J0.551
G1 X-155.361
G3 X-155.306 Y-75.898 Z-2.688 I-0.011 J0.317 F1524
X-155.054 Y-75.593 Z-1.833 I-0.066 J0.311 F5080
G1 Y-75.576 Z-1.8
X-153.851 Y-5.424
Y-5.418 Z-1.811
G3 X-154.102 Y-5.102 Z-2.688 I-0.317 J0.005
X-154.157 Y-5.095 Z-2.8 I-0.066 J-0.311 F1524
G1 X-155.342 F5080
G3 X-156.754 Y-5.631 I0.163 J-2.561
X-158.075 Y-6.849 I3.57 J-5.196
X-159.754 Y-9.307 I12.834 J-10.566
X-164.598 Y-20.178 I52.324 J-29.83
X-158.616 Y-75.278 I62.206 J-21.12
G1 X-158.425 Y-75.537
G3 X-157.688 Y-75.905 I0.739 J0.559
G1 X-156.529
G3 X-156.473 Y-75.898 Z-2.688 I-0.011 J0.317 F1524
X-156.222 Y-75.593 Z-1.832 I-0.066 J0.311 F5080
G1 Y-75.576 Z-1.8
X-155.035 Y-5.424
Y-5.418 Z-1.811
G3 X-155.286 Y-5.102 Z-2.688 I-0.317 J0.005
X-155.342 Y-5.095 Z-2.8 I-0.066 J-0.311 F1524
G1 X-156.526 F5080
G3 X-157.946 Y-5.653 I0.189 J-2.566
X-159.274 Y-6.908 I3.671 J-5.216
X-161.288 Y-10.035 I15.147 J-11.969
X-166.753 Y-23.862 I56.268 J-30.232
X-159.735 Y-75.333 I64.311 J-17.446
X-159.234 Y-75.817 I1.181 J0.721
G1 X-159.043 Y-75.882
X-158.842 Y-75.905
X-157.688
G3 X-157.633 Y-75.898 Z-2.688 I-0.011 J0.317 F1524
X-157.382 Y-75.592 Z-1.832 I-0.066 J0.311 F5080
G1 X-157.381 Y-75.576 Z-1.8
X-156.22 Y-5.424
Y-5.418 Z-1.811
G3 X-156.471 Y-5.102 Z-2.688 I-0.317 J0.005
X-156.526 Y-5.095 Z-2.8 I-0.066 J-0.311 F1524
G1 X-157.635 F5080
G3 X-159.016 Y-5.599 I0.122 J-2.483
X-160.24 Y-6.701 I3.236 J-4.821
X-161.903 Y-9.128 I11.208 J-9.466
X-165.909 Y-17.934 I50.671 J-28.369
X-160.931 Y-75.258 I63.529 J-23.361
G1 X-160.739 Y-75.519
G3 X-159.989 Y-75.905 I0.753 J0.544
G1 X-158.842
G3 X-158.787 Y-75.898 Z-2.688 I-0.011 J0.317 F1524
X-158.536 Y-75.593 Z-1.833 I-0.066 J0.311 F5080
G1 X-158.535 Y-75.576 Z-1.8
X-157.329 Y-5.424
Y-5.418 Z-1.811
G3 X-157.58 Y-5.102 Z-2.688 I-0.317 J0.005
X-157.635 Y-5.095 Z-2.8 I-0.066 J-0.311 F1524
G1 X-158.82 F5080
G3 X-160.21 Y-5.632 I0.165 J-2.497
X-161.477 Y-6.818 I3.432 J-4.938
X-163.119 Y-9.297 I11.859 J-9.638
X-167.286 Y-18.845 I52.914 J-28.772
X-162.213 Y-75.013 I64.892 J-22.453
G1 X-161.996 Y-75.358
X-161.842 Y-75.571
G3 X-161.133 Y-75.905 I0.709 J0.587
G1 X-159.989
G3 X-159.933 Y-75.898 Z-2.688 I-0.011 J0.317 F1524
X-159.682 Y-75.592 Z-1.832 I-0.066 J0.311 F5080
G1 Y-75.576 Z-1.8
X-158.513 Y-5.424
Y-5.418 Z-1.811
G3 X-158.764 Y-5.102 Z-2.688 I-0.317 J0.005
X-158.82 Y-5.095 Z-2.8 I-0.066 J-0.311 F1524
G1 X-159.911 F5080
G3 X-161.267 Y-5.577 I0.097 J-2.425
X-162.446 Y-6.628 I3.075 J-4.637
X-164.075 Y-9.013 I10.334 J-8.806
X-167.738 Y-17.159 I49.788 J-27.281
X-163.465 Y-74.805 I65.364 J-24.136
G1 X-163.2 Y-75.254
X-163.022 Y-75.513
G3 X-162.267 Y-75.905 I0.758 J0.538
G1 X-161.133
G3 X-161.078 Y-75.898 Z-2.688 I-0.011 J0.317 F1524
X-160.827 Y-75.593 Z-1.833 I-0.066 J0.311 F5080
G1 X-160.826 Y-75.576 Z-1.8
X-159.605 Y-5.424
Y-5.418 Z-1.811
G3 X-159.856 Y-5.102 Z-2.688 I-0.317 J0.006
X-159.911 Y-5.095 Z-2.8 I-0.066 J-0.311 F1524
G1 X-161.096 F5080
G3 X-162.472 Y-5.624 I0.156 J-2.46
X-163.693 Y-6.766 I3.327 J-4.782
X-165.297 Y-9.208 I11.124 J-9.053
X-168.878 Y-17.391 I51.456 J-27.394
X-164.447 Y-75.075 I66.501 J-23.904
G1 X-164.242 Y-75.39
G3 X-163.614 Y-75.879 I0.885 J0.488
G1 X-163.399 Y-75.905
X-162.267
G3 X-162.212 Y-75.898 Z-2.688 I-0.011 J0.317 F1524
X-161.961 Y-75.592 Z-1.832 I-0.066 J0.311 F5080
G1 Y-75.576 Z-1.8
X-160.79 Y-5.424
Y-5.418 Z-1.811
G3 X-161.041 Y-5.102 Z-2.688 I-0.317 J0.005
X-161.096 Y-5.095 Z-2.8 I-0.066 J-0.311 F1524
G1 X-162.205 F5080
G3 X-163.559 Y-5.596 I0.123 J-2.417
X-164.732 Y-6.667 I3.119 J-4.593
X-166.33 Y-9.074 I10.433 J-8.658
X-169.633 Y-16.566 I49.461 J-26.285
X-165.608 Y-75.01 I67.256 J-24.729
G1 X-165.395 Y-75.352
G3 X-164.925 Y-75.815 I1.022 J0.566
G1 X-164.732 Y-75.882
X-164.529 Y-75.905
X-163.399
G3 X-163.344 Y-75.898 Z-2.688 I-0.011 J0.317 F1524
X-163.093 Y-75.593 Z-1.833 I-0.066 J0.311 F5080
G1 Y-75.576 Z-1.8
X-161.898 Y-5.424
Y-5.418 Z-1.811
G3 X-162.149 Y-5.102 Z-2.688 I-0.317 J0.005
X-162.204 Y-5.095 Z-2.8 I-0.066 J-0.311 F1524
G1 X-163.347 F5080
G3 X-164.705 Y-5.61 I0.14 J-2.418
X-165.882 Y-6.705 I3.179 J-4.599
X-167.459 Y-9.12 I10.558 J-8.613
X-170.713 Y-16.634 I49.992 J-26.115
X-166.677 Y-75.108 I68.318 J-24.661
G1 X-166.485 Y-75.401
G3 X-165.866 Y-75.879 I0.87 J0.487
G1 X-165.65 Y-75.905
X-164.529
G3 X-164.474 Y-75.898 Z-2.688 I-0.011 J0.317 F1524
X-164.223 Y-75.593 Z-1.832 I-0.066 J0.311 F5080
G1 Y-75.576 Z-1.8
X-163.041 Y-5.424
Y-5.418 Z-1.811
G3 X-163.292 Y-5.102 Z-2.688 I-0.317 J0.005
X-163.347 Y-5.095 Z-2.8 I-0.066 J-0.311 F1524
G1 X-164.481 F5080
G3 X-165.841 Y-5.622 I0.153 J-2.415
X-167.016 Y-6.728 I3.205 J-4.579
X-168.579 Y-9.159 I10.652 J-8.569
X-171.787 Y-16.692 I50.457 J-25.934
X-168.075 Y-74.564 I69.383 J-24.604
G1 X-167.781 Y-75.11
X-167.593 Y-75.41
G3 X-166.981 Y-75.879 I0.86 J0.488
G1 X-166.765 Y-75.905
X-165.65
G3 X-165.595 Y-75.898 Z-2.688 I-0.011 J0.317 F1524
X-165.344 Y-75.592 Z-1.832 I-0.066 J0.311 F5080
G1 Y-75.576 Z-1.8
X-164.175 Y-5.424
X-164.174 Y-5.418 Z-1.811
G3 X-164.426 Y-5.102 Z-2.688 I-0.317 J0.005
X-164.481 Y-5.095 Z-2.8 I-0.066 J-0.311 F1524
G1 X-165.589 F5080
G3 X-166.937 Y-5.609 I0.138 J-2.388
X-168.084 Y-6.678 I3.1 J-4.472
X-169.639 Y-9.091 I10.256 J-8.321
X-172.818 Y-16.637 I50.038 J-25.52
X-169.188 Y-74.555 I70.396 J-24.661
G1 X-168.896 Y-75.102
X-168.709 Y-75.403
G3 X-168.094 Y-75.879 I0.865 J0.484
G1 X-167.877 Y-75.905
X-166.765
G3 X-166.71 Y-75.898 Z-2.688 I-0.011 J0.317 F1524
X-166.459 Y-75.593 Z-1.832 I-0.066 J0.311 F5080
G1 X-166.458 Y-75.576 Z-1.8
X-165.283 Y-5.424
Y-5.418 Z-1.811
G3 X-165.534 Y-5.102 Z-2.688 I-0.317 J0.005
X-165.589 Y-5.095 Z-2.8 I-0.066 J-0.311 F1524
G1 X-166.681 F5080
G3 X-168.009 Y-5.582 I0.108 J-2.349
X-169.496 Y-7.069 I3.449 J-4.935
X-171.009 Y-9.632 I12.958 J-9.378
X-174.528 Y-18.645 I56.855 J-27.398
X-170.326 Y-74.489 I72.081 J-22.656
G1 X-170.024 Y-75.069
X-169.834 Y-75.381
G3 X-169.205 Y-75.878 I0.887 J0.474
G1 X-168.987 Y-75.905
X-167.877
G3 X-167.822 Y-75.898 Z-2.688 I-0.011 J0.317 F1524
X-167.571 Y-75.593 Z-1.833 I-0.066 J0.311 F5080
G1 Y-75.576 Z-1.8
X-166.375 Y-5.424
Y-5.418 Z-1.811
G3 X-166.626 Y-5.102 Z-2.688 I-0.317 J0.005
X-166.681 Y-5.095 Z-2.8 I-0.066 J-0.311 F1524
G1 X-167.79 F5080
G3 X-169.114 Y-5.581 I0.107 J-2.34
X-170.577 Y-7.045 I3.432 J-4.895
X-172.085 Y-9.611 I12.612 J-9.138
X-175.565 Y-18.639 I57.019 J-27.163
X-171.412 Y-74.521 I73.098 J-22.663
G1 X-171.125 Y-75.073
X-170.939 Y-75.38
G3 X-170.311 Y-75.878 I0.886 J0.472
G1 X-170.092 Y-75.905
X-168.987
G3 X-168.932 Y-75.898 Z-2.688 I-0.011 J0.317 F1524
X-168.681 Y-75.593 Z-1.833 I-0.066 J0.311 F5080
G1 X-168.68 Y-75.576 Z-1.8
X-167.483 Y-5.424
Y-5.418 Z-1.811
G3 X-167.734 Y-5.102 Z-2.688 I-0.317 J0.005
X-167.79 Y-5.095 Z-2.8 I-0.066 J-0.311 F1524
G1 X-168.881 F5080
G3 X-170.194 Y-5.566 I0.091 J-2.317
X-171.625 Y-6.979 I3.305 J-4.778
X-173.133 Y-9.536 I11.959 J-8.78
X-176.363 Y-17.865 I55.477 J-26.304
X-172.522 Y-74.498 I73.891 J-23.436
G1 X-172.235 Y-75.057
X-172.048 Y-75.368
X-171.952 Y-75.508
G3 X-171.195 Y-75.905 I0.757 J0.524
G1 X-170.092
G3 X-170.037 Y-75.898 Z-2.688 I-0.011 J0.317 F1524
X-169.786 Y-75.593 Z-1.833 I-0.066 J0.311 F5080
G1 Y-75.576 Z-1.8
X-168.575 Y-5.424
Y-5.418 Z-1.811
G3 X-168.826 Y-5.102 Z-2.688 I-0.317 J0.005
X-168.881 Y-5.095 Z-2.8 I-0.066 J-0.311 F1524
G1 X-169.99 F5080
G3 X-171.314 Y-5.58 I0.101 J-2.324
X-172.736 Y-7.002 I3.354 J-4.78
X-174.232 Y-9.57 I12.027 J-8.725
X-177.419 Y-17.915 I55.952 J-26.146
X-173.579 Y-74.582 I74.927 J-23.387
G1 X-173.319 Y-75.081
X-173.139 Y-75.38
G3 X-172.513 Y-75.878 I0.884 J0.469
G1 X-172.293 Y-75.905
X-171.195
G3 X-171.14 Y-75.898 Z-2.688 I-0.011 J0.317 F1524
X-170.888 Y-75.593 Z-1.833 I-0.066 J0.311 F5080
G1 Y-75.576 Z-1.8
X-169.683 Y-5.424
Y-5.418 Z-1.811
G3 X-169.935 Y-5.102 Z-2.688 I-0.317 J0.005
X-169.99 Y-5.095 Z-2.8 I-0.066 J-0.311 F1524
G1 X-171.081 F5080
G3 X-172.395 Y-5.57 I0.091 J-2.306
X-173.798 Y-6.964 I3.273 J-4.7
X-175.283 Y-9.51 I11.648 J-8.498
X-178.22 Y-17.154 I54.115 J-25.179
X-174.678 Y-74.569 I75.725 J-24.146
G1 X-174.418 Y-75.073
X-174.239 Y-75.373
G3 X-173.609 Y-75.878 I0.889 J0.465
G1 X-173.389 Y-75.905
X-172.293
G3 X-172.238 Y-75.898 Z-2.688 I-0.011 J0.317 F1524
X-171.987 Y-75.593 Z-1.833 I-0.066 J0.311 F5080
G1 X-171.986 Y-75.576 Z-1.8
X-170.775 Y-5.424
Y-5.418 Z-1.811
G3 X-171.026 Y-5.102 Z-2.688 I-0.317 J0.005
X-171.081 Y-5.095 Z-2.8 I-0.066 J-0.311 F1524
G1 X-172.19 F5080
G3 X-173.514 Y-5.588 I0.107 J-2.314
X-174.916 Y-7.003 I3.344 J-4.717
X-176.388 Y-9.568 I11.843 J-8.501
X-179.284 Y-17.229 I54.735 J-25.07
X-175.721 Y-74.674 I76.769 J-24.072
G1 X-175.488 Y-75.112
X-175.318 Y-75.394
G3 X-174.701 Y-75.878 I0.869 J0.472
G1 X-174.481 Y-75.905
X-173.389
G3 X-173.334 Y-75.898 Z-2.688 I-0.011 J0.317 F1524
X-173.082 Y-75.593 Z-1.833 I-0.066 J0.311 F5080
G1 Y-75.576 Z-1.8
X-171.884 Y-5.424
Y-5.418 Z-1.811
G3 X-172.135 Y-5.102 Z-2.688 I-0.317 J0.005
X-172.19 Y-5.095 Z-2.8 I-0.066 J-0.311 F1524
G1 X-173.282 F5080
G3 X-174.597 Y-5.583 I0.105 J-2.301
X-175.988 Y-6.986 I3.3 J-4.665
X-177.45 Y-9.541 I11.627 J-8.347
X-180.318 Y-17.212 I54.606 J-24.786
X-176.802 Y-74.691 I77.78 J-24.09
G1 X-176.575 Y-75.115
X-176.407 Y-75.395
G3 X-175.791 Y-75.878 I0.867 J0.472
G1 X-175.571 Y-75.905
X-174.481
G3 X-174.426 Y-75.898 Z-2.688 I-0.011 J0.317 F1524
X-174.175 Y-75.593 Z-1.833 I-0.066 J0.311 F5080
G1 Y-75.576 Z-1.8
X-172.975 Y-5.424
Y-5.418 Z-1.811
G3 X-173.226 Y-5.102 Z-2.688 I-0.317 J0.005
X-173.282 Y-5.095 Z-2.8 I-0.066 J-0.311 F1524
G1 X-174.39 F5080
G3 X-175.715 Y-5.605 I0.128 J-2.313
X-177.115 Y-7.045 I3.406 J-4.709
X-178.564 Y-9.629 I11.961 J-8.405
X-181.388 Y-17.316 I55.491 J-24.75
X-178.131 Y-74.141 I78.842 J-23.987
G1 X-177.818 Y-74.817
X-177.617 Y-75.196
G3 X-177.082 Y-75.805 I1.317 J0.616
G1 X-176.876 Y-75.879
X-176.66 Y-75.905
X-175.571
G3 X-175.516 Y-75.898 Z-2.688 I-0.011 J0.317 F1524
X-175.265 Y-75.593 Z-1.832 I-0.066 J0.311 F5080
G1 Y-75.576 Z-1.8
X-174.084 Y-5.424
Y-5.418 Z-1.811
G3 X-174.335 Y-5.102 Z-2.688 I-0.317 J0.005
X-174.39 Y-5.095 Z-2.8 I-0.066 J-0.311 F1524
G1 X-175.482 F5080
G3 X-176.799 Y-5.604 I0.132 J-2.303
X-178.197 Y-7.043 I3.56 J-4.855
X-179.633 Y-9.627 I12.195 J-8.472
X-182.427 Y-17.325 I55.653 J-24.555
X-179.195 Y-74.179 I79.86 J-23.979
G1 X-178.883 Y-74.855
X-178.693 Y-75.211
G3 X-178.167 Y-75.806 I1.279 J0.602
G1 X-177.961 Y-75.879
X-177.745 Y-75.905
X-176.66
G3 X-176.604 Y-75.898 Z-2.688 I-0.011 J0.317 F1524
X-176.353 Y-75.593 Z-1.832 I-0.066 J0.311 F5080
G1 Y-75.576 Z-1.8
X-175.175 Y-5.424
Y-5.418 Z-1.811
G3 X-175.427 Y-5.102 Z-2.688 I-0.317 J0.005
X-175.482 Y-5.095 Z-2.8 I-0.066 J-0.311 F1524
G1 X-176.59 F5080
G3 X-177.921 Y-5.632 I0.163 J-2.322
X-179.336 Y-7.129 I3.724 J-4.937
X-180.754 Y-9.744 I12.768 J-8.618
X-183.503 Y-17.459 I56.847 J-24.597
X-180.207 Y-74.336 I80.921 J-23.845
X-179.573 Y-75.53 I6.267 J2.563
X-178.829 Y-75.905 I0.748 J0.559
G1 X-177.745
G3 X-177.69 Y-75.898 Z-2.688 I-0.011 J0.317 F1524
X-177.439 Y-75.592 Z-1.832 I-0.066 J0.311 F5080
G1 Y-75.576 Z-1.8
X-176.284 Y-5.424
Y-5.418 Z-1.811
G3 X-176.535 Y-5.102 Z-2.688 I-0.317 J0.005
X-176.59 Y-5.095 Z-2.8 I-0.066 J-0.311 F1524
G1 X-177.682 F5080
G3 X-179.013 Y-5.641 I0.174 J-2.321
X-180.436 Y-7.166 I3.777 J-4.952
X-182.131 Y-10.475 I14.818 J-9.679
X-185.146 Y-19.671 I64.882 J-26.366
X-181.249 Y-74.419 I82.517 J-21.638
X-180.652 Y-75.532 I6.096 J2.553
X-179.91 Y-75.905 I0.745 J0.559
G1 X-178.829
G3 X-178.774 Y-75.898 Z-2.688 I-0.011 J0.317 F1524
X-178.523 Y-75.592 Z-1.832 I-0.066 J0.311 F5080
G1 Y-75.576 Z-1.8
X-177.376 Y-5.424
Y-5.418 Z-1.811
G3 X-177.627 Y-5.102 Z-2.688 I-0.317 J0.005
X-177.682 Y-5.095 Z-2.8 I-0.066 J-0.311 F1524
G1 X-178.697 F5080
G3 X-179.99 Y-5.57 I0.092 J-2.247
X-181.343 Y-6.934 I3.321 J-4.65
X-182.759 Y-9.459 I11.03 J-7.842
X-185.279 Y-16.465 I52.319 J-22.775
X-182.449 Y-74.122 I82.685 J-24.841
G1 X-182.147 Y-74.803
X-181.961 Y-75.163
X-181.806 Y-75.421
G3 X-180.988 Y-75.905 I0.831 J0.47
G1 X-179.91
G3 X-179.855 Y-75.898 Z-2.688 I-0.011 J0.317 F1524
X-179.603 Y-75.593 Z-1.833 I-0.066 J0.311 F5080
G1 Y-75.576 Z-1.8
X-178.391 Y-5.424
Y-5.418 Z-1.811
G3 X-178.642 Y-5.102 Z-2.688 I-0.317 J0.005
X-178.697 Y-5.095 Z-2.8 I-0.066 J-0.311 F1524
G1 X-179.806 F5080
G3 X-181.122 Y-5.611 I0.133 J-2.277
X-182.49 Y-7.041 I3.361 J-4.584
X-183.887 Y-9.607 I11.432 J-7.89
X-186.363 Y-16.628 I53.678 J-22.876
X-183.447 Y-74.306 I83.756 J-24.678
X-182.815 Y-75.521 I6.309 J2.509
X-182.064 Y-75.905 I0.755 J0.551
G1 X-180.988
G3 X-180.933 Y-75.898 Z-2.688 I-0.011 J0.317 F1524
X-180.682 Y-75.593 Z-1.832 I-0.066 J0.311 F5080
G1 X-180.681 Y-75.576 Z-1.8
X-179.5 Y-5.424
Y-5.418 Z-1.811
G3 X-179.751 Y-5.102 Z-2.688 I-0.317 J0.005
X-179.806 Y-5.095 Z-2.8 I-0.066 J-0.311 F1524
G1 X-180.898 F5080
G3 X-182.215 Y-5.625 I0.155 J-2.289
X-183.585 Y-7.073 I3.595 J-4.773
X-184.973 Y-9.664 I11.99 J-8.09
X-187.62 Y-17.413 I56.412 J-23.601
X-184.48 Y-74.398 I84.97 J-23.896
X-183.886 Y-75.524 I6.193 J2.546
X-183.138 Y-75.905 I0.752 J0.553
G1 X-182.064
G3 X-182.009 Y-75.898 Z-2.688 I-0.011 J0.317 F1524
X-181.758 Y-75.592 Z-1.832 I-0.066 J0.311 F5080
G1 Y-75.576 Z-1.8
X-180.591 Y-5.424
Y-5.418 Z-1.811
G3 X-180.842 Y-5.102 Z-2.688 I-0.317 J0.005
X-180.898 Y-5.095 Z-2.8 I-0.066 J-0.311 F1524
G1 X-181.913 F5080
G3 X-183.414 Y-5.727 I0.126 J-2.398
X-184.506 Y-6.875 I3.312 J-4.245
X-185.906 Y-9.375 I10.309 J-7.415
X-188.365 Y-16.403 I51.212 J-21.862
X-185.654 Y-74.138 I85.725 J-24.907
G1 X-185.356 Y-74.821
X-185.179 Y-75.168
X-185.029 Y-75.419
G3 X-184.21 Y-75.905 I0.832 J0.467
G1 X-183.138
G3 X-183.083 Y-75.898 Z-2.688 I-0.011 J0.317 F1524
X-182.832 Y-75.593 Z-1.833 I-0.066 J0.311 F5080
G1 X-182.831 Y-75.576 Z-1.8
X-181.607 Y-5.424
Y-5.418 Z-1.811
G3 X-181.858 Y-5.102 Z-2.688 I-0.317 J0.006
X-181.913 Y-5.095 Z-2.8 I-0.066 J-0.311 F1524
G1 X-183.022 F5080
G3 X-184.326 Y-5.605 I0.129 J-2.254
X-185.678 Y-7.024 I3.323 J-4.522
X-187.049 Y-9.568 I11.031 J-7.584
X-189.459 Y-16.612 I53.175 J-22.127
X-186.633 Y-74.365 I86.81 J-24.698
X-186.032 Y-75.518 I6.297 J2.544
X-185.28 Y-75.905 I0.757 J0.548
G1 X-184.21
G3 X-184.155 Y-75.898 Z-2.688 I-0.011 J0.317 F1524
X-183.904 Y-75.593 Z-1.833 I-0.066 J0.311 F5080
G1 X-183.903 Y-75.576 Z-1.8
X-182.715 Y-5.424
Y-5.418 Z-1.811
G3 X-182.966 Y-5.102 Z-2.688 I-0.317 J0.005
X-183.022 Y-5.095 Z-2.8 I-0.066 J-0.311 F1524
G1 X-184.113 F5080
G3 X-185.431 Y-5.633 I0.161 J-2.279
X-186.782 Y-7.075 I3.579 J-4.707
X-188.145 Y-9.662 I11.779 J-7.859
X-190.521 Y-16.718 I54.201 J-22.175
X-187.919 Y-73.796 I87.866 J-24.593
G1 X-187.637 Y-74.486
X-187.411 Y-74.982
X-187.248 Y-75.283
G3 X-186.767 Y-75.805 I1.106 J0.536
G1 X-186.563 Y-75.879
X-186.347 Y-75.905
X-185.28
G3 X-185.225 Y-75.898 Z-2.688 I-0.011 J0.317 F1524
X-184.973 Y-75.592 Z-1.832 I-0.066 J0.311 F5080
G1 Y-75.576 Z-1.8
X-183.807 Y-5.424
Y-5.418 Z-1.811
G3 X-184.058 Y-5.102 Z-2.688 I-0.317 J0.005
X-184.113 Y-5.095 Z-2.8 I-0.066 J-0.311 F1524
G1 X-185.129 F5080
G3 X-186.626 Y-5.738 I0.139 J-2.392
X-187.709 Y-6.89 I3.32 J-4.202
X-189.087 Y-9.397 I10.237 J-7.261
X-191.273 Y-15.731 I48.727 J-20.361
X-188.807 Y-74.252 I88.608 J-25.579
X-188.172 Y-75.511 I6.514 J2.501
X-187.413 Y-75.905 I0.763 J0.541
G1 X-186.347
G3 X-186.292 Y-75.898 Z-2.688 I-0.011 J0.317 F1524
X-186.041 Y-75.593 Z-1.833 I-0.066 J0.311 F5080
G1 Y-75.576 Z-1.8
X-184.822 Y-5.424
Y-5.418 Z-1.811
G3 X-185.074 Y-5.102 Z-2.688 I-0.317 J0.006
X-185.129 Y-5.095 Z-2.8 I-0.066 J-0.311 F1524
G1 X-186.237 F5080
G3 X-187.542 Y-5.621 I0.148 J-2.251
X-188.894 Y-7.062 I3.54 J-4.673
X-190.236 Y-9.62 I11.383 J-7.605
X-192.574 Y-16.689 I53.696 J-21.676
X-190.037 Y-73.811 I89.905 J-24.625
G1 X-189.758 Y-74.502
G3 X-189.223 Y-75.523 I4.546 J1.727
X-188.477 Y-75.905 I0.746 J0.54
G1 X-187.413
G3 X-187.358 Y-75.898 Z-2.688 I-0.011 J0.317 F1524
X-187.107 Y-75.593 Z-1.832 I-0.066 J0.311 F5080
G1 Y-75.576 Z-1.8
X-185.931 Y-5.424
Y-5.418 Z-1.811
G3 X-186.182 Y-5.102 Z-2.688 I-0.317 J0.005
X-186.237 Y-5.095 Z-2.8 I-0.066 J-0.311 F1524
G1 X-187.253 F5080
G3 X-188.744 Y-5.734 I0.135 J-2.377
X-189.817 Y-6.876 I3.283 J-4.158
X-191.184 Y-9.374 I10.008 J-7.102
X-193.336 Y-15.72 I48.259 J-19.896
X-191.178 Y-73.587 I90.664 J-25.593
G1 X-190.909 Y-74.282
X-190.648 Y-74.889
X-190.486 Y-75.204
G3 X-189.969 Y-75.802 I1.263 J0.57
G1 X-189.76 Y-75.878
X-189.54 Y-75.905
X-188.477
G3 X-188.422 Y-75.898 Z-2.688 I-0.011 J0.317 F1524
X-188.171 Y-75.593 Z-1.833 I-0.066 J0.311 F5080
G1 Y-75.576 Z-1.8
X-186.946 Y-5.424
Y-5.418 Z-1.811
G3 X-187.198 Y-5.102 Z-2.688 I-0.317 J0.006
X-187.253 Y-5.095 Z-2.8 I-0.066 J-0.311 F1524
G1 X-188.344 F5080
G3 X-189.642 Y-5.606 I0.129 J-2.23
X-190.962 Y-6.996 I3.417 J-4.571
X-192.3 Y-9.527 I10.858 J-7.356
X-194.609 Y-16.605 I52.465 J-21.031
X-192.169 Y-73.769 I91.912 J-24.711
G1 X-191.894 Y-74.461
X-191.672 Y-74.96
X-191.512 Y-75.264
G3 X-191.024 Y-75.804 I1.141 J0.54
G1 X-190.818 Y-75.878
X-190.601 Y-75.905
X-189.54
G3 X-189.485 Y-75.898 Z-2.688 I-0.011 J0.317 F1524
X-189.234 Y-75.593 Z-1.833 I-0.066 J0.311 F5080
G1 Y-75.576 Z-1.8
X-188.038 Y-5.424
Y-5.418 Z-1.811
G3 X-188.289 Y-5.102 Z-2.688 I-0.317 J0.005
X-188.344 Y-5.095 Z-2.8 I-0.066 J-0.311 F1524
G1 X-189.36 F5080
G3 X-190.84 Y-5.717 I0.117 J-2.353
X-191.896 Y-6.831 I3.203 J-4.094
X-193.259 Y-9.311 I9.653 J-6.917
X-195.383 Y-15.666 I47.227 J-19.318
X-193.295 Y-73.574 I92.676 J-25.65
G1 X-193.029 Y-74.27
X-192.774 Y-74.872
X-192.613 Y-75.19
G3 X-192.091 Y-75.801 I1.288 J0.572
G1 X-191.881 Y-75.878
X-191.66 Y-75.905
X-190.601
G3 X-190.546 Y-75.898 Z-2.688 I-0.011 J0.317 F1524
X-190.294 Y-75.593 Z-1.833 I-0.066 J0.311 F5080
G1 Y-75.576 Z-1.8
X-189.054 Y-5.424
X-189.053 Y-5.418 Z-1.81
G3 X-189.305 Y-5.102 Z-2.688 I-0.317 J0.006
X-189.36 Y-5.095 Z-2.8 I-0.066 J-0.311 F1524
G1 X-190.468 F5080
G3 X-191.763 Y-5.611 I0.137 J-2.227
X-193.09 Y-7.022 I3.459 J-4.583
X-194.408 Y-9.551 I10.833 J-7.255
X-196.484 Y-15.923 I50.015 J-19.817
X-194.254 Y-73.844 I93.785 J-25.393
G1 X-193.978 Y-74.536
G3 X-193.466 Y-75.521 I4.418 J1.673
X-192.718 Y-75.905 I0.748 J0.538
G1 X-191.66
G3 X-191.605 Y-75.898 Z-2.688 I-0.011 J0.317 F1524
X-191.354 Y-75.593 Z-1.833 I-0.066 J0.311 F5080
G1 X-191.353 Y-75.576 Z-1.8
X-190.162 Y-5.424
Y-5.418 Z-1.811
G3 X-190.413 Y-5.102 Z-2.688 I-0.317 J0.005
X-190.468 Y-5.095 Z-2.8 I-0.066 J-0.311 F1524
G1 X-191.484 F5080
G3 X-192.965 Y-5.729 I0.131 J-2.356
X-194.019 Y-6.852 I3.226 J-4.081
X-195.368 Y-9.341 I9.679 J-6.857
X-197.454 Y-15.708 I47.34 J-19.036
X-195.375 Y-73.652 I94.729 J-25.61
G1 X-195.109 Y-74.348
X-194.868 Y-74.91
X-194.714 Y-75.214
G3 X-194.204 Y-75.801 I1.234 J0.556
G1 X-193.995 Y-75.878
X-193.775 Y-75.905
X-192.718
G3 X-192.663 Y-75.898 Z-2.688 I-0.011 J0.317 F1524
X-192.412 Y-75.593 Z-1.833 I-0.066 J0.311 F5080
G1 X-192.411 Y-75.576 Z-1.8
X-191.178 Y-5.424
X-191.177 Y-5.418 Z-1.811
G3 X-191.429 Y-5.102 Z-2.688 I-0.317 J0.006
X-191.484 Y-5.095 Z-2.8 I-0.066 J-0.311 F1524
G1 X-192.575 F5080
G3 X-193.868 Y-5.609 I0.132 J-2.216
X-195.175 Y-6.996 I3.409 J-4.524
X-196.487 Y-9.518 I10.612 J-7.123
X-198.534 Y-15.899 I49.348 J-19.349
X-196.356 Y-73.857 I95.804 J-25.419
G1 X-196.081 Y-74.55
G3 X-195.578 Y-75.52 I4.356 J1.642
X-194.83 Y-75.905 I0.749 J0.536
G1 X-193.775
G3 X-193.719 Y-75.898 Z-2.688 I-0.011 J0.317 F1524
X-193.468 Y-75.593 Z-1.833 I-0.066 J0.311 F5080
G1 Y-75.576 Z-1.8
X-192.269 Y-5.424
Y-5.418 Z-1.811
G3 X-192.52 Y-5.102 Z-2.688 I-0.317 J0.005
X-192.575 Y-5.095 Z-2.8 I-0.066 J-0.311 F1524
G1 X-193.591 F5080
G3 X-195.068 Y-5.726 I0.129 J-2.346
X-196.447 Y-7.333 I3.959 J-4.795
X-197.729 Y-10.014 I12.796 J-7.763
X-199.881 Y-17.142 I57.658 J-21.302
X-197.469 Y-73.679 I97.177 J-24.173
G1 X-197.203 Y-74.375
X-196.972 Y-74.917
X-196.82 Y-75.217
G3 X-196.313 Y-75.801 I1.224 J0.551
G1 X-196.104 Y-75.878
X-195.883 Y-75.905
X-194.83
G3 X-194.774 Y-75.898 Z-2.688 I-0.011 J0.317 F1524
X-194.523 Y-75.593 Z-1.833 I-0.066 J0.311 F5080
G1 Y-75.576 Z-1.8
X-193.285 Y-5.424
Y-5.418 Z-1.81
G3 X-193.536 Y-5.102 Z-2.688 I-0.317 J0.006
X-193.591 Y-5.095 Z-2.8 I-0.066 J-0.311 F1524
G1 X-194.699 F5080
G3 X-195.994 Y-5.626 I0.155 J-2.223
X-197.313 Y-7.054 I3.504 J-4.56
X-198.608 Y-9.597 I10.832 J-7.115
X-200.613 Y-15.991 I50.087 J-19.218
X-198.655 Y-73.275 I97.883 J-25.33
G1 X-198.404 Y-73.977
X-198.136 Y-74.672
G3 X-197.68 Y-75.529 I4.142 J1.654
X-196.938 Y-75.905 I0.742 J0.545
G1 X-195.883
G3 X-195.828 Y-75.898 Z-2.688 I-0.011 J0.317 F1524
X-195.577 Y-75.593 Z-1.832 I-0.066 J0.311 F5080
G1 Y-75.576 Z-1.8
X-194.393 Y-5.424
Y-5.418 Z-1.811
G3 X-194.644 Y-5.102 Z-2.688 I-0.317 J0.005
X-194.699 Y-5.095 Z-2.8 I-0.066 J-0.311 F1524
G1 X-195.715 F5080
G3 X-196.988 Y-5.586 I0.11 J-2.184
X-198.251 Y-6.897 I3.215 J-4.362
X-199.573 Y-9.405 I9.932 J-6.838
X-201.588 Y-15.795 I47.633 J-18.53
X-199.524 Y-73.806 I98.811 J-25.526
G1 X-199.256 Y-74.501
X-199.047 Y-74.979
X-198.9 Y-75.261
X-198.779 Y-75.461
G3 X-197.992 Y-75.905 I0.787 J0.478
G1 X-196.938
G3 X-196.883 Y-75.898 Z-2.688 I-0.011 J0.317 F1524
X-196.632 Y-75.593 Z-1.833 I-0.066 J0.311 F5080
G1 Y-75.576 Z-1.8
X-195.409 Y-5.424
Y-5.418 Z-1.811
G3 X-195.66 Y-5.102 Z-2.688 I-0.317 J0.006
X-195.715 Y-5.095 Z-2.8 I-0.066 J-0.311 F1524
G1 X-196.73 F5080
G3 X-198.195 Y-5.709 I0.112 J-2.32
X-199.552 Y-7.275 I3.859 J-4.715
X-200.822 Y-9.931 I12.252 J-7.493
X-202.934 Y-17.071 I56.517 J-20.596
X-200.622 Y-73.656 I100.194 J-24.246
G1 X-200.361 Y-74.354
X-200.142 Y-74.879
X-199.978 Y-75.209
G3 X-199.472 Y-75.799 I1.242 J0.554
G1 X-199.261 Y-75.877
X-199.038 Y-75.905
X-197.992
G3 X-197.937 Y-75.898 Z-2.688 I-0.011 J0.317 F1524
X-197.685 Y-75.593 Z-1.833 I-0.066 J0.311 F5080
G1 Y-75.576 Z-1.8
X-196.424 Y-5.424
Y-5.419 Z-1.81
G3 X-196.675 Y-5.102 Z-2.688 I-0.317 J0.006
X-196.73 Y-5.095 Z-2.8 I-0.066 J-0.311 F1524
G1 X-197.822 F5080
G3 X-199.105 Y-5.601 I0.124 J-2.195
X-200.389 Y-6.963 I3.328 J-4.426
X-201.678 Y-9.462 I10.154 J-6.82
X-203.657 Y-15.864 I48.02 J-18.345
X-201.818 Y-73.196 I100.87 J-25.46
G1 X-201.574 Y-73.9
X-201.313 Y-74.598
G3 X-200.837 Y-75.519 I4.198 J1.59
X-200.087 Y-75.905 I0.749 J0.535
G1 X-199.038
G3 X-198.983 Y-75.898 Z-2.688 I-0.011 J0.317 F1524
X-198.732 Y-75.593 Z-1.833 I-0.066 J0.311 F5080
G1 X-198.731 Y-75.576 Z-1.8
X-197.516 Y-5.424
Y-5.418 Z-1.811
G3 X-197.767 Y-5.102 Z-2.688 I-0.317 J0.006
X-197.822 Y-5.095 Z-2.8 I-0.066 J-0.311 F1524
G1 X-198.838 F5080
G3 X-200.306 Y-5.725 I0.128 J-2.328
X-201.659 Y-7.306 I3.897 J-4.702
X-202.916 Y-9.972 I12.345 J-7.45
X-204.99 Y-17.122 I56.81 J-20.356
X-202.917 Y-73.026 I102.248 J-24.198
X-202.071 Y-75.226 I15.096 J4.537
X-201.566 Y-75.801 I1.266 J0.605
G1 X-201.356 Y-75.878
X-201.135 Y-75.905
X-200.087
G3 X-200.032 Y-75.898 Z-2.688 I-0.011 J0.317 F1524
X-199.781 Y-75.593 Z-1.833 I-0.066 J0.311 F5080
G1 Y-75.576 Z-1.8
X-198.531 Y-5.424
Y-5.418 Z-1.81
G3 X-198.782 Y-5.102 Z-2.688 I-0.317 J0.006
X-198.837 Y-5.095 Z-2.8 I-0.066 J-0.311 F1524
G1 X-199.904 F5080
G3 X-201.183 Y-5.592 I0.111 J-2.179
X-202.442 Y-6.914 I3.245 J-4.352
X-203.733 Y-9.404 I9.861 J-6.695
X-205.692 Y-15.812 I46.964 J-17.859
X-207.493 Y-57.957 I102.696 J-25.499
X-203.68 Y-73.881 I102.406 J16.099
G1 X-203.413 Y-74.577
G3 X-202.933 Y-75.515 I4.21 J1.563
X-202.181 Y-75.905 I0.752 J0.531
G1 X-201.135
G3 X-201.08 Y-75.898 Z-2.688 I-0.011 J0.317 F1524
X-200.828 Y-75.593 Z-1.833 I-0.066 J0.311 F5080
G1 Y-75.576 Z-1.8
X-199.598 Y-5.424
Y-5.418 Z-1.811
G3 X-199.849 Y-5.102 Z-2.688 I-0.317 J0.006
X-199.904 Y-5.095 Z-2.8 I-0.066 J-0.311 F1524
G1 X-200.962 F5080
G3 X-202.248 Y-5.608 I0.128 J-2.192
X-203.499 Y-6.935 I3.279 J-4.343
X-204.788 Y-9.448 I10.043 J-6.741
X-206.728 Y-15.861 I47.33 J-17.815
X-208.248 Y-59.484 I103.728 J-25.453
X-204.932 Y-73.235 I103.373 J17.65
G1 X-204.691 Y-73.94
X-204.433 Y-74.636
G3 X-203.976 Y-75.519 I4.098 J1.562
X-203.227 Y-75.905 I0.749 J0.536
G1 X-202.181
G3 X-202.126 Y-75.898 Z-2.688 I-0.011 J0.317 F1524
X-201.875 Y-75.593 Z-1.833 I-0.066 J0.311 F5080
G1 X-201.874 Y-75.576 Z-1.8
X-200.655 Y-5.424
Y-5.418 Z-1.811
G3 X-200.906 Y-5.102 Z-2.688 I-0.317 J0.006
X-200.962 Y-5.095 Z-2.8 I-0.066 J-0.311 F1524
G1 X-201.977 F5080
G3 X-203.443 Y-5.73 I0.135 J-2.324
X-204.787 Y-7.314 I3.909 J-4.678
X-206.03 Y-9.984 I12.307 J-7.352
X-208.058 Y-17.148 I56.575 J-19.884
X-206.021 Y-73.089 I105.246 J-24.175
X-205.196 Y-75.245 I14.365 J4.26
X-204.701 Y-75.801 I1.228 J0.595
G1 X-204.491 Y-75.878
X-204.27 Y-75.905
X-203.227
G3 X-203.171 Y-75.898 Z-2.688 I-0.011 J0.317 F1524
X-202.92 Y-75.593 Z-1.833 I-0.066 J0.311 F5080
G1 Y-75.576 Z-1.8
X-201.671 Y-5.424
Y-5.418 Z-1.81
G3 X-201.922 Y-5.102 Z-2.688 I-0.317 J0.006
X-201.977 Y-5.095 Z-2.8 I-0.066 J-0.311 F1524
G1 X-203.069 F5080
G3 X-204.354 Y-5.624 I0.15 J-2.194
X-205.637 Y-7.02 I3.421 J-4.43
X-206.899 Y-9.544 I10.335 J-6.745
X-208.8 Y-15.969 I48.283 J-17.777
X-210.368 Y-58.87 I105.753 J-25.344
X-206.973 Y-73.367 I105.131 J16.976
G1 X-206.73 Y-74.071
X-206.493 Y-74.701
G3 X-206.061 Y-75.523 I3.976 J1.562
X-205.315 Y-75.905 I0.746 J0.54
G1 X-204.27
G3 X-204.215 Y-75.898 Z-2.688 I-0.011 J0.317 F1524
X-203.964 Y-75.593 Z-1.833 I-0.066 J0.311 F5080
G1 Y-75.576 Z-1.8
X-202.762 Y-5.424
Y-5.418 Z-1.811
G3 X-203.013 Y-5.102 Z-2.688 I-0.317 J0.005
X-203.069 Y-5.095 Z-2.8 I-0.066 J-0.311 F1524
G1 X-204.084 F5080
G3 X-205.354 Y-5.595 I0.119 J-2.168
X-206.589 Y-6.894 I3.2 J-4.277
X-207.874 Y-9.388 I9.691 J-6.571
X-209.606 Y-15.087 I43.289 J-16.275
X-212.731 Y-44.631 I105.655 J-26.112
X-208.058 Y-73.224 I109.354 J3.195
G1 X-207.819 Y-73.93
X-207.568 Y-74.618
G3 X-207.109 Y-75.515 I4.093 J1.527
X-206.357 Y-75.905 I0.752 J0.531
G1 X-205.315
G3 X-205.26 Y-75.898 Z-2.688 I-0.011 J0.317 F1524
X-205.009 Y-75.593 Z-1.833 I-0.066 J0.311 F5080
G1 Y-75.576 Z-1.8
X-203.778 Y-5.424
Y-5.418 Z-1.811
G3 X-204.029 Y-5.102 Z-2.688 I-0.317 J0.006
X-204.084 Y-5.095 Z-2.8 I-0.066 J-0.311 F1524
G1 X-205.1 F5080
G3 X-206.562 Y-5.729 I0.133 J-2.313
X-207.894 Y-7.301 I3.878 J-4.637
X-209.126 Y-9.964 I12.093 J-7.207
X-211.114 Y-17.139 I56.037 J-19.388
X-209.13 Y-73.116 I108.247 J-24.186
G1 X-208.894 Y-73.823
X-208.645 Y-74.525
G3 X-208.157 Y-75.505 I4.255 J1.506
X-207.398 Y-75.905 I0.759 J0.521
G1 X-206.357
G3 X-206.302 Y-75.898 Z-2.688 I-0.011 J0.317 F1524
X-206.051 Y-75.593 Z-1.833 I-0.066 J0.311 F5080
G1 Y-75.576 Z-1.8
X-204.793 Y-5.424
Y-5.418 Z-1.81
G3 X-205.044 Y-5.102 Z-2.688 I-0.317 J0.006
X-205.1 Y-5.095 Z-2.8 I-0.066 J-0.311 F1524
G1 X-206.166 F5080
G3 X-207.443 Y-5.603 I0.123 J-2.171
X-208.692 Y-6.935 I3.264 J-4.312
X-209.955 Y-9.423 I9.786 J-6.531
X-211.663 Y-15.129 I43.367 J-16.085
X-214.755 Y-43.194 I107.363 J-26.032
X-210.114 Y-73.29 I111.309 J1.757
G1 X-209.874 Y-73.996
X-209.637 Y-74.644
G3 X-209.19 Y-75.516 I4.025 J1.516
X-208.438 Y-75.905 I0.752 J0.532
G1 X-207.398
G3 X-207.343 Y-75.898 Z-2.688 I-0.011 J0.317 F1524
X-207.092 Y-75.593 Z-1.833 I-0.066 J0.311 F5080
G1 X-207.091 Y-75.576 Z-1.8
X-205.86 Y-5.424
Y-5.418 Z-1.811
G3 X-206.111 Y-5.102 Z-2.688 I-0.317 J0.006
X-206.166 Y-5.095 Z-2.8 I-0.066 J-0.311 F1524
G1 X-207.224 F5080
G3 X-208.51 Y-5.624 I0.147 J-2.187
X-209.754 Y-6.971 I3.329 J-4.323
X-211.015 Y-9.496 I10.063 J-6.606
X-212.875 Y-15.933 I47.037 J-17.075
X-215.688 Y-45.513 I108.913 J-25.283
X-211.336 Y-72.665 I112.26 J4.071
X-210.498 Y-75.058 I19.376 J5.446
G1 X-210.35 Y-75.323
G3 X-209.478 Y-75.907 I0.904 J0.407
G1 X-208.438 Y-75.905
G3 X-208.383 Y-75.898 Z-2.688 I-0.011 J0.317 F1524
X-208.132 Y-75.593 Z-1.833 I-0.066 J0.311 F5080
G1 Y-75.576 Z-1.8
X-206.917 Y-5.424
Y-5.418 Z-1.811
G3 X-207.168 Y-5.102 Z-2.688 I-0.317 J0.005
X-207.224 Y-5.095 Z-2.8 I-0.066 J-0.311 F1524
G1 X-208.239 F5080
G3 X-209.512 Y-5.599 I0.12 J-2.165
X-210.728 Y-6.883 I3.181 J-4.228
X-211.997 Y-9.363 I9.568 J-6.46
X-213.692 Y-15.073 I42.333 J-15.677
X-216.754 Y-40.164 I108.596 J-25.985
X-212.197 Y-73.257 I113.35 J-1.252
G1 X-211.959 Y-73.964
X-211.719 Y-74.63
G3 X-211.27 Y-75.513 I4.034 J1.496
X-210.516 Y-75.905 I0.754 J0.529
G1 X-209.478
G3 X-209.423 Y-75.898 Z-2.688 I-0.011 J0.317 F1524
X-209.172 Y-75.593 Z-1.833 I-0.066 J0.311 F5080
G1 Y-75.576 Z-1.8
X-207.933 Y-5.424
Y-5.418 Z-1.81
G3 X-208.184 Y-5.102 Z-2.688 I-0.317 J0.006
X-208.239 Y-5.095 Z-2.8 I-0.066 J-0.311 F1524
G1 X-209.255 F5080
G3 X-210.714 Y-5.732 I0.136 J-2.304
X-212.033 Y-7.297 I3.861 J-4.591
X-213.25 Y-9.958 I11.936 J-7.067
X-215.027 Y-16.419 I52.489 J-17.916
X-214.763 Y-67.398 I112.018 J-24.909
X-213.03 Y-73.875 I84.223 J19.064
G1 X-212.777 Y-74.576
G3 X-212.311 Y-75.507 I4.123 J1.482
X-211.553 Y-75.905 I0.758 J0.523
G1 X-210.516
G3 X-210.461 Y-75.898 Z-2.688 I-0.011 J0.317 F1524
X-210.21 Y-75.593 Z-1.833 I-0.066 J0.311 F5080
G1 X-210.209 Y-75.576 Z-1.8
X-208.948 Y-5.424
Y-5.419 Z-1.81
G3 X-209.199 Y-5.102 Z-2.688 I-0.317 J0.006
X-209.255 Y-5.095 Z-2.8 I-0.066 J-0.311 F1524
G1 X-210.27 F5080
G3 X-211.723 Y-5.711 I0.11 J-2.282
X-213.022 Y-7.226 I3.739 J-4.519
X-214.244 Y-9.859 I11.454 J-6.919
X-216.023 Y-16.32 I51.101 J-17.545
X-217.779 Y-56.311 I112.675 J-24.981
X-214.317 Y-73.077 I112.383 J14.464
G1 X-214.088 Y-73.787
X-213.845 Y-74.491
G3 X-213.354 Y-75.498 I4.298 J1.476
X-212.59 Y-75.905 I0.764 J0.514
G1 X-211.553
G3 X-211.498 Y-75.898 Z-2.688 I-0.011 J0.317 F1524
X-211.247 Y-75.593 Z-1.833 I-0.066 J0.311 F5080
G1 Y-75.576 Z-1.8
X-209.964 Y-5.424
Y-5.419 Z-1.81
G3 X-210.215 Y-5.102 Z-2.688 I-0.317 J0.006
X-210.27 Y-5.095 Z-2.8 I-0.066 J-0.311 F1524
G1 X-211.362 F5080
G3 X-212.635 Y-5.612 I0.138 J-2.167
X-213.881 Y-6.96 I3.289 J-4.292
X-215.126 Y-9.458 I9.764 J-6.425
X-216.78 Y-15.18 I43.084 J-15.554
X-219.731 Y-39.541 I111.185 J-25.828
X-215.467 Y-72.68 I116.39 J-1.865
X-214.646 Y-75.058 I18.593 J5.086
G1 X-214.499 Y-75.323
G3 X-213.627 Y-75.907 I0.904 J0.406
G1 X-212.59 Y-75.905
G3 X-212.534 Y-75.898 Z-2.688 I-0.011 J0.317 F1524
X-212.283 Y-75.593 Z-1.833 I-0.066 J0.311 F5080
G1 Y-75.576 Z-1.8
X-211.055 Y-5.424
Y-5.418 Z-1.811
G3 X-211.306 Y-5.102 Z-2.688 I-0.317 J0.006
X-211.362 Y-5.095 Z-2.8 I-0.066 J-0.311 F1524
G1 X-212.377 F5080
G3 X-213.645 Y-5.595 I0.116 J-2.153
X-215.157 Y-7.348 I3.412 J-4.471
X-216.361 Y-10.022 I11.594 J-6.826
X-218.098 Y-16.494 I52.76 J-17.632
X-219.453 Y-58.71 I114.805 J-24.815
X-216.328 Y-73.269 I112.213 J16.476
G1 X-216.096 Y-73.977
X-215.864 Y-74.625
G3 X-215.418 Y-75.51 I4.013 J1.47
X-214.662 Y-75.905 I0.755 J0.526
G1 X-213.627
G3 X-213.572 Y-75.898 Z-2.688 I-0.011 J0.317 F1524
X-213.321 Y-75.593 Z-1.833 I-0.066 J0.311 F5080
G1 Y-75.576 Z-1.8
X-212.071 Y-5.424
Y-5.418 Z-1.81
G3 X-212.322 Y-5.102 Z-2.688 I-0.317 J0.006
X-212.377 Y-5.095 Z-2.8 I-0.066 J-0.311 F1524
G1 X-213.393 F5080
G3 X-214.851 Y-5.733 I0.137 J-2.299
X-216.156 Y-7.287 I3.836 J-4.548
X-217.361 Y-9.941 I11.721 J-6.919
X-219.097 Y-16.414 I51.766 J-17.359
X-221.115 Y-53.457 I115.484 J-24.868
X-217.382 Y-73.199 I115.998 J11.713
G1 X-217.151 Y-73.908
X-216.913 Y-74.586
G3 X-216.455 Y-75.505 I4.074 J1.458
X-215.696 Y-75.905 I0.759 J0.522
G1 X-214.662
G3 X-214.607 Y-75.898 Z-2.688 I-0.011 J0.317 F1524
X-214.356 Y-75.593 Z-1.833 I-0.066 J0.311 F5080
G1 Y-75.576 Z-1.8
X-213.086 Y-5.424
Y-5.419 Z-1.81
G3 X-213.337 Y-5.102 Z-2.688 I-0.317 J0.006
X-213.393 Y-5.095 Z-2.8 I-0.066 J-0.311 F1524
G1 X-214.408 F5080
G3 X-215.859 Y-5.715 I0.113 J-2.277
X-217.148 Y-7.225 I3.731 J-4.487
X-218.358 Y-9.855 I11.31 J-6.796
X-220.095 Y-16.327 I50.514 J-17.03
X-222.535 Y-48.174 I115.946 J-24.899
X-218.635 Y-72.405 I118.649 J6.665
X-217.792 Y-74.965 I22.167 J5.88
G1 X-217.646 Y-75.246
G3 X-217.162 Y-75.799 I1.144 J0.514
G1 X-216.952 Y-75.877
X-216.73 Y-75.905
X-215.696
G3 X-215.641 Y-75.898 Z-2.688 I-0.011 J0.317 F1524
X-215.39 Y-75.593 Z-1.833 I-0.066 J0.311 F5080
G1 Y-75.576 Z-1.8
X-214.102 Y-5.424
Y-5.419 Z-1.81
G3 X-214.353 Y-5.102 Z-2.688 I-0.317 J0.006
X-214.408 Y-5.095 Z-2.8 I-0.066 J-0.311 F1524
G1 X-215.475 F5080
G3 X-216.74 Y-5.594 I0.114 J-2.144
X-217.967 Y-6.902 I3.186 J-4.218
X-219.191 Y-9.33 I9.354 J-6.24
X-220.828 Y-15.056 I40.863 J-14.777
X-223.596 Y-35.705 I113.021 J-25.658
X-219.615 Y-72.596 I120.326 J-5.675
X-218.803 Y-75.013 I20.026 J5.379
G1 X-218.655 Y-75.289
G3 X-217.763 Y-75.908 I0.937 J0.397
G1 X-216.73 Y-75.905
G3 X-216.675 Y-75.898 Z-2.688 I-0.011 J0.317 F1524
X-216.423 Y-75.593 Z-1.833 I-0.066 J0.311 F5080
G1 Y-75.576 Z-1.8
X-215.168 Y-5.424
Y-5.418 Z-1.81
G3 X-215.42 Y-5.102 Z-2.688 I-0.317 J0.006
X-215.475 Y-5.095 Z-2.8 I-0.066 J-0.311 F1524
G1 X-216.532 F5080
G3 X-217.81 Y-5.624 I0.146 J-2.164
X-219.039 Y-6.965 I3.294 J-4.253
X-220.267 Y-9.459 I9.747 J-6.345
X-221.878 Y-15.193 I42.31 J-14.982
X-224.63 Y-36.593 I114.444 J-25.593
X-220.605 Y-72.74 I121.254 J-4.799
X-219.808 Y-75.07 I18.096 J4.889
G1 X-219.665 Y-75.33
G3 X-218.797 Y-75.907 I0.896 J0.405
G1 X-217.763 Y-75.905
G3 X-217.708 Y-75.898 Z-2.688 I-0.011 J0.317 F1524
X-217.457 Y-75.593 Z-1.833 I-0.066 J0.311 F5080
G1 X-217.456 Y-75.576 Z-1.8
X-216.226 Y-5.424
Y-5.418 Z-1.811
G3 X-216.477 Y-5.102 Z-2.688 I-0.317 J0.006
X-216.532 Y-5.095 Z-2.8 I-0.066 J-0.311 F1524
G1 X-217.548 F5080
G3 X-218.819 Y-5.607 I0.129 J-2.153
X-220.017 Y-6.888 I3.178 J-4.173
X-221.254 Y-9.355 I9.427 J-6.274
X-222.871 Y-15.087 I40.929 J-14.641
X-225.554 Y-34.999 I114.303 J-25.538
X-221.661 Y-72.644 I122.248 J-6.379
X-220.854 Y-75.04 I19.193 J5.128
G1 X-220.711 Y-75.304
G3 X-219.828 Y-75.908 I0.92 J0.398
G1 X-218.797 Y-75.905
G3 X-218.742 Y-75.898 Z-2.688 I-0.011 J0.317 F1524
X-218.491 Y-75.593 Z-1.833 I-0.066 J0.311 F5080
G1 X-218.49 Y-75.576 Z-1.8
X-217.241 Y-5.424
Y-5.418 Z-1.81
G3 X-217.492 Y-5.102 Z-2.688 I-0.317 J0.006
X-217.547 Y-5.095 Z-2.8 I-0.066 J-0.311 F1524
G1 X-218.563 F5080
G3 X-220.022 Y-5.748 I0.154 J-2.302
X-221.322 Y-7.321 I3.887 J-4.539
X-222.508 Y-9.987 I11.799 J-6.841
X-224.191 Y-16.474 I51.616 J-16.855
X-226.553 Y-47.591 I119.705 J-24.736
X-222.703 Y-72.583 I122.324 J6.049
G1 X-222.493 Y-73.298
X-222.274 Y-74.01
X-222.053 Y-74.635
G3 X-221.616 Y-75.507 I3.951 J1.434
X-220.859 Y-75.905 I0.758 J0.524
G1 X-219.828
G3 X-219.773 Y-75.898 Z-2.688 I-0.011 J0.317 F1524
X-219.522 Y-75.593 Z-1.833 I-0.066 J0.311 F5080
G1 Y-75.576 Z-1.8
X-218.257 Y-5.424
Y-5.419 Z-1.81
G3 X-218.508 Y-5.102 Z-2.688 I-0.317 J0.006
X-218.563 Y-5.095 Z-2.8 I-0.066 J-0.311 F1524
G1 X-219.578 F5080
G3 X-221.032 Y-5.734 I0.136 J-2.284
X-222.32 Y-7.272 I3.805 J-4.492
X-223.509 Y-9.92 I11.469 J-6.743
X-225.192 Y-16.406 I50.614 J-16.59
X-227.665 Y-44.547 I120.087 J-24.736
X-223.747 Y-72.524 I123.732 J3.066
X-222.935 Y-74.995 I20.462 J5.354
G1 X-222.791 Y-75.27
G3 X-222.319 Y-75.8 I1.094 J0.499
G1 X-222.11 Y-75.877
X-221.888 Y-75.905
X-220.859
G3 X-220.803 Y-75.898 Z-2.688 I-0.011 J0.317 F1524
X-220.552 Y-75.593 Z-1.833 I-0.066 J0.311 F5080
G1 Y-75.576 Z-1.8
X-219.272 Y-5.424
Y-5.419 Z-1.81
G3 X-219.523 Y-5.102 Z-2.688 I-0.317 J0.006
X-219.578 Y-5.095 Z-2.8 I-0.066 J-0.311 F1524
G1 X-220.594 F5080
G3 X-222.043 Y-5.721 I0.119 J-2.269
X-223.319 Y-7.229 I3.732 J-4.451
X-224.512 Y-9.859 I11.177 J-6.655
X-226.194 Y-16.345 I49.691 J-16.343
X-227.904 Y-27.126 I109.288 J-22.87
G1 Y-54.122
G3 X-227.41 Y-59.31 I39.806 J1.177
X-224.595 Y-73.175 I116.22 J16.381
G1 X-224.371 Y-73.886
X-224.142 Y-74.558
G3 X-223.681 Y-75.499 I4.092 J1.422
X-222.918 Y-75.905 I0.763 J0.515
G1 X-221.888
G3 X-221.833 Y-75.898 Z-2.688 I-0.011 J0.317 F1524
X-221.582 Y-75.576 Z-1.8 I-0.066 J0.311 F5080
X-221.593 Y-75.506 I-0.317 J-0.011
G1 X-227.28 Y-54.052
G3 X-227.576 Y-53.816 I-0.307 J-0.081
X-227.898 Y-54.067 Z-2.688 I-0.011 J-0.317
X-227.904 Y-54.122 Z-2.8 I0.311 J-0.066 F1524
G1 Y-61.229 F5080
G3 X-227.478 Y-64.925 I21.578 J0.615
X-225.485 Y-73.638 I95.491 J17.268
G1 X-225.25 Y-74.345
G3 X-224.724 Y-75.479 I4.641 J1.463
X-223.948 Y-75.905 I0.776 J0.496
G1 X-222.918
G3 X-222.863 Y-75.898 Z-2.688 I-0.011 J0.317 F1524
X-222.611 Y-75.576 Z-1.8 I-0.066 J0.311 F5080
X-222.627 Y-75.489 I-0.317 J-0.011
G1 X-227.285 Y-61.142
G3 X-227.576 Y-60.923 I-0.302 J-0.098
X-227.898 Y-61.174 Z-2.688 I-0.011 J-0.317
X-227.904 Y-61.229 Z-2.8 I0.311 J-0.066 F1524
G1 Y-66.644 F5080
G3 X-227.515 Y-69.594 I14.539 J0.419
X-226.205 Y-74.572 I44.991 J9.176
X-225.74 Y-75.499 I4.428 J1.643
X-224.977 Y-75.905 I0.763 J0.516
G1 X-223.948
G3 X-223.892 Y-75.898 Z-2.688 I-0.011 J0.317 F1524
X-223.641 Y-75.576 Z-1.8 I-0.066 J0.311 F5080
X-223.665 Y-75.468 I-0.317 J-0.011
G1 X-227.293 Y-66.536
G3 X-227.576 Y-66.338 I-0.294 J-0.119
X-227.898 Y-66.589 Z-2.688 I-0.011 J-0.317
X-227.904 Y-66.644 Z-2.8 I0.311 J-0.066 F1524
G1 Y-71.044 F5080
G3 X-227.289 Y-74.355 I11.632 J0.449
X-226.78 Y-75.472 I4.561 J1.402
X-226 Y-75.905 I0.781 J0.488
X-225.945 Y-75.898 Z-2.688 I-0.011 J0.317 F1524
X-225.694 Y-75.576 Z-1.8 I-0.066 J0.311 F5080
X-225.711 Y-75.483 I-0.317 J-0.011
G1 X-227.287 Y-70.95
G3 X-227.576 Y-70.737 I-0.3 J-0.104
X-227.898 Y-70.989 Z-2.688 I-0.011 J-0.317
X-227.904 Y-71.044 Z-2.8 I0.311 J-0.066 F1524
G1 Y-74.259 F5080
G3 X-227.662 Y-75.384 I2.767 J0.007
X-226.833 Y-75.905 I0.829 J0.401
X-226.778 Y-75.898 Z-2.688 I-0.011 J0.317 F1524
X-226.527 Y-75.576 Z-1.8 I-0.066 J0.311 F5080
X-226.568 Y-75.431 I-0.317 J-0.011
G1 X-227.311 Y-74.114
G3 X-227.576 Y-73.953 I-0.277 J-0.156
X-227.898 Y-74.204 Z-2.688 I-0.011 J-0.317
X-227.904 Y-74.259 Z-2.8 I0.311 J-0.066 F1524
G1 Y-75.443 F5080
Y-75.472
X-227.894 Y-75.624 F1270
X-227.809 Y-75.768 F5080
X-227.674 Y-75.867
X-227.511 Y-75.903
G3 X-227.455 Y-75.899 Z-2.688 I-0.009 J0.455 F1524
X-227.213 Y-75.785 Z-2.143 I-0.064 J0.45 F5080
X-227.114 Y-75.647 Z-1.8 I-0.278 J0.305
X-227.63 Y-75.091 I-0.377 J0.167
X-227.761 Y-75.167 Z-2.105 I0.139 J-0.389
X-227.899 Y-75.416 Z-2.688 I0.27 J-0.313
X-227.904 Y-75.472 Z-2.8 I0.408 J-0.063 F1524
G1 X-227.902 Y-75.613 F5080
X-227.894 Y-75.655
X-227.879 Y-75.697
X-227.857 Y-75.739
X-227.826 Y-75.782
X-227.802 Y-75.806
X-227.778 Y-75.826
X-227.736 Y-75.856
X-227.694 Y-75.879 F1270
X-227.651 Y-75.893
X-227.609 Y-75.902 F5080
X-227.44 Y-75.905
X-224.977
G3 X-224.922 Y-75.898 Z-2.688 I-0.011 J0.317 F1524
X-224.671 Y-75.607 Z-1.861 I-0.066 J0.311 F5080
G1 X-224.669 Y-75.576 Z-1.8
X-220.288 Y-5.433
Y-5.424
