%
(1001)
(planck bottom0)
(T5  D=3.175 CR=0 - ZMIN=-11 - flat end mill)
G90
G17
G21
G28 G91 Z0
G90

(2D Pocket4)
M9
T5 M6
S16000 M3
G54
M7
G0 X-173.691 Y-67.754
Z15.24
Z5.08
G1 Z2.54 F762
Z-7
G3 X-173.309 Y-67.246 I0.191 J0.254 F1778
X-173.691 Y-67.754 I-0.191 J-0.254
X-173.582 Y-67.807 Z-6.976 I0.191 J0.254
X-173.48 Y-67.817 Z-6.907 I0.082 J0.307
X-173.412 Y-67.805 Z-6.804 I-0.02 J0.317
X-173.389 Y-67.798 Z-6.683 I-0.088 J0.305
G0 Z15.24

(2D Pocket7)
M7
X-192.054 Y-86.666
G1 Z1 F711.2
Z-2.858
G19 G3 Y-86.349 Z-3.175 J0.318 K0
G1 Y-82.477
Y-80.128
G17 G3 X-192.378 Y-79.804 I-0.324 J0
G1 X-192.876
G3 X-193.196 Y-80.124 I0 J-0.32
G1 Y-82.481
G3 X-192.993 Y-82.685 I0.203 J0
G1 X-191.086 Y-82.68
G3 X-190.883 Y-82.477 I0 J0.203
G1 Y-78.958
G3 X-191.208 Y-78.633 I-0.324 J0
G1 X-194.046
G3 X-194.367 Y-78.954 I0 J-0.32
G1 Y-82.481
G3 X-194.164 Y-82.684 I0.203 J0
G1 X-188.541 Y-82.686
G3 X-188.337 Y-82.483 I0 J0.203
G1 Y-76.088
X-196.913
Y-81
Y-82.484
G3 X-196.738 Y-82.685 I0.203 J0
G1 X-192.286 Y-83.325
G3 X-192.054 Y-83.124 I0.029 J0.201
G19 G2 Y-82.806 Z-3.493 J0 K-0.318
G1 Z-6.032
G3 Y-82.489 Z-6.35 J0.317 K0
G1 Y-82.477
Y-80.128
G17 G3 X-192.378 Y-79.804 I-0.324 J0
G1 X-192.876
G3 X-193.196 Y-80.124 I0 J-0.32
G1 Y-82.481
G3 X-192.993 Y-82.685 I0.203 J0
G1 X-191.086 Y-82.68
G3 X-190.883 Y-82.477 I0 J0.203
G1 Y-78.958
G3 X-191.208 Y-78.633 I-0.324 J0
G1 X-194.046
G3 X-194.367 Y-78.954 I0 J-0.32
G1 Y-82.481
G3 X-194.164 Y-82.684 I0.203 J0
G1 X-188.541 Y-82.686
G3 X-188.337 Y-82.483 I0 J0.203
G1 Y-76.088
X-196.913
Y-81
Y-82.484
G3 X-196.738 Y-82.685 I0.203 J0
G1 X-192.286 Y-83.325
G3 X-192.054 Y-83.124 I0.029 J0.201
G19 G2 Y-82.806 Z-6.668 J0 K-0.318
G1 Z-9.208
G3 Y-82.489 Z-9.525 J0.317 K0
G1 Y-82.477
Y-80.128
G17 G3 X-192.378 Y-79.804 I-0.324 J0
G1 X-192.876
G3 X-193.196 Y-80.124 I0 J-0.32
G1 Y-82.481
G3 X-192.993 Y-82.685 I0.203 J0
G1 X-191.086 Y-82.68
G3 X-190.883 Y-82.477 I0 J0.203
G1 Y-78.958
G3 X-191.208 Y-78.633 I-0.324 J0
G1 X-194.046
G3 X-194.367 Y-78.954 I0 J-0.32
G1 Y-82.481
G3 X-194.164 Y-82.684 I0.203 J0
G1 X-188.541 Y-82.686
G3 X-188.337 Y-82.483 I0 J0.203
G1 Y-76.088
X-196.913
Y-81
Y-82.484
G3 X-196.738 Y-82.685 I0.203 J0
G1 X-192.286 Y-83.325
G3 X-192.054 Y-83.124 I0.029 J0.201
G19 G2 Y-82.806 Z-9.842 J0 K-0.318
G1 Z-10.682
G3 Y-82.489 Z-11 J0.317 K0
G1 Y-82.477
Y-80.128
G17 G3 X-192.378 Y-79.804 I-0.324 J0
G1 X-192.876
G3 X-193.196 Y-80.124 I0 J-0.32
G1 Y-82.481
G3 X-192.993 Y-82.685 I0.203 J0
G1 X-191.086 Y-82.68
G3 X-190.883 Y-82.477 I0 J0.203
G1 Y-78.958
G3 X-191.208 Y-78.633 I-0.324 J0
G1 X-194.046
G3 X-194.367 Y-78.954 I0 J-0.32
G1 Y-82.481
G3 X-194.164 Y-82.684 I0.203 J0
G1 X-188.541 Y-82.686
G3 X-188.337 Y-82.483 I0 J0.203
G1 Y-76.088
X-196.913
Y-81
Y-82.484
G3 X-196.909 Y-82.534 I0.318 J0
G1 X-196.66 Y-84.102
X-196.649 Y-84.172 Z-10.992
X-196.639 Y-84.238 Z-10.969
X-196.629 Y-84.297 Z-10.931
X-196.621 Y-84.347 Z-10.88
X-196.615 Y-84.384 Z-10.82
X-196.612 Y-84.408 Z-10.753
X-196.611 Y-84.416 Z-10.682
G0 Z1
M9
G28 G91 Z0
G28 X0 Y0
M30
%
