%
(1001)
(planck main0)
(T5  D=3.175 CR=0 - ZMIN=-10.5 - flat end mill)
G90
G17
G21
G28 G91 Z0
G90

(2D Adaptive7)
M9
T5 M6
S16000 M3
G54
M7
G0 X-57.038 Y-40.216
Z2
Z1.317
G1 Z1 F3556
G3 X-60.162 Y-40.784 Z0.651 I-1.562 J-0.284
X-57.038 Y-40.216 Z0.303 I1.562 J0.284
X-60.162 Y-40.784 Z-0.046 I-1.562 J-0.284
X-57.038 Y-40.216 Z-0.395 I1.562 J0.284
X-60.162 Y-40.784 Z-0.744 I-1.562 J-0.284
X-57.038 Y-40.216 Z-1.092 I1.562 J0.284
X-60.162 Y-40.784 Z-1.441 I-1.562 J-0.284
X-57.038 Y-40.216 Z-1.79 I1.562 J0.284
X-60.162 Y-40.784 Z-2.139 I-1.562 J-0.284
X-57.038 Y-40.216 Z-2.487 I1.562 J0.284
X-60.162 Y-40.784 Z-2.836 I-1.562 J-0.284
X-57.013 Y-40.5 Z-3.165 I1.562 J0.284
X-60.188 I-1.587 J0
X-57.013 I1.587 J0
G1 X-57.008 Y-40.314
X-56.776 Y-39.786
X-56.73 Y-39.641
X-56.708 Y-39.49
Y-39.338
X-56.728 Y-39.187
X-56.765 Y-39.039
X-56.819 Y-38.891
X-56.893 Y-38.741
X-56.987 Y-38.591
X-57.102 Y-38.443
X-57.239 Y-38.301
X-57.397 Y-38.168
X-57.576 Y-38.046
X-57.774 Y-37.94
X-57.989 Y-37.851
X-58.22 Y-37.783
X-58.464 Y-37.738
X-58.718 Y-37.718
X-58.978 Y-37.724
X-59.242 Y-37.758
X-59.505 Y-37.82
X-59.765 Y-37.91
X-60.017 Y-38.029
X-60.258 Y-38.174
X-60.486 Y-38.345
X-60.696 Y-38.54
X-60.886 Y-38.758
X-61.053 Y-38.995
X-61.196 Y-39.25
X-61.313 Y-39.519
X-61.401 Y-39.8
X-61.46 Y-40.09
X-61.488 Y-40.385
X-61.486 Y-40.681
X-61.454 Y-40.977
X-61.39 Y-41.268
X-61.298 Y-41.551
X-61.176 Y-41.823
X-61.026 Y-42.082
X-60.85 Y-42.324
X-60.651 Y-42.546
X-60.429 Y-42.747
X-60.187 Y-42.924
X-59.929 Y-43.075
X-59.656 Y-43.199
X-59.372 Y-43.294
X-59.079 Y-43.358
X-58.781 Y-43.393
X-58.481 Y-43.396
X-58.183 Y-43.368
X-57.889 Y-43.31
X-57.602 Y-43.221
X-57.326 Y-43.104
X-57.064 Y-42.958
X-56.818 Y-42.786
X-56.591 Y-42.59
X-56.386 Y-42.371
X-56.205 Y-42.132
X-55.817 Y-41.496
X-55.592 Y-41.022
X-55.453 Y-40.631
X-55.365 Y-40.268
X-55.318 Y-39.919
X-55.308 Y-39.581
X-55.332 Y-39.25
X-55.39 Y-38.925
X-55.481 Y-38.608
X-55.605 Y-38.301
X-55.762 Y-38.005
X-55.951 Y-37.724
X-56.171 Y-37.459
X-56.423 Y-37.214
X-56.703 Y-36.992
X-57.011 Y-36.796
X-57.344 Y-36.63
X-57.699 Y-36.497
X-58.073 Y-36.4
X-58.461 Y-36.341
X-58.859 Y-36.322
X-59.262 Y-36.344
X-59.665 Y-36.409
X-60.065 Y-36.516
X-60.454 Y-36.665
X-60.83 Y-36.856
X-61.187 Y-37.087
X-61.521 Y-37.355
X-61.828 Y-37.659
X-62.103 Y-37.994
X-62.344 Y-38.358
X-62.546 Y-38.747
X-62.708 Y-39.156
X-62.826 Y-39.582
X-62.901 Y-40.018
X-62.93 Y-40.461
X-62.913 Y-40.905
X-62.851 Y-41.347
X-62.742 Y-41.779
X-62.59 Y-42.199
X-62.394 Y-42.601
X-62.158 Y-42.982
X-61.884 Y-43.336
X-61.574 Y-43.66
X-61.233 Y-43.95
X-60.863 Y-44.204
X-60.469 Y-44.418
X-60.054 Y-44.59
X-59.624 Y-44.718
X-59.183 Y-44.802
X-58.736 Y-44.839
X-58.287 Y-44.83
X-57.841 Y-44.775
X-57.403 Y-44.673
X-56.978 Y-44.527
X-56.571 Y-44.338
X-56.185 Y-44.108
X-55.825 Y-43.839
X-55.406 Y-43.452
X-55.015 Y-43.009
X-54.663 Y-42.515
X-54.375 Y-42.005
X-54.152 Y-41.493
X-53.988 Y-40.98
X-53.882 Y-40.466
X-53.83 Y-39.956
X-53.831 Y-39.452
X-53.884 Y-38.956
X-53.987 Y-38.471
X-54.14 Y-38.002
X-54.34 Y-37.549
X-54.587 Y-37.118
X-54.879 Y-36.712
X-55.215 Y-36.335
X-55.592 Y-35.991
X-56.008 Y-35.684
X-56.458 Y-35.419
X-56.939 Y-35.198
X-57.446 Y-35.027
X-57.975 Y-34.908
X-58.518 Y-34.843
X-59.071 Y-34.835
X-59.628 Y-34.884
X-60.181 Y-34.992
X-60.724 Y-35.157
X-61.251 Y-35.38
X-61.756 Y-35.658
X-62.232 Y-35.988
X-62.675 Y-36.368
X-63.077 Y-36.794
X-63.436 Y-37.262
X-63.745 Y-37.766
X-64.002 Y-38.302
X-64.202 Y-38.863
X-64.344 Y-39.443
X-64.425 Y-40.037
X-64.445 Y-40.637
X-64.402 Y-41.236
X-64.298 Y-41.829
X-64.132 Y-42.409
X-63.907 Y-42.969
X-63.626 Y-43.503
X-63.29 Y-44.006
X-62.904 Y-44.471
X-62.472 Y-44.895
X-61.998 Y-45.271
X-61.488 Y-45.597
X-60.946 Y-45.868
X-60.379 Y-46.082
X-59.793 Y-46.236
X-59.194 Y-46.329
X-58.589 Y-46.359
X-57.984 Y-46.327
X-57.385 Y-46.232
X-56.799 Y-46.076
X-56.233 Y-45.86
X-55.69 Y-45.586
X-55.142 Y-45.234
X-54.604 Y-44.804
X-54.093 Y-44.3
X-53.631 Y-43.738
X-53.23 Y-43.134
X-52.899 Y-42.501
X-52.639 Y-41.847
X-52.451 Y-41.182
X-52.335 Y-40.511
X-52.29 Y-39.84
X-52.314 Y-39.175
X-52.405 Y-38.521
X-52.564 Y-37.883
X-52.787 Y-37.265
X-53.073 Y-36.673
X-53.419 Y-36.112
X-53.824 Y-35.587
X-54.285 Y-35.103
X-54.796 Y-34.666
X-55.355 Y-34.281
X-55.956 Y-33.954
X-56.593 Y-33.687
X-57.26 Y-33.486
X-57.95 Y-33.354
X-58.656 Y-33.294
X-59.37 Y-33.307
X-60.083 Y-33.394
X-60.789 Y-33.556
X-61.478 Y-33.791
X-62.144 Y-34.098
X-62.777 Y-34.475
X-63.372 Y-34.917
X-63.92 Y-35.42
X-64.413 Y-35.978
X-64.847 Y-36.584
X-65.216 Y-37.231
X-65.517 Y-37.913
X-65.747 Y-38.621
X-65.904 Y-39.35
X-65.986 Y-40.09
X-65.992 Y-40.835
X-65.924 Y-41.577
X-65.781 Y-42.308
X-65.565 Y-43.021
X-65.278 Y-43.709
X-64.923 Y-44.364
X-64.504 Y-44.98
X-64.026 Y-45.552
X-63.492 Y-46.072
X-62.909 Y-46.536
X-62.283 Y-46.938
X-61.618 Y-47.276
X-60.924 Y-47.545
X-60.205 Y-47.743
X-59.471 Y-47.868
X-58.728 Y-47.918
X-57.983 Y-47.893
X-57.245 Y-47.793
X-56.52 Y-47.62
X-55.816 Y-47.374
X-55.141 Y-47.06
X-54.499 Y-46.681
X-53.896 Y-46.244
X-53.334 Y-45.755
X-52.816 Y-45.219
X-52.347 Y-44.641
X-51.933 Y-44.021
X-51.576 Y-43.367
X-51.279 Y-42.684
X-51.043 Y-41.977
X-50.87 Y-41.252
X-50.764 Y-40.515
X-50.726 Y-39.771
X-50.756 Y-39.026
X-50.856 Y-38.288
X-51.027 Y-37.563
X-51.266 Y-36.857
X-51.57 Y-36.177
X-51.936 Y-35.528
X-52.362 Y-34.916
X-52.841 Y-34.346
X-53.371 Y-33.823
X-53.947 Y-33.35
X-54.563 Y-32.931
X-55.216 Y-32.571
X-55.899 Y-32.275
X-56.607 Y-32.042
X-57.332 Y-31.872
X-58.07 Y-31.767
X-58.814 Y-31.726
X-59.559 Y-31.749
X-60.298 Y-31.839
X-61.027 Y-31.996
X-61.738 Y-32.216
X-62.429 Y-32.496
X-63.094 Y-32.832
X-63.729 Y-33.223
X-64.326 Y-33.668
X-64.881 Y-34.164
X-65.393 Y-34.706
X-65.858 Y-35.288
X-66.273 Y-35.907
X-66.636 Y-36.557
X-66.94 Y-37.238
X-67.184 Y-37.942
X-67.369 Y-38.663
X-67.495 Y-39.398
X-67.561 Y-40.14
X-67.564 Y-40.885
X-67.502 Y-41.627
X-67.378 Y-42.362
X-67.194 Y-43.084
X-66.953 Y-43.789
X-66.655 Y-44.472
X-66.3 Y-45.127
X-65.889 Y-45.749
X-65.429 Y-46.334
X-64.922 Y-46.881
X-64.374 Y-47.385
X-63.786 Y-47.843
X-63.16 Y-48.247
X-62.502 Y-48.597
X-61.818 Y-48.891
X-61.112 Y-49.13
X-60.389 Y-49.311
X-59.654 Y-49.43
X-58.911 Y-49.485
X-58.166 Y-49.478
X-57.424 Y-49.41
X-56.69 Y-49.282
X-55.968 Y-49.096
X-55.265 Y-48.849
X-54.586 Y-48.542
X-53.934 Y-48.183
X-53.311 Y-47.773
X-52.721 Y-47.319
X-52.165 Y-46.823
X-51.648 Y-46.286
X-51.175 Y-45.71
X-50.748 Y-45.1
X-50.367 Y-44.46
X-50.034 Y-43.793
X-49.75 Y-43.104
X-49.518 Y-42.396
X-49.343 Y-41.672
X-49.224 Y-40.937
X-49.161 Y-40.194
X-49.155 Y-39.449
X-49.204 Y-38.706
X-49.311 Y-37.968
X-49.48 Y-37.243
X-49.706 Y-36.533
X-49.987 Y-35.842
X-50.319 Y-35.176
X-50.701 Y-34.536
X-51.131 Y-33.927
X-51.609 Y-33.356
X-52.13 Y-32.824
X-52.691 Y-32.333
X-53.286 Y-31.885
X-53.914 Y-31.483
X-54.57 Y-31.131
X-55.253 Y-30.833
X-55.957 Y-30.588
X-56.677 Y-30.398
X-57.409 Y-30.26
X-58.15 Y-30.176
X-58.894 Y-30.144
X-59.639 Y-30.169
X-60.379 Y-30.253
X-61.111 Y-30.393
X-61.831 Y-30.585
X-62.535 Y-30.828
X-63.221 Y-31.12
X-63.884 Y-31.459
X-64.519 Y-31.848
X-65.123 Y-32.284
X-65.694 Y-32.763
X-66.23 Y-33.281
X-66.728 Y-33.835
X-67.187 Y-34.422
X-67.602 Y-35.041
X-67.969 Y-35.689
X-68.287 Y-36.363
X-68.558 Y-37.057
X-68.779 Y-37.769
X-68.95 Y-38.494
X-69.072 Y-39.229
X-69.139 Y-39.971
X-69.151 Y-40.716
X-69.11 Y-41.46
X-69.016 Y-42.199
X-68.872 Y-42.93
X-68.678 Y-43.649
X-68.435 Y-44.354
X-68.14 Y-45.038
X-67.796 Y-45.699
X-67.406 Y-46.333
X-66.973 Y-46.94
X-66.499 Y-47.515
X-65.988 Y-48.057
X-65.439 Y-48.561
X-64.855 Y-49.023
X-64.238 Y-49.441
X-63.594 Y-49.815
X-62.925 Y-50.143
X-62.236 Y-50.426
X-61.528 Y-50.661
X-60.806 Y-50.843
X-60.072 Y-50.971
X-59.331 Y-51.047
X-58.586 Y-51.07
X-57.842 Y-51.043
X-57.101 Y-50.964
X-56.367 Y-50.835
X-55.645 Y-50.652
X-54.938 Y-50.417
X-54.249 Y-50.133
X-53.581 Y-49.803
X-52.936 Y-49.429
X-52.317 Y-49.015
X-51.726 Y-48.561
X-51.167 Y-48.068
X-50.643 Y-47.539
X-50.154 Y-46.977
X-49.703 Y-46.384
X-49.29 Y-45.764
X-48.917 Y-45.119
X-48.585 Y-44.452
X-48.298 Y-43.764
X-48.058 Y-43.059
X-47.865 Y-42.339
X-47.719 Y-41.608
X-47.621 Y-40.87
X-47.569 Y-40.127
X-47.566 Y-39.382
X-47.614 Y-38.638
X-47.714 Y-37.9
X-47.864 Y-37.17
X-48.062 Y-36.452
X-48.308 Y-35.748
X-48.599 Y-35.062
X-48.934 Y-34.397
X-49.313 Y-33.756
X-49.737 Y-33.143
X-50.2 Y-32.559
X-50.701 Y-32.008
X-51.237 Y-31.49
X-51.805 Y-31.008
X-52.403 Y-30.563
X-53.029 Y-30.16
X-53.682 Y-29.801
X-54.358 Y-29.486
X-55.052 Y-29.217
X-55.763 Y-28.993
X-56.486 Y-28.813
X-57.219 Y-28.679
X-57.959 Y-28.593
X-58.703 Y-28.556
X-59.448 Y-28.568
X-60.191 Y-28.629
X-60.928 Y-28.736
X-61.657 Y-28.89
X-62.375 Y-29.088
X-63.08 Y-29.33
X-63.767 Y-29.617
X-64.435 Y-29.948
X-65.08 Y-30.321
X-65.7 Y-30.734
X-66.293 Y-31.185
X-66.858 Y-31.671
X-67.392 Y-32.191
X-67.892 Y-32.743
X-68.356 Y-33.326
X-68.783 Y-33.937
X-69.17 Y-34.573
X-69.517 Y-35.233
X-69.823 Y-35.912
X-70.087 Y-36.608
X-70.309 Y-37.32
X-70.485 Y-38.044
X-70.616 Y-38.777
X-70.701 Y-39.517
X-70.739 Y-40.261
X-70.732 Y-41.006
X-70.68 Y-41.75
X-70.584 Y-42.488
X-70.442 Y-43.22
X-70.254 Y-43.941
X-70.022 Y-44.649
X-69.747 Y-45.341
X-69.43 Y-46.015
X-69.072 Y-46.669
X-68.675 Y-47.3
X-68.242 Y-47.906
X-67.771 Y-48.483
X-67.266 Y-49.031
X-66.727 Y-49.546
X-66.158 Y-50.026
X-65.56 Y-50.471
X-64.937 Y-50.879
X-64.29 Y-51.249
X-63.622 Y-51.579
X-62.935 Y-51.866
X-62.231 Y-52.11
X-61.513 Y-52.311
X-60.784 Y-52.466
X-60.048 Y-52.577
X-59.305 Y-52.643
X-58.561 Y-52.664
X-57.816 Y-52.639
X-57.074 Y-52.569
X-56.338 Y-52.452
X-55.611 Y-52.29
X-54.895 Y-52.084
X-54.193 Y-51.835
X-53.507 Y-51.546
X-52.838 Y-51.216
X-52.192 Y-50.846
X-51.568 Y-50.439
X-50.968 Y-49.996
X-50.395 Y-49.52
X-49.851 Y-49.011
X-49.336 Y-48.472
X-48.853 Y-47.906
X-48.402 Y-47.312
X-47.986 Y-46.694
X-47.606 Y-46.053
X-47.264 Y-45.392
X-46.959 Y-44.712
X-46.694 Y-44.015
X-46.469 Y-43.305
X-46.284 Y-42.583
X-46.14 Y-41.852
X-46.039 Y-41.114
X-45.981 Y-40.371
X-45.967 Y-39.626
X-45.996 Y-38.882
X-46.069 Y-38.14
X-46.185 Y-37.404
X-46.344 Y-36.676
X-46.544 Y-35.959
X-46.787 Y-35.254
X-47.071 Y-34.566
X-47.395 Y-33.895
X-47.758 Y-33.244
X-48.159 Y-32.616
X-48.595 Y-32.012
X-49.065 Y-31.434
X-49.567 Y-30.883
X-50.101 Y-30.364
X-50.664 Y-29.876
X-51.255 Y-29.422
X-51.871 Y-29.003
X-52.511 Y-28.621
X-53.171 Y-28.276
X-53.85 Y-27.97
X-54.546 Y-27.702
X-55.255 Y-27.475
X-55.977 Y-27.289
X-56.708 Y-27.144
X-57.446 Y-27.041
X-58.188 Y-26.98
X-58.933 Y-26.96
X-59.678 Y-26.983
X-60.42 Y-27.047
X-61.157 Y-27.153
X-61.888 Y-27.301
X-62.608 Y-27.49
X-63.318 Y-27.718
X-64.013 Y-27.985
X-64.693 Y-28.29
X-65.355 Y-28.632
X-65.997 Y-29.011
X-66.617 Y-29.424
X-67.212 Y-29.871
X-67.782 Y-30.351
X-68.325 Y-30.862
X-68.839 Y-31.401
X-69.322 Y-31.968
X-69.774 Y-32.561
X-70.193 Y-33.177
X-70.578 Y-33.815
X-70.927 Y-34.473
X-71.238 Y-35.15
X-71.512 Y-35.843
X-71.748 Y-36.549
X-71.946 Y-37.268
X-72.104 Y-37.996
X-72.222 Y-38.731
X-72.301 Y-39.472
X-72.339 Y-40.216
X-72.335 Y-40.962
X-72.291 Y-41.705
X-72.207 Y-42.446
X-72.082 Y-43.18
X-71.919 Y-43.907
X-71.716 Y-44.624
X-71.475 Y-45.329
X-71.196 Y-46.02
X-70.88 Y-46.695
X-70.527 Y-47.351
X-70.138 Y-47.986
X-69.717 Y-48.601
X-69.262 Y-49.191
X-68.777 Y-49.756
X-68.261 Y-50.294
X-67.718 Y-50.804
X-67.148 Y-51.284
X-66.552 Y-51.731
X-65.932 Y-52.145
X-65.291 Y-52.524
X-64.631 Y-52.869
X-63.952 Y-53.178
X-63.259 Y-53.449
X-62.551 Y-53.683
X-61.832 Y-53.879
X-61.104 Y-54.035
X-60.368 Y-54.15
X-59.626 Y-54.225
X-58.882 Y-54.259
X-58.137 Y-54.254
X-57.393 Y-54.209
X-56.653 Y-54.123
X-55.919 Y-53.999
X-55.192 Y-53.835
X-54.475 Y-53.631
X-53.771 Y-53.388
X-53.081 Y-53.108
X-52.406 Y-52.791
X-51.749 Y-52.44
X-51.111 Y-52.056
X-50.493 Y-51.639
X-49.898 Y-51.191
X-49.326 Y-50.714
X-48.78 Y-50.207
X-48.261 Y-49.672
X-47.77 Y-49.112
X-47.308 Y-48.527
X-46.876 Y-47.92
X-46.475 Y-47.292
X-46.106 Y-46.645
X-45.77 Y-45.98
X-45.467 Y-45.299
X-45.201 Y-44.603
X-44.971 Y-43.895
X-44.777 Y-43.175
X-44.62 Y-42.447
X-44.5 Y-41.711
X-44.418 Y-40.971
X-44.374 Y-40.227
X-44.368 Y-39.482
X-44.4 Y-38.738
X-44.472 Y-37.996
X-44.583 Y-37.259
X-44.732 Y-36.529
X-44.919 Y-35.808
X-45.144 Y-35.098
X-45.404 Y-34.4
X-45.701 Y-33.716
X-46.032 Y-33.049
X-46.397 Y-32.399
X-46.796 Y-31.77
X-47.227 Y-31.163
X-47.69 Y-30.579
X-48.182 Y-30.019
X-48.702 Y-29.486
X-49.249 Y-28.979
X-49.82 Y-28.502
X-50.416 Y-28.054
X-51.033 Y-27.637
X-51.672 Y-27.253
X-52.33 Y-26.904
X-53.005 Y-26.588
X-53.695 Y-26.308
X-54.399 Y-26.063
X-55.114 Y-25.854
X-55.839 Y-25.68
X-56.571 Y-25.543
X-57.309 Y-25.443
X-58.052 Y-25.381
X-58.796 Y-25.357
X-59.541 Y-25.371
X-60.285 Y-25.422
X-61.024 Y-25.511
X-61.759 Y-25.636
X-62.486 Y-25.798
X-63.205 Y-25.995
X-63.913 Y-26.227
X-64.608 Y-26.494
X-65.289 Y-26.796
X-65.954 Y-27.132
X-66.602 Y-27.501
X-67.23 Y-27.901
X-67.838 Y-28.332
X-68.424 Y-28.792
X-68.987 Y-29.28
X-69.526 Y-29.795
X-70.039 Y-30.335
X-70.524 Y-30.901
X-70.98 Y-31.49
X-71.406 Y-32.101
X-71.803 Y-32.732
X-72.167 Y-33.381
X-72.5 Y-34.048
X-72.8 Y-34.73
X-73.066 Y-35.426
X-73.299 Y-36.134
X-73.497 Y-36.852
X-73.659 Y-37.579
X-73.784 Y-38.314
X-73.874 Y-39.053
X-73.927 Y-39.797
X-73.945 Y-40.541
X-73.926 Y-41.286
X-73.871 Y-42.029
X-73.781 Y-42.769
X-73.655 Y-43.503
X-73.493 Y-44.231
X-73.296 Y-44.949
X-73.063 Y-45.657
X-72.796 Y-46.352
X-72.496 Y-47.034
X-72.163 Y-47.701
X-71.799 Y-48.351
X-71.403 Y-48.982
X-70.978 Y-49.594
X-70.524 Y-50.185
X-70.041 Y-50.752
X-69.531 Y-51.295
X-68.995 Y-51.812
X-68.434 Y-52.303
X-67.85 Y-52.766
X-67.245 Y-53.2
X-66.619 Y-53.605
X-65.975 Y-53.979
X-65.314 Y-54.322
X-64.636 Y-54.632
X-63.944 Y-54.908
X-63.239 Y-55.15
X-62.524 Y-55.358
X-61.799 Y-55.53
X-61.067 Y-55.667
X-60.329 Y-55.769
X-59.586 Y-55.835
X-58.842 Y-55.865
X-58.097 Y-55.86
X-57.353 Y-55.817
X-56.612 Y-55.738
X-55.876 Y-55.623
X-55.146 Y-55.473
X-54.425 Y-55.288
X-53.713 Y-55.068
X-53.012 Y-54.814
X-52.324 Y-54.528
X-51.651 Y-54.21
X-50.993 Y-53.86
X-50.353 Y-53.478
X-49.731 Y-53.068
X-49.129 Y-52.629
X-48.548 Y-52.162
X-47.99 Y-51.669
X-47.454 Y-51.151
X-46.943 Y-50.609
X-46.457 Y-50.045
X-45.996 Y-49.459
X-45.564 Y-48.852
X-45.16 Y-48.226
X-44.785 Y-47.582
X-44.44 Y-46.922
X-44.125 Y-46.246
X-43.842 Y-45.557
X-43.591 Y-44.856
X-43.371 Y-44.144
X-43.185 Y-43.423
X-43.031 Y-42.694
X-42.911 Y-41.958
X-42.826 Y-41.218
X-42.775 Y-40.475
X-42.759 Y-39.73
X-42.778 Y-38.985
X-42.831 Y-38.242
X-42.919 Y-37.502
X-43.042 Y-36.767
X-43.198 Y-36.039
X-43.388 Y-35.318
X-43.612 Y-34.608
X-43.869 Y-33.908
X-44.16 Y-33.222
X-44.481 Y-32.55
X-44.834 Y-31.894
X-45.217 Y-31.255
X-45.629 Y-30.634
X-46.07 Y-30.033
X-46.538 Y-29.454
X-47.032 Y-28.896
X-47.551 Y-28.362
X-48.095 Y-27.853
X-48.663 Y-27.37
X-49.252 Y-26.914
X-49.861 Y-26.485
X-50.49 Y-26.086
X-51.137 Y-25.716
X-51.8 Y-25.376
X-52.478 Y-25.067
X-53.169 Y-24.789
X-53.872 Y-24.542
X-54.586 Y-24.33
X-55.31 Y-24.15
X-56.04 Y-24.003
X-56.776 Y-23.89
X-57.517 Y-23.81
X-58.261 Y-23.764
X-59.006 Y-23.751
X-59.75 Y-23.773
X-60.493 Y-23.827
X-61.233 Y-23.915
X-61.968 Y-24.038
X-62.697 Y-24.194
X-63.418 Y-24.382
X-64.13 Y-24.602
X-64.831 Y-24.854
X-65.52 Y-25.137
X-66.196 Y-25.451
X-66.857 Y-25.794
X-67.502 Y-26.167
X-68.13 Y-26.567
X-68.739 Y-26.996
X-69.328 Y-27.453
X-69.897 Y-27.935
X-70.443 Y-28.441
X-70.966 Y-28.971
X-71.466 Y-29.524
X-71.94 Y-30.099
X-72.388 Y-30.694
X-72.81 Y-31.308
X-73.204 Y-31.941
X-73.57 Y-32.59
X-73.906 Y-33.255
X-74.211 Y-33.934
X-74.487 Y-34.627
X-74.732 Y-35.33
X-74.946 Y-36.044
X-75.128 Y-36.766
X-75.278 Y-37.496
X-75.396 Y-38.232
X-75.482 Y-38.972
X-75.535 Y-39.715
X-75.555 Y-40.46
X-75.541 Y-41.205
X-75.494 Y-41.948
X-75.415 Y-42.689
X-75.304 Y-43.426
X-75.161 Y-44.157
X-74.985 Y-44.881
X-74.778 Y-45.597
X-74.54 Y-46.303
X-74.271 Y-46.998
X-73.972 Y-47.68
X-73.642 Y-48.348
X-73.283 Y-49.001
X-72.896 Y-49.638
X-72.482 Y-50.257
X-72.041 Y-50.857
X-71.573 Y-51.438
X-71.081 Y-51.997
X-70.565 Y-52.535
X-70.026 Y-53.049
X-69.465 Y-53.539
X-68.883 Y-54.004
X-68.28 Y-54.442
X-67.659 Y-54.853
X-67.021 Y-55.237
X-66.366 Y-55.593
X-65.696 Y-55.92
X-65.013 Y-56.216
X-64.317 Y-56.483
X-63.61 Y-56.719
X-62.894 Y-56.924
X-62.17 Y-57.098
X-61.438 Y-57.238
X-60.701 Y-57.346
X-59.959 Y-57.421
X-59.216 Y-57.464
X-58.471 Y-57.475
X-57.726 Y-57.452
X-56.983 Y-57.398
X-56.243 Y-57.311
X-55.507 Y-57.191
X-54.778 Y-57.04
X-54.056 Y-56.857
X-53.342 Y-56.641
X-52.639 Y-56.395
X-51.947 Y-56.119
X-51.268 Y-55.813
X-50.602 Y-55.478
X-49.951 Y-55.116
X-49.316 Y-54.726
X-48.698 Y-54.31
X-48.098 Y-53.868
X-47.518 Y-53.401
X-46.957 Y-52.91
X-46.418 Y-52.396
X-45.902 Y-51.859
X-45.408 Y-51.301
X-44.937 Y-50.724
X-44.491 Y-50.127
X-44.07 Y-49.512
X-43.674 Y-48.881
X-43.306 Y-48.233
X-42.964 Y-47.571
X-42.65 Y-46.896
X-42.365 Y-46.207
X-42.109 Y-45.507
X-41.883 Y-44.797
X-41.687 Y-44.079
X-41.52 Y-43.353
X-41.384 Y-42.62
X-41.278 Y-41.882
X-41.204 Y-41.141
X-41.161 Y-40.397
X-41.149 Y-39.652
X-41.168 Y-38.908
X-41.22 Y-38.164
X-41.303 Y-37.424
X-41.419 Y-36.688
X-41.565 Y-35.957
X-41.742 Y-35.234
X-41.949 Y-34.518
X-42.187 Y-33.812
X-42.454 Y-33.116
X-42.751 Y-32.433
X-43.075 Y-31.762
X-43.428 Y-31.106
X-43.809 Y-30.466
X-44.218 Y-29.843
X-44.652 Y-29.237
X-45.111 Y-28.651
X-45.595 Y-28.084
X-46.102 Y-27.538
X-46.632 Y-27.014
X-47.183 Y-26.512
X-47.754 Y-26.034
X-48.345 Y-25.581
X-48.955 Y-25.152
X-49.583 Y-24.751
X-50.227 Y-24.377
X-50.886 Y-24.03
X-51.56 Y-23.711
X-52.245 Y-23.42
X-52.943 Y-23.158
X-53.651 Y-22.925
X-54.368 Y-22.722
X-55.092 Y-22.549
X-55.823 Y-22.405
X-56.56 Y-22.292
X-57.3 Y-22.21
X-58.044 Y-22.159
X-58.788 Y-22.14
X-59.533 Y-22.151
X-60.277 Y-22.192
X-61.019 Y-22.264
X-61.757 Y-22.367
X-62.49 Y-22.5
X-63.217 Y-22.662
X-63.937 Y-22.854
X-64.648 Y-23.075
X-65.35 Y-23.325
X-66.041 Y-23.605
X-66.719 Y-23.913
X-67.385 Y-24.248
X-68.036 Y-24.61
X-68.672 Y-24.998
X-69.292 Y-25.411
X-69.894 Y-25.85
X-70.478 Y-26.312
X-71.043 Y-26.798
X-71.589 Y-27.306
X-72.113 Y-27.835
X-72.614 Y-28.386
X-73.093 Y-28.957
X-73.547 Y-29.548
X-73.978 Y-30.156
X-74.384 Y-30.78
X-74.765 Y-31.421
X-75.119 Y-32.076
X-75.446 Y-32.746
X-75.746 Y-33.427
X-76.019 Y-34.121
X-76.265 Y-34.824
X-76.48 Y-35.537
X-76.667 Y-36.259
X-76.824 Y-36.987
X-76.951 Y-37.721
X-77.049 Y-38.46
X-77.118 Y-39.202
X-77.156 Y-39.946
X-77.165 Y-40.691
X-77.144 Y-41.436
X-77.093 Y-42.179
X-77.012 Y-42.92
X-76.902 Y-43.657
X-76.762 Y-44.388
X-76.592 Y-45.114
X-76.392 Y-45.832
X-76.165 Y-46.541
X-75.909 Y-47.241
X-75.626 Y-47.93
X-75.315 Y-48.607
X-74.977 Y-49.271
X-74.613 Y-49.921
X-74.223 Y-50.556
X-73.809 Y-51.175
X-73.369 Y-51.777
X-72.905 Y-52.36
X-72.419 Y-52.924
X-71.91 Y-53.468
X-71.379 Y-53.991
X-70.829 Y-54.493
X-70.258 Y-54.973
X-69.669 Y-55.429
X-69.062 Y-55.861
X-68.438 Y-56.268
X-67.799 Y-56.651
X-67.145 Y-57.007
X-66.476 Y-57.337
X-65.795 Y-57.639
X-65.102 Y-57.913
X-64.399 Y-58.159
X-63.687 Y-58.378
X-62.967 Y-58.568
X-62.239 Y-58.728
X-61.506 Y-58.859
X-60.767 Y-58.961
X-60.026 Y-59.033
X-59.282 Y-59.077
X-58.537 Y-59.089
X-57.792 Y-59.071
X-57.049 Y-59.023
X-56.308 Y-58.946
X-55.57 Y-58.839
X-54.838 Y-58.703
X-54.111 Y-58.537
X-53.392 Y-58.343
X-52.681 Y-58.12
X-51.979 Y-57.87
X-51.288 Y-57.592
X-50.608 Y-57.287
X-49.941 Y-56.955
X-49.288 Y-56.597
X-48.649 Y-56.214
X-48.025 Y-55.806
X-47.418 Y-55.375
X-46.827 Y-54.92
X-46.255 Y-54.443
X-45.701 Y-53.945
X-45.167 Y-53.425
X-44.653 Y-52.886
X-44.16 Y-52.327
X-43.689 Y-51.75
X-43.24 Y-51.155
X-42.815 Y-50.544
X-42.414 Y-49.916
X-42.036 Y-49.273
X-41.683 Y-48.617
X-41.356 Y-47.948
X-41.054 Y-47.267
X-40.778 Y-46.575
X-40.53 Y-45.872
X-40.308 Y-45.161
X-40.113 Y-44.442
X-39.945 Y-43.716
X-39.806 Y-42.984
X-39.697 Y-42.247
X-39.615 Y-41.507
X-39.562 Y-40.763
X-39.537 Y-40.019
X-39.542 Y-39.274
X-39.575 Y-38.529
X-39.637 Y-37.787
X-39.728 Y-37.047
X-39.847 Y-36.312
X-39.995 Y-35.582
X-40.17 Y-34.858
X-40.375 Y-34.141
X-40.608 Y-33.433
X-40.868 Y-32.735
X-41.155 Y-32.048
X-41.468 Y-31.372
X-41.807 Y-30.708
X-42.172 Y-30.058
X-42.561 Y-29.423
X-42.975 Y-28.804
X-43.413 Y-28.201
X-43.873 Y-27.615
X-44.355 Y-27.047
X-44.86 Y-26.499
X-45.386 Y-25.971
X-45.932 Y-25.464
X-46.496 Y-24.978
X-47.079 Y-24.514
X-47.68 Y-24.073
X-48.297 Y-23.655
X-48.93 Y-23.262
X-49.577 Y-22.893
X-50.238 Y-22.55
X-50.912 Y-22.231
X-51.597 Y-21.939
X-52.294 Y-21.674
X-53 Y-21.436
X-53.714 Y-21.226
X-54.436 Y-21.042
X-55.165 Y-20.886
X-55.899 Y-20.757
X-56.637 Y-20.657
X-57.379 Y-20.585
X-58.122 Y-20.541
X-58.867 Y-20.525
X-59.612 Y-20.537
X-60.356 Y-20.577
X-61.098 Y-20.647
X-61.837 Y-20.744
X-62.571 Y-20.87
X-63.3 Y-21.023
X-64.023 Y-21.203
X-64.739 Y-21.409
X-65.447 Y-21.643
X-66.145 Y-21.903
X-66.833 Y-22.189
X-67.509 Y-22.501
X-68.174 Y-22.838
X-68.826 Y-23.199
X-69.463 Y-23.585
X-70.085 Y-23.995
X-70.691 Y-24.428
X-71.281 Y-24.883
X-71.854 Y-25.36
X-72.408 Y-25.858
X-72.944 Y-26.376
X-73.46 Y-26.913
X-73.955 Y-27.47
X-74.429 Y-28.044
X-74.882 Y-28.636
X-75.313 Y-29.244
X-75.72 Y-29.868
X-76.104 Y-30.506
X-76.463 Y-31.159
X-76.798 Y-31.825
X-77.108 Y-32.502
X-77.393 Y-33.191
X-77.652 Y-33.889
X-77.885 Y-34.597
X-78.092 Y-35.313
X-78.272 Y-36.036
X-78.426 Y-36.765
X-78.552 Y-37.499
X-78.651 Y-38.237
X-78.723 Y-38.979
X-78.766 Y-39.723
X-78.781 Y-40.468
X-78.769 Y-41.213
X-78.73 Y-41.957
X-78.664 Y-42.699
X-78.571 Y-43.438
X-78.45 Y-44.173
X-78.302 Y-44.903
X-78.127 Y-45.628
X-77.925 Y-46.345
X-77.698 Y-47.055
X-77.444 Y-47.755
X-77.164 Y-48.445
X-76.858 Y-49.125
X-76.528 Y-49.793
X-76.173 Y-50.448
X-75.795 Y-51.09
X-75.393 Y-51.717
X-74.969 Y-52.33
X-74.522 Y-52.926
X-74.053 Y-53.505
X-73.563 Y-54.067
X-73.054 Y-54.61
X-72.524 Y-55.134
X-71.975 Y-55.638
X-71.408 Y-56.121
X-70.823 Y-56.582
X-70.222 Y-57.022
X-69.604 Y-57.44
X-68.973 Y-57.834
X-68.327 Y-58.206
X-67.667 Y-58.553
X-66.996 Y-58.875
X-66.313 Y-59.173
X-65.619 Y-59.445
X-64.916 Y-59.692
X-64.204 Y-59.912
X-63.485 Y-60.105
X-62.758 Y-60.271
X-62.026 Y-60.411
X-61.29 Y-60.523
X-60.55 Y-60.609
X-59.807 Y-60.667
X-59.063 Y-60.698
X-58.317 Y-60.701
X-57.573 Y-60.677
X-56.83 Y-60.626
X-56.089 Y-60.547
X-55.351 Y-60.442
X-54.618 Y-60.308
X-53.891 Y-60.147
X-53.169 Y-59.96
X-52.456 Y-59.746
X-51.75 Y-59.507
X-51.054 Y-59.242
X-50.367 Y-58.953
X-49.692 Y-58.638
X-49.028 Y-58.299
X-48.377 Y-57.937
X-47.739 Y-57.552
X-47.116 Y-57.144
X-46.507 Y-56.714
X-45.915 Y-56.262
X-45.339 Y-55.789
X-44.781 Y-55.296
X-44.24 Y-54.783
X-43.718 Y-54.252
X-43.214 Y-53.703
X-42.73 Y-53.136
X-42.267 Y-52.553
X-41.824 Y-51.954
X-41.403 Y-51.339
X-41.004 Y-50.71
X-40.626 Y-50.068
X-40.272 Y-49.412
X-39.942 Y-48.744
X-39.635 Y-48.065
X-39.353 Y-47.376
X-39.096 Y-46.676
X-38.863 Y-45.969
X-38.654 Y-45.253
X-38.471 Y-44.531
X-38.314 Y-43.803
X-38.183 Y-43.069
X-38.078 Y-42.332
X-37.999 Y-41.591
X-37.946 Y-40.848
X-37.92 Y-40.103
X-37.921 Y-39.358
X-37.949 Y-38.614
X-38.004 Y-37.871
X-38.086 Y-37.13
X-38.193 Y-36.393
X-38.327 Y-35.66
X-38.487 Y-34.932
X-38.672 Y-34.21
X-38.884 Y-33.496
X-39.121 Y-32.79
X-39.384 Y-32.092
X-39.67 Y-31.405
X-39.982 Y-30.728
X-40.318 Y-30.063
X-40.678 Y-29.411
X-41.061 Y-28.771
X-41.466 Y-28.146
X-41.894 Y-27.536
X-42.342 Y-26.941
X-42.812 Y-26.363
X-43.302 Y-25.802
X-43.812 Y-25.258
X-44.341 Y-24.734
X-44.888 Y-24.228
X-45.452 Y-23.742
X-46.034 Y-23.276
X-46.633 Y-22.832
X-47.247 Y-22.41
X-47.875 Y-22.01
X-48.518 Y-21.633
X-49.173 Y-21.278
X-49.84 Y-20.947
X-50.519 Y-20.639
X-51.208 Y-20.356
X-51.907 Y-20.097
X-52.614 Y-19.863
X-53.329 Y-19.654
X-54.051 Y-19.47
X-54.779 Y-19.312
X-55.512 Y-19.18
X-56.25 Y-19.074
X-56.991 Y-18.994
X-57.734 Y-18.941
X-58.478 Y-18.913
X-59.223 Y-18.911
X-59.968 Y-18.934
X-60.711 Y-18.985
X-61.453 Y-19.061
X-62.191 Y-19.163
X-62.925 Y-19.29
X-63.654 Y-19.443
X-64.377 Y-19.621
X-65.094 Y-19.825
X-65.803 Y-20.054
X-66.504 Y-20.307
X-67.195 Y-20.585
X-67.877 Y-20.886
X-68.547 Y-21.21
X-69.206 Y-21.558
X-69.853 Y-21.928
X-70.486 Y-22.32
X-71.106 Y-22.735
X-71.711 Y-23.17
X-72.3 Y-23.625
X-72.874 Y-24.101
X-73.43 Y-24.597
X-73.968 Y-25.111
X-74.489 Y-25.645
X-74.991 Y-26.195
X-75.473 Y-26.763
X-75.936 Y-27.347
X-76.379 Y-27.946
X-76.801 Y-28.56
X-77.201 Y-29.188
X-77.58 Y-29.83
X-77.936 Y-30.485
X-78.27 Y-31.151
X-78.58 Y-31.828
X-78.867 Y-32.516
X-79.13 Y-33.213
X-79.369 Y-33.919
X-79.583 Y-34.632
X-79.773 Y-35.353
X-79.938 Y-36.079
X-80.078 Y-36.811
X-80.193 Y-37.547
X-80.283 Y-38.287
X-80.347 Y-39.029
X-80.386 Y-39.773
X-80.4 Y-40.518
X-80.388 Y-41.263
X-80.351 Y-42.007
X-80.287 Y-42.749
X-80.198 Y-43.489
X-80.084 Y-44.225
X-79.945 Y-44.957
X-79.781 Y-45.684
X-79.592 Y-46.405
X-79.379 Y-47.119
X-79.142 Y-47.825
X-78.88 Y-48.523
X-78.595 Y-49.211
X-78.286 Y-49.889
X-77.955 Y-50.557
X-77.601 Y-51.212
X-77.225 Y-51.855
X-76.827 Y-52.485
X-76.407 Y-53.101
X-75.966 Y-53.701
X-75.505 Y-54.287
X-75.025 Y-54.856
X-74.526 Y-55.409
X-74.008 Y-55.945
X-73.472 Y-56.463
X-72.919 Y-56.962
X-72.349 Y-57.441
X-71.762 Y-57.901
X-71.161 Y-58.341
X-70.545 Y-58.76
X-69.915 Y-59.157
X-69.271 Y-59.533
X-68.615 Y-59.886
X-67.947 Y-60.216
X-67.269 Y-60.524
X-66.58 Y-60.809
X-65.882 Y-61.07
X-65.176 Y-61.307
X-64.462 Y-61.519
X-63.741 Y-61.707
X-63.014 Y-61.871
X-62.282 Y-62.009
X-61.546 Y-62.123
X-60.806 Y-62.211
X-60.063 Y-62.273
X-59.319 Y-62.31
X-58.574 Y-62.321
X-57.829 Y-62.307
X-57.085 Y-62.268
X-56.343 Y-62.204
X-55.603 Y-62.114
X-54.867 Y-62
X-54.135 Y-61.86
X-53.409 Y-61.695
X-52.688 Y-61.506
X-51.974 Y-61.292
X-51.268 Y-61.055
X-50.57 Y-60.793
X-49.882 Y-60.508
X-49.204 Y-60.2
X-48.536 Y-59.869
X-47.88 Y-59.516
X-47.236 Y-59.142
X-46.604 Y-58.746
X-45.986 Y-58.33
X-45.382 Y-57.894
X-44.793 Y-57.437
X-44.22 Y-56.962
X-43.662 Y-56.468
X-43.121 Y-55.956
X-42.597 Y-55.426
X-42.091 Y-54.879
X-41.604 Y-54.316
X-41.135 Y-53.736
X-40.685 Y-53.142
X-40.255 Y-52.534
X-39.845 Y-51.912
X-39.456 Y-51.277
X-39.087 Y-50.629
X-38.74 Y-49.97
X-38.414 Y-49.3
X-38.111 Y-48.619
X-37.831 Y-47.929
X-37.572 Y-47.23
X-37.337 Y-46.523
X-37.126 Y-45.809
X-36.939 Y-45.088
X-36.775 Y-44.361
X-36.635 Y-43.629
X-36.52 Y-42.893
X-36.428 Y-42.153
X-36.361 Y-41.411
X-36.318 Y-40.668
X-36.3 Y-39.923
X-36.307 Y-39.178
X-36.338 Y-38.433
X-36.395 Y-37.69
X-36.475 Y-36.95
X-36.581 Y-36.212
X-36.711 Y-35.478
X-36.866 Y-34.75
X-37.045 Y-34.026
X-37.248 Y-33.31
X-37.475 Y-32.6
X-37.724 Y-31.898
X-37.997 Y-31.205
X-38.293 Y-30.521
X-38.611 Y-29.847
X-38.952 Y-29.185
X-39.315 Y-28.534
X-39.699 Y-27.895
X-40.103 Y-27.27
X-40.529 Y-26.658
X-40.975 Y-26.061
X-41.44 Y-25.479
X-41.925 Y-24.913
X-42.428 Y-24.364
X-42.948 Y-23.831
X-43.486 Y-23.315
X-44.041 Y-22.818
X-44.612 Y-22.339
X-45.198 Y-21.879
X-45.799 Y-21.439
X-46.415 Y-21.019
X-47.044 Y-20.62
X-47.685 Y-20.241
X-48.34 Y-19.885
X-49.005 Y-19.55
X-49.681 Y-19.237
X-50.368 Y-18.947
X-51.063 Y-18.68
X-51.767 Y-18.435
X-52.478 Y-18.213
X-53.196 Y-18.014
X-53.92 Y-17.839
X-54.65 Y-17.688
X-55.384 Y-17.561
X-56.122 Y-17.458
X-56.863 Y-17.379
X-57.606 Y-17.324
X-58.35 Y-17.294
X-59.095 Y-17.288
X-59.84 Y-17.307
X-60.584 Y-17.35
X-61.326 Y-17.417
X-62.066 Y-17.508
X-62.802 Y-17.622
X-63.534 Y-17.761
X-64.261 Y-17.922
X-64.983 Y-18.108
X-65.698 Y-18.317
X-66.406 Y-18.548
X-67.106 Y-18.803
X-67.798 Y-19.08
X-68.48 Y-19.379
X-69.153 Y-19.7
X-69.814 Y-20.043
X-70.464 Y-20.408
X-71.102 Y-20.793
X-71.727 Y-21.198
X-72.339 Y-21.623
X-72.937 Y-22.067
X-73.521 Y-22.531
X-74.089 Y-23.012
X-74.641 Y-23.512
X-75.178 Y-24.03
X-75.697 Y-24.564
X-76.199 Y-25.114
X-76.683 Y-25.681
X-77.148 Y-26.263
X-77.595 Y-26.859
X-78.021 Y-27.47
X-78.428 Y-28.094
X-78.815 Y-28.731
X-79.182 Y-29.379
X-79.528 Y-30.039
X-79.852 Y-30.71
X-80.155 Y-31.391
X-80.436 Y-32.081
X-80.695 Y-32.779
X-80.931 Y-33.486
X-81.145 Y-34.2
X-81.336 Y-34.92
X-81.504 Y-35.646
X-81.648 Y-36.377
X-81.768 Y-37.112
X-81.865 Y-37.851
X-81.939 Y-38.592
X-81.988 Y-39.336
X-82.015 Y-40.08
X-82.017 Y-40.825
X-81.997 Y-41.57
X-81.952 Y-42.314
X-81.883 Y-43.056
X-81.791 Y-43.795
X-81.676 Y-44.531
X-81.537 Y-45.263
X-81.375 Y-45.99
X-81.19 Y-46.712
X-80.981 Y-47.427
X-80.75 Y-48.136
X-80.496 Y-48.836
X-80.22 Y-49.528
X-79.923 Y-50.211
X-79.604 Y-50.885
X-79.264 Y-51.548
X-78.903 Y-52.199
X-78.521 Y-52.839
X-78.12 Y-53.467
X-77.698 Y-54.081
X-77.257 Y-54.682
X-76.798 Y-55.268
X-76.319 Y-55.84
X-75.823 Y-56.395
X-75.309 Y-56.935
X-74.778 Y-57.458
X-74.231 Y-57.963
X-73.668 Y-58.452
X-73.09 Y-58.922
X-72.498 Y-59.373
X-71.891 Y-59.806
X-71.271 Y-60.219
X-70.638 Y-60.612
X-69.993 Y-60.985
X-69.337 Y-61.337
X-68.67 Y-61.669
X-67.992 Y-61.978
X-67.305 Y-62.266
X-66.608 Y-62.532
X-65.904 Y-62.775
X-65.192 Y-62.995
X-64.474 Y-63.193
X-63.75 Y-63.369
X-63.021 Y-63.521
X-62.287 Y-63.65
X-61.549 Y-63.756
X-60.809 Y-63.838
X-60.066 Y-63.896
X-59.322 Y-63.931
X-58.577 Y-63.943
X-57.832 Y-63.93
X-57.088 Y-63.894
X-56.345 Y-63.834
X-55.605 Y-63.75
X-54.867 Y-63.643
X-54.134 Y-63.512
X-53.405 Y-63.358
X-52.681 Y-63.182
X-51.963 Y-62.983
X-51.252 Y-62.761
X-50.548 Y-62.517
X-49.852 Y-62.251
X-49.165 Y-61.963
X-48.487 Y-61.654
X-47.819 Y-61.324
X-47.161 Y-60.973
X-46.516 Y-60.602
X-45.882 Y-60.21
X-45.26 Y-59.799
X-44.652 Y-59.369
X-44.057 Y-58.921
X-43.476 Y-58.454
X-42.91 Y-57.97
X-42.358 Y-57.469
X-41.823 Y-56.951
X-41.303 Y-56.417
X-40.8 Y-55.867
X-40.315 Y-55.302
X-39.847 Y-54.722
X-39.396 Y-54.129
X-38.964 Y-53.522
X-38.552 Y-52.901
X-38.158 Y-52.269
X-37.784 Y-51.624
X-37.43 Y-50.969
X-37.096 Y-50.303
X-36.783 Y-49.627
X-36.49 Y-48.942
X-36.218 Y-48.248
X-35.967 Y-47.546
X-35.738 Y-46.837
X-35.531 Y-46.122
X-35.346 Y-45.4
X-35.183 Y-44.673
X-35.042 Y-43.941
X-34.925 Y-43.206
X-34.83 Y-42.467
X-34.758 Y-41.725
X-34.709 Y-40.982
X-34.683 Y-40.237
X-34.68 Y-39.492
X-34.7 Y-38.747
X-34.743 Y-38.003
X-34.809 Y-37.261
X-34.897 Y-36.521
X-35.009 Y-35.785
X-35.143 Y-35.052
X-35.3 Y-34.324
X-35.48 Y-33.6
X-35.682 Y-32.883
X-35.906 Y-32.173
X-36.153 Y-31.47
X-36.421 Y-30.775
X-36.711 Y-30.088
X-37.021 Y-29.411
X-37.353 Y-28.744
X-37.705 Y-28.087
X-38.077 Y-27.442
X-38.469 Y-26.808
X-38.88 Y-26.186
X-39.31 Y-25.578
X-39.759 Y-24.984
X-40.226 Y-24.403
X-40.711 Y-23.837
X-41.213 Y-23.286
X-41.732 Y-22.752
X-42.267 Y-22.234
X-42.818 Y-21.732
X-43.385 Y-21.248
X-43.966 Y-20.782
X-44.561 Y-20.333
X-45.169 Y-19.904
X-45.791 Y-19.492
X-46.424 Y-19.101
X-47.07 Y-18.729
X-47.727 Y-18.377
X-48.394 Y-18.045
X-49.071 Y-17.734
X-49.757 Y-17.444
X-50.452 Y-17.175
X-51.155 Y-16.928
X-51.865 Y-16.703
X-52.582 Y-16.499
X-53.304 Y-16.317
X-54.032 Y-16.158
X-54.764 Y-16.02
X-55.5 Y-15.905
X-56.24 Y-15.813
X-56.981 Y-15.743
X-57.725 Y-15.695
X-58.47 Y-15.67
X-59.215 Y-15.668
X-59.959 Y-15.689
X-60.703 Y-15.732
X-61.445 Y-15.797
X-62.185 Y-15.886
X-62.922 Y-15.997
X-63.655 Y-16.13
X-64.384 Y-16.285
X-65.107 Y-16.463
X-65.825 Y-16.662
X-66.537 Y-16.882
X-67.242 Y-17.124
X-67.939 Y-17.387
X-68.628 Y-17.671
X-69.308 Y-17.975
X-69.978 Y-18.3
X-70.639 Y-18.645
X-71.288 Y-19.01
X-71.927 Y-19.394
X-72.553 Y-19.797
X-73.167 Y-20.22
X-73.768 Y-20.66
X-74.355 Y-21.119
X-74.929 Y-21.594
X-75.488 Y-22.087
X-76.031 Y-22.596
X-76.56 Y-23.121
X-77.073 Y-23.662
X-77.569 Y-24.218
X-78.048 Y-24.788
X-78.51 Y-25.373
X-78.954 Y-25.971
X-79.38 Y-26.583
X-79.788 Y-27.206
X-80.176 Y-27.842
X-80.545 Y-28.489
X-80.895 Y-29.147
X-81.225 Y-29.815
X-81.534 Y-30.493
X-81.824 Y-31.18
X-82.092 Y-31.874
X-82.34 Y-32.577
X-82.567 Y-33.287
X-82.773 Y-34.003
X-82.957 Y-34.725
X-83.12 Y-35.452
X-83.261 Y-36.183
X-83.38 Y-36.919
X-83.477 Y-37.658
X-83.552 Y-38.399
X-83.604 Y-39.142
X-83.634 Y-39.887
X-83.642 Y-40.632
X-83.628 Y-41.376
X-83.591 Y-42.121
X-83.533 Y-42.863
X-83.452 Y-43.604
X-83.35 Y-44.342
X-83.226 Y-45.077
X-83.08 Y-45.807
X-82.912 Y-46.533
X-82.723 Y-47.254
X-82.512 Y-47.969
X-82.28 Y-48.677
X-82.027 Y-49.378
X-81.753 Y-50.07
X-81.459 Y-50.755
X-81.144 Y-51.43
X-80.809 Y-52.096
X-80.455 Y-52.751
X-80.081 Y-53.396
X-79.689 Y-54.029
X-79.278 Y-54.65
X-78.848 Y-55.259
X-78.401 Y-55.855
X-77.936 Y-56.438
X-77.454 Y-57.006
X-76.956 Y-57.559
X-76.441 Y-58.098
X-75.911 Y-58.621
X-75.365 Y-59.128
X-74.803 Y-59.618
X-74.228 Y-60.092
X-73.639 Y-60.548
X-73.036 Y-60.986
X-72.421 Y-61.406
X-71.793 Y-61.808
X-71.154 Y-62.191
X-70.504 Y-62.555
X-69.844 Y-62.899
X-69.173 Y-63.224
X-68.493 Y-63.528
X-67.804 Y-63.813
X-67.107 Y-64.076
X-66.403 Y-64.319
X-65.692 Y-64.541
X-64.974 Y-64.741
X-64.251 Y-64.92
X-63.522 Y-65.076
X-62.79 Y-65.212
X-62.053 Y-65.325
X-61.314 Y-65.417
X-60.572 Y-65.486
X-59.829 Y-65.534
X-59.084 Y-65.559
X-58.339 Y-65.563
X-57.594 Y-65.544
X-56.85 Y-65.503
X-56.108 Y-65.44
X-55.367 Y-65.355
X-54.63 Y-65.249
X-53.896 Y-65.12
X-53.167 Y-64.969
X-52.442 Y-64.797
X-51.722 Y-64.603
X-51.009 Y-64.388
X-50.302 Y-64.152
X-49.603 Y-63.895
X-48.911 Y-63.619
X-48.228 Y-63.322
X-47.553 Y-63.005
X-46.888 Y-62.669
X-46.234 Y-62.313
X-45.59 Y-61.938
X-44.957 Y-61.545
X-44.336 Y-61.134
X-43.726 Y-60.705
X-43.13 Y-60.258
X-42.547 Y-59.794
X-41.978 Y-59.313
X-41.423 Y-58.816
X-40.883 Y-58.303
X-40.357 Y-57.775
X-39.847 Y-57.233
X-39.352 Y-56.675
X-38.874 Y-56.104
X-38.412 Y-55.52
X-37.967 Y-54.922
X-37.539 Y-54.312
X-37.129 Y-53.69
X-36.737 Y-53.056
X-36.364 Y-52.411
X-36.008 Y-51.756
X-35.673 Y-51.091
X-35.356 Y-50.417
X-35.059 Y-49.733
X-34.782 Y-49.042
X-34.525 Y-48.343
X-34.288 Y-47.636
X-34.071 Y-46.924
X-33.874 Y-46.205
X-33.699 Y-45.481
X-33.544 Y-44.752
X-33.41 Y-44.019
X-33.297 Y-43.283
X-33.206 Y-42.543
X-33.136 Y-41.801
X-33.087 Y-41.058
X-33.06 Y-40.313
X-33.055 Y-39.568
X-33.072 Y-38.823
X-33.11 Y-38.079
X-33.17 Y-37.337
X-33.251 Y-36.596
X-33.354 Y-35.858
X-33.478 Y-35.123
X-33.623 Y-34.393
X-33.789 Y-33.666
X-33.977 Y-32.945
X-34.185 Y-32.23
X-34.414 Y-31.521
X-34.663 Y-30.819
X-34.933 Y-30.124
X-35.223 Y-29.438
X-35.532 Y-28.76
X-35.862 Y-28.092
X-36.211 Y-27.434
X-36.578 Y-26.786
X-36.965 Y-26.149
X-37.37 Y-25.523
X-37.792 Y-24.91
X-38.232 Y-24.308
X-38.69 Y-23.72
X-39.164 Y-23.145
X-39.654 Y-22.585
X-40.161 Y-22.038
X-40.683 Y-21.507
X-41.22 Y-20.991
X-41.772 Y-20.49
X-42.338 Y-20.006
X-42.919 Y-19.538
X-43.512 Y-19.088
X-44.118 Y-18.655
X-44.737 Y-18.24
X-45.368 Y-17.843
X-46.009 Y-17.464
X-46.661 Y-17.103
X-47.323 Y-16.762
X-47.995 Y-16.44
X-48.676 Y-16.137
X-49.365 Y-15.854
X-50.062 Y-15.59
X-50.766 Y-15.347
X-51.477 Y-15.124
X-52.194 Y-14.922
X-52.917 Y-14.74
X-53.644 Y-14.579
X-54.376 Y-14.439
X-55.112 Y-14.32
X-55.85 Y-14.223
X-56.591 Y-14.146
X-57.334 Y-14.091
X-58.079 Y-14.057
X-58.824 Y-14.044
X-59.569 Y-14.052
X-60.313 Y-14.081
X-61.056 Y-14.131
X-61.798 Y-14.203
X-62.537 Y-14.296
X-63.274 Y-14.41
X-64.006 Y-14.544
X-64.735 Y-14.699
X-65.459 Y-14.875
X-66.178 Y-15.072
X-66.891 Y-15.289
X-67.597 Y-15.526
X-68.296 Y-15.784
X-68.988 Y-16.06
X-69.671 Y-16.357
X-70.346 Y-16.672
X-71.012 Y-17.006
X-71.668 Y-17.359
X-72.314 Y-17.731
X-72.95 Y-18.12
X-73.573 Y-18.527
X-74.186 Y-18.952
X-74.786 Y-19.394
X-75.373 Y-19.852
X-75.947 Y-20.327
X-76.507 Y-20.818
X-77.054 Y-21.325
X-77.585 Y-21.847
X-78.102 Y-22.384
X-78.603 Y-22.935
X-79.089 Y-23.5
X-79.559 Y-24.078
X-80.012 Y-24.669
X-80.449 Y-25.273
X-80.868 Y-25.889
X-81.27 Y-26.516
X-81.655 Y-27.154
X-82.021 Y-27.803
X-82.369 Y-28.462
X-82.698 Y-29.13
X-83.008 Y-29.808
X-83.299 Y-30.494
X-83.571 Y-31.188
X-83.822 Y-31.889
X-84.055 Y-32.597
X-84.267 Y-33.311
X-84.459 Y-34.031
X-84.631 Y-34.756
X-84.782 Y-35.485
X-84.914 Y-36.219
X-85.024 Y-36.955
X-85.114 Y-37.695
X-85.184 Y-38.437
X-85.232 Y-39.18
X-85.26 Y-39.925
X-85.266 Y-40.67
X-85.252 Y-41.415
X-85.218 Y-42.159
X-85.161 Y-42.902
X-85.084 Y-43.643
X-84.987 Y-44.382
X-84.869 Y-45.117
X-84.73 Y-45.85
X-84.571 Y-46.577
X-84.392 Y-47.301
X-84.192 Y-48.018
X-83.973 Y-48.731
X-83.734 Y-49.436
X-83.475 Y-50.135
X-83.197 Y-50.826
X-82.9 Y-51.509
X-82.584 Y-52.184
X-82.249 Y-52.849
X-81.895 Y-53.505
X-81.523 Y-54.151
X-81.134 Y-54.786
X-80.726 Y-55.41
X-80.301 Y-56.022
X-79.86 Y-56.622
X-79.401 Y-57.209
X-78.927 Y-57.784
X-78.437 Y-58.345
X-77.931 Y-58.892
X-77.411 Y-59.425
X-76.875 Y-59.943
X-76.326 Y-60.446
X-75.762 Y-60.934
X-75.185 Y-61.405
X-74.596 Y-61.861
X-73.993 Y-62.299
X-73.379 Y-62.721
X-72.753 Y-63.125
X-72.116 Y-63.511
X-71.468 Y-63.879
X-70.81 Y-64.23
X-70.143 Y-64.561
X-69.467 Y-64.874
X-68.783 Y-65.168
X-68.09 Y-65.443
X-67.39 Y-65.699
X-66.683 Y-65.935
X-65.97 Y-66.15
X-65.252 Y-66.346
X-64.527 Y-66.522
X-63.799 Y-66.678
X-63.066 Y-66.813
X-62.33 Y-66.928
X-61.591 Y-67.021
X-60.849 Y-67.094
X-60.106 Y-67.146
X-59.362 Y-67.178
X-58.617 Y-67.188
X-57.872 Y-67.178
X-57.127 Y-67.147
X-56.384 Y-67.096
X-55.642 Y-67.024
X-54.903 Y-66.931
X-54.167 Y-66.818
X-53.434 Y-66.684
X-52.705 Y-66.53
X-51.981 Y-66.355
X-51.261 Y-66.161
X-50.548 Y-65.947
X-49.84 Y-65.712
X-49.14 Y-65.459
X-48.447 Y-65.185
X-47.761 Y-64.893
X-47.084 Y-64.582
X-46.416 Y-64.253
X-45.757 Y-63.905
X-45.108 Y-63.54
X-44.469 Y-63.157
X-43.84 Y-62.756
X-43.223 Y-62.339
X-42.617 Y-61.905
X-42.024 Y-61.455
X-41.443 Y-60.989
X-40.874 Y-60.507
X-40.319 Y-60.01
X-39.778 Y-59.498
X-39.251 Y-58.971
X-38.739 Y-58.43
X-38.241 Y-57.876
X-37.759 Y-57.308
X-37.292 Y-56.727
X-36.841 Y-56.134
X-36.405 Y-55.529
X-35.987 Y-54.913
X-35.585 Y-54.286
X-35.2 Y-53.648
X-34.832 Y-53
X-34.483 Y-52.342
X-34.151 Y-51.675
X-33.837 Y-50.999
X-33.541 Y-50.315
X-33.264 Y-49.624
X-33.006 Y-48.925
X-32.767 Y-48.219
X-32.547 Y-47.507
X-32.347 Y-46.789
X-32.166 Y-46.067
X-32.005 Y-45.339
X-31.863 Y-44.608
X-31.741 Y-43.873
X-31.64 Y-43.135
X-31.558 Y-42.394
X-31.496 Y-41.652
X-31.454 Y-40.908
X-31.433 Y-40.163
X-31.432 Y-39.418
X-31.452 Y-38.673
X-31.491 Y-37.929
X-31.551 Y-37.186
X-31.631 Y-36.446
X-31.732 Y-35.707
X-31.853 Y-34.972
X-31.994 Y-34.241
X-32.155 Y-33.513
X-32.336 Y-32.79
X-32.536 Y-32.073
X-32.756 Y-31.361
X-32.995 Y-30.655
X-33.253 Y-29.956
X-33.53 Y-29.265
X-33.826 Y-28.581
X-34.141 Y-27.906
X-34.474 Y-27.239
X-34.825 Y-26.582
X-35.194 Y-25.935
X-35.58 Y-25.297
X-35.983 Y-24.671
X-36.404 Y-24.056
X-36.842 Y-23.453
X-37.295 Y-22.862
X-37.765 Y-22.284
X-38.25 Y-21.718
X-38.751 Y-21.166
X-39.266 Y-20.628
X-39.795 Y-20.104
X-40.339 Y-19.594
X-40.896 Y-19.099
X-41.466 Y-18.62
X-42.05 Y-18.157
X-42.645 Y-17.709
X-43.253 Y-17.278
X-43.872 Y-16.863
X-44.502 Y-16.466
X-45.143 Y-16.086
X-45.794 Y-15.723
X-46.455 Y-15.379
X-47.124 Y-15.052
X-47.803 Y-14.744
X-48.489 Y-14.454
X-49.183 Y-14.183
X-49.884 Y-13.93
X-50.591 Y-13.697
X-51.305 Y-13.482
X-52.024 Y-13.287
X-52.748 Y-13.111
X-53.477 Y-12.955
X-54.209 Y-12.819
X-54.945 Y-12.702
X-55.684 Y-12.605
X-56.425 Y-12.528
X-57.168 Y-12.471
X-57.912 Y-12.435
X-58.657 Y-12.418
X-59.402 Y-12.422
X-60.146 Y-12.445
X-60.89 Y-12.489
X-61.633 Y-12.552
X-62.373 Y-12.635
X-63.111 Y-12.738
X-63.846 Y-12.86
X-64.577 Y-13.002
X-65.305 Y-13.164
X-66.027 Y-13.345
X-66.745 Y-13.545
X-67.457 Y-13.764
X-68.163 Y-14.002
X-68.862 Y-14.259
X-69.555 Y-14.535
X-70.239 Y-14.829
X-70.916 Y-15.141
X-71.583 Y-15.472
X-72.242 Y-15.819
X-72.892 Y-16.185
X-73.531 Y-16.567
X-74.16 Y-16.967
X-74.778 Y-17.383
X-75.385 Y-17.815
X-75.981 Y-18.262
X-76.564 Y-18.726
X-77.135 Y-19.205
X-77.692 Y-19.699
X-78.237 Y-20.208
X-78.768 Y-20.731
X-79.284 Y-21.267
X-79.787 Y-21.817
X-80.274 Y-22.381
X-80.746 Y-22.957
X-81.203 Y-23.546
X-81.644 Y-24.147
X-82.069 Y-24.759
X-82.477 Y-25.382
X-82.869 Y-26.016
X-83.244 Y-26.659
X-83.602 Y-27.313
X-83.943 Y-27.975
X-84.266 Y-28.647
X-84.571 Y-29.326
X-84.858 Y-30.014
X-85.127 Y-30.709
X-85.377 Y-31.411
X-85.609 Y-32.119
X-85.822 Y-32.833
X-86.016 Y-33.552
X-86.19 Y-34.276
X-86.346 Y-35.005
X-86.482 Y-35.738
X-86.598 Y-36.474
X-86.695 Y-37.212
X-86.773 Y-37.953
X-86.831 Y-38.696
X-86.87 Y-39.44
X-86.889 Y-40.185
Y-40.93
X-86.869 Y-41.675
X-86.829 Y-42.419
X-86.77 Y-43.161
X-86.691 Y-43.902
X-86.592 Y-44.641
X-86.475 Y-45.377
X-86.337 Y-46.109
X-86.181 Y-46.837
X-86.005 Y-47.561
X-85.809 Y-48.28
X-85.596 Y-48.994
X-85.363 Y-49.702
X-85.112 Y-50.403
X-84.842 Y-51.098
X-84.555 Y-51.785
X-84.249 Y-52.465
X-83.926 Y-53.136
X-83.585 Y-53.799
X-83.227 Y-54.452
X-82.852 Y-55.096
X-82.46 Y-55.729
X-82.051 Y-56.352
X-81.627 Y-56.964
X-81.186 Y-57.565
X-80.729 Y-58.154
X-80.257 Y-58.73
X-79.77 Y-59.294
X-79.268 Y-59.845
X-78.752 Y-60.382
X-78.222 Y-60.906
X-77.678 Y-61.415
X-77.121 Y-61.91
X-76.552 Y-62.39
X-75.97 Y-62.856
X-75.376 Y-63.305
X-74.77 Y-63.739
X-74.153 Y-64.157
X-73.526 Y-64.559
X-72.887 Y-64.943
X-72.24 Y-65.311
X-71.582 Y-65.662
X-70.916 Y-65.995
X-70.241 Y-66.31
X-69.558 Y-66.607
X-68.867 Y-66.887
X-68.169 Y-67.148
X-67.464 Y-67.39
X-66.754 Y-67.614
X-66.037 Y-67.819
X-65.316 Y-68.005
X-64.59 Y-68.173
X-63.86 Y-68.321
X-63.126 Y-68.45
X-62.389 Y-68.56
X-61.65 Y-68.65
X-60.908 Y-68.72
X-60.165 Y-68.771
X-59.42 Y-68.803
X-58.675 Y-68.815
X-57.93 Y-68.807
X-57.186 Y-68.779
X-56.442 Y-68.732
X-55.7 Y-68.665
X-54.96 Y-68.579
X-54.222 Y-68.473
X-53.488 Y-68.348
X-52.757 Y-68.204
X-52.03 Y-68.041
X-51.307 Y-67.859
X-50.59 Y-67.658
X-49.878 Y-67.439
X-49.172 Y-67.2
X-48.472 Y-66.944
X-47.78 Y-66.669
X-47.095 Y-66.377
X-46.417 Y-66.067
X-45.748 Y-65.739
X-45.088 Y-65.393
X-44.437 Y-65.031
X-43.795 Y-64.652
X-43.164 Y-64.257
X-42.543 Y-63.845
X-41.933 Y-63.418
X-41.333 Y-62.975
X-40.746 Y-62.517
X-40.17 Y-62.044
X-39.607 Y-61.557
X-39.056 Y-61.055
X-38.518 Y-60.539
X-37.994 Y-60.01
X-37.483 Y-59.467
X-36.986 Y-58.912
X-36.504 Y-58.344
X-36.036 Y-57.764
X-35.584 Y-57.172
X-35.147 Y-56.569
X-34.725 Y-55.954
X-34.319 Y-55.33
X-33.929 Y-54.695
X-33.556 Y-54.05
X-33.199 Y-53.396
X-32.858 Y-52.733
X-32.535 Y-52.062
X-32.229 Y-51.383
X-31.94 Y-50.696
X-31.669 Y-50.002
X-31.415 Y-49.302
X-31.18 Y-48.595
X-30.962 Y-47.882
X-30.763 Y-47.164
X-30.583 Y-46.441
X-30.42 Y-45.714
X-30.277 Y-44.983
X-30.153 Y-44.248
X-30.047 Y-43.511
X-29.961 Y-42.771
X-29.893 Y-42.029
X-29.844 Y-41.285
X-29.815 Y-40.541
X-29.804 Y-39.796
X-29.813 Y-39.051
X-29.841 Y-38.306
X-29.888 Y-37.563
X-29.954 Y-36.821
X-30.039 Y-36.08
X-30.143 Y-35.343
X-30.266 Y-34.608
X-30.408 Y-33.876
X-30.569 Y-33.149
X-30.749 Y-32.426
X-30.947 Y-31.708
X-31.164 Y-30.995
X-31.4 Y-30.288
X-31.653 Y-29.587
X-31.925 Y-28.894
X-32.214 Y-28.207
X-32.521 Y-27.528
X-32.845 Y-26.857
X-33.186 Y-26.195
X-33.544 Y-25.541
X-33.919 Y-24.897
X-34.31 Y-24.263
X-34.718 Y-23.64
X-35.141 Y-23.027
X-35.58 Y-22.425
X-36.035 Y-21.834
X-36.504 Y-21.255
X-36.988 Y-20.689
X-37.487 Y-20.136
X-38 Y-19.595
X-38.526 Y-19.068
X-39.066 Y-18.555
X-39.619 Y-18.055
X-40.185 Y-17.57
X-40.762 Y-17.1
X-41.352 Y-16.644
X-41.953 Y-16.204
X-42.565 Y-15.779
X-43.188 Y-15.37
X-43.821 Y-14.978
X-44.464 Y-14.601
X-45.117 Y-14.241
X-45.778 Y-13.899
X-46.448 Y-13.573
X-47.126 Y-13.264
X-47.812 Y-12.972
X-48.505 Y-12.699
X-49.205 Y-12.444
X-49.911 Y-12.206
X-50.623 Y-11.986
X-51.34 Y-11.785
X-52.063 Y-11.602
X-52.789 Y-11.437
X-53.52 Y-11.291
X-54.254 Y-11.163
X-54.991 Y-11.054
X-55.73 Y-10.964
X-56.472 Y-10.892
X-57.215 Y-10.84
X-57.959 Y-10.806
X-58.704 Y-10.791
X-59.449 Y-10.795
X-60.194 Y-10.818
X-60.938 Y-10.86
X-61.681 Y-10.921
X-62.421 Y-11.001
X-63.16 Y-11.1
X-63.896 Y-11.217
X-64.628 Y-11.353
X-65.357 Y-11.507
X-66.082 Y-11.679
X-66.802 Y-11.87
X-67.518 Y-12.079
X-68.227 Y-12.305
X-68.931 Y-12.55
X-69.629 Y-12.812
X-70.319 Y-13.091
X-71.002 Y-13.389
X-71.678 Y-13.703
X-72.346 Y-14.034
X-73.005 Y-14.381
X-73.655 Y-14.745
X-74.295 Y-15.126
X-74.926 Y-15.523
X-75.546 Y-15.935
X-76.156 Y-16.363
X-76.755 Y-16.806
X-77.343 Y-17.264
X-77.919 Y-17.737
X-78.483 Y-18.224
X-79.035 Y-18.724
X-79.574 Y-19.239
X-80.1 Y-19.766
X-80.612 Y-20.307
X-81.111 Y-20.86
X-81.596 Y-21.426
X-82.066 Y-22.004
X-82.522 Y-22.593
X-82.963 Y-23.194
X-83.389 Y-23.805
X-83.799 Y-24.427
X-84.193 Y-25.059
X-84.572 Y-25.701
X-84.934 Y-26.353
X-85.28 Y-27.012
X-85.609 Y-27.681
X-85.921 Y-28.357
X-86.217 Y-29.041
X-86.495 Y-29.732
X-86.756 Y-30.43
X-87 Y-31.134
X-87.226 Y-31.844
X-87.434 Y-32.559
X-87.625 Y-33.28
X-87.797 Y-34.005
X-87.951 Y-34.734
X-88.086 Y-35.466
X-88.204 Y-36.202
X-88.303 Y-36.941
X-88.383 Y-37.681
X-88.445 Y-38.424
X-88.488 Y-39.168
X-88.512 Y-39.912
X-88.518 Y-40.657
X-88.506 Y-41.402
X-88.475 Y-42.147
X-88.425 Y-42.89
X-88.357 Y-43.632
X-88.271 Y-44.372
X-88.166 Y-45.11
X-88.043 Y-45.845
X-87.902 Y-46.576
X-87.742 Y-47.304
X-87.565 Y-48.027
X-87.369 Y-48.746
X-87.155 Y-49.46
X-86.924 Y-50.168
X-86.675 Y-50.871
X-86.409 Y-51.566
X-86.125 Y-52.255
X-85.824 Y-52.937
X-85.506 Y-53.611
X-85.172 Y-54.277
X-84.821 Y-54.934
X-84.454 Y-55.582
X-84.071 Y-56.221
X-83.672 Y-56.851
X-83.258 Y-57.47
X-82.828 Y-58.079
X-82.384 Y-58.677
X-81.925 Y-59.263
X-81.451 Y-59.838
X-80.963 Y-60.401
X-80.461 Y-60.952
X-79.946 Y-61.49
X-79.417 Y-62.015
X-78.875 Y-62.527
X-78.321 Y-63.024
X-77.754 Y-63.508
X-77.176 Y-63.978
X-76.586 Y-64.433
X-75.985 Y-64.873
X-75.373 Y-65.298
X-74.751 Y-65.708
X-74.119 Y-66.103
X-73.477 Y-66.481
X-72.826 Y-66.844
X-72.166 Y-67.19
X-71.498 Y-67.52
X-70.822 Y-67.833
X-70.138 Y-68.128
X-69.447 Y-68.407
X-68.749 Y-68.669
X-68.045 Y-68.913
X-67.336 Y-69.139
X-66.62 Y-69.347
X-65.9 Y-69.538
X-65.175 Y-69.71
X-64.446 Y-69.865
X-63.714 Y-70.001
X-62.978 Y-70.119
X-62.24 Y-70.219
X-61.499 Y-70.3
X-60.757 Y-70.363
X-60.013 Y-70.408
X-59.268 Y-70.434
X-58.523 Y-70.441
X-57.778 Y-70.43
X-57.034 Y-70.401
X-56.29 Y-70.353
X-55.548 Y-70.286
X-54.808 Y-70.201
X-54.07 Y-70.097
X-53.335 Y-69.975
X-52.604 Y-69.835
X-51.876 Y-69.677
X-51.152 Y-69.5
X-50.432 Y-69.306
X-49.718 Y-69.094
X-49.009 Y-68.865
X-48.306 Y-68.618
X-47.609 Y-68.354
X-46.919 Y-68.073
X-46.236 Y-67.775
X-45.561 Y-67.46
X-44.894 Y-67.129
X-44.235 Y-66.782
X-43.584 Y-66.418
X-42.943 Y-66.039
X-42.311 Y-65.644
X-41.689 Y-65.234
X-41.077 Y-64.809
X-40.476 Y-64.368
X-39.886 Y-63.914
X-39.307 Y-63.445
X-38.74 Y-62.962
X-38.184 Y-62.465
X-37.641 Y-61.956
X-37.11 Y-61.433
X-36.592 Y-60.897
X-36.087 Y-60.35
X-35.595 Y-59.79
X-35.117 Y-59.219
X-34.653 Y-58.636
X-34.203 Y-58.042
X-33.767 Y-57.437
X-33.347 Y-56.822
X-32.941 Y-56.197
X-32.551 Y-55.563
X-32.176 Y-54.919
X-31.817 Y-54.266
X-31.473 Y-53.605
X-31.146 Y-52.935
X-30.835 Y-52.258
X-30.541 Y-51.574
X-30.263 Y-50.883
X-30.002 Y-50.185
X-29.757 Y-49.481
X-29.53 Y-48.771
X-29.32 Y-48.057
X-29.127 Y-47.337
X-28.952 Y-46.613
X-28.794 Y-45.885
X-28.654 Y-45.153
X-28.532 Y-44.418
X-28.428 Y-43.68
X-28.341 Y-42.94
X-28.273 Y-42.198
X-28.222 Y-41.455
X-28.19 Y-40.71
X-28.177 Y-39.965
X-28.181 Y-39.22
X-28.204 Y-38.476
X-28.244 Y-37.732
X-28.303 Y-36.989
X-28.379 Y-36.248
X-28.474 Y-35.509
X-28.587 Y-34.772
X-28.717 Y-34.039
X-28.866 Y-33.309
X-29.032 Y-32.582
X-29.216 Y-31.86
X-29.417 Y-31.143
X-29.636 Y-30.431
X-29.872 Y-29.724
X-30.126 Y-29.024
X-30.396 Y-28.329
X-30.684 Y-27.642
X-30.988 Y-26.962
X-31.309 Y-26.29
X-31.646 Y-25.625
X-31.999 Y-24.969
X-32.368 Y-24.322
X-32.753 Y-23.684
X-33.153 Y-23.055
X-33.568 Y-22.437
X-33.999 Y-21.828
X-34.443 Y-21.231
X-34.903 Y-20.644
X-35.376 Y-20.068
X-35.863 Y-19.505
X-36.364 Y-18.953
X-36.878 Y-18.414
X-37.405 Y-17.887
X-37.945 Y-17.374
X-38.497 Y-16.873
X-39.061 Y-16.387
X-39.637 Y-15.914
X-40.224 Y-15.456
X-40.823 Y-15.012
X-41.432 Y-14.582
X-42.051 Y-14.168
X-42.68 Y-13.768
X-43.318 Y-13.384
X-43.966 Y-13.016
X-44.622 Y-12.663
X-45.286 Y-12.326
X-45.959 Y-12.005
X-46.639 Y-11.701
X-47.326 Y-11.413
X-48.02 Y-11.142
X-48.721 Y-10.888
X-49.427 Y-10.651
X-50.139 Y-10.431
X-50.856 Y-10.228
X-51.578 Y-10.043
X-52.304 Y-9.876
X-53.033 Y-9.726
X-53.767 Y-9.593
X-54.503 Y-9.479
X-55.241 Y-9.382
X-55.982 Y-9.302
X-56.725 Y-9.241
X-57.469 Y-9.197
X-58.213 Y-9.171
X-58.958 Y-9.163
X-59.703 Y-9.173
X-60.448 Y-9.201
X-61.191 Y-9.247
X-61.934 Y-9.311
X-62.674 Y-9.392
X-63.413 Y-9.491
X-64.149 Y-9.608
X-64.882 Y-9.742
X-65.611 Y-9.894
X-66.336 Y-10.064
X-67.058 Y-10.251
X-67.774 Y-10.455
X-68.486 Y-10.677
X-69.192 Y-10.915
X-69.892 Y-11.17
X-70.586 Y-11.441
X-71.273 Y-11.729
X-71.953 Y-12.033
X-72.625 Y-12.354
X-73.29 Y-12.69
X-73.947 Y-13.042
X-74.595 Y-13.41
X-75.234 Y-13.793
X-75.864 Y-14.191
X-76.484 Y-14.604
X-77.094 Y-15.032
X-77.694 Y-15.474
X-78.283 Y-15.93
X-78.86 Y-16.4
X-79.427 Y-16.885
X-79.982 Y-17.382
X-80.524 Y-17.892
X-81.055 Y-18.415
X-81.573 Y-18.951
X-82.078 Y-19.499
X-82.57 Y-20.058
X-83.049 Y-20.629
X-83.513 Y-21.211
X-83.964 Y-21.804
X-84.401 Y-22.408
X-84.824 Y-23.022
X-85.231 Y-23.646
X-85.624 Y-24.279
X-86.001 Y-24.921
X-86.364 Y-25.572
X-86.71 Y-26.232
X-87.041 Y-26.899
X-87.356 Y-27.575
X-87.654 Y-28.257
X-87.937 Y-28.947
X-88.203 Y-29.643
X-88.452 Y-30.345
X-88.685 Y-31.052
X-88.901 Y-31.766
X-89.1 Y-32.484
X-89.282 Y-33.206
X-89.447 Y-33.933
X-89.595 Y-34.663
X-89.725 Y-35.396
X-89.838 Y-36.133
X-89.934 Y-36.872
X-90.012 Y-37.613
X-90.072 Y-38.355
X-90.115 Y-39.099
X-90.14 Y-39.844
X-90.148 Y-40.589
X-90.138 Y-41.334
X-90.11 Y-42.078
X-90.064 Y-42.822
X-90.001 Y-43.564
X-89.92 Y-44.305
X-89.822 Y-45.044
X-89.707 Y-45.78
X-89.574 Y-46.513
X-89.424 Y-47.243
X-89.257 Y-47.969
X-89.073 Y-48.691
X-88.872 Y-49.408
X-88.654 Y-50.121
X-88.419 Y-50.828
X-88.167 Y-51.529
X-87.899 Y-52.224
X-87.615 Y-52.913
X-87.314 Y-53.595
X-86.998 Y-54.269
X-86.665 Y-54.936
X-86.317 Y-55.594
X-85.953 Y-56.244
X-85.574 Y-56.886
X-85.179 Y-57.518
X-84.771 Y-58.141
X-84.347 Y-58.754
X-83.909 Y-59.357
X-83.458 Y-59.949
X-82.992 Y-60.531
X-82.513 Y-61.101
X-82.02 Y-61.66
X-81.515 Y-62.208
X-80.996 Y-62.743
X-80.465 Y-63.266
X-79.922 Y-63.776
X-79.367 Y-64.273
X-78.8 Y-64.756
X-78.223 Y-65.227
X-77.634 Y-65.683
X-77.034 Y-66.126
X-76.424 Y-66.553
X-75.804 Y-66.967
X-75.175 Y-67.365
X-74.536 Y-67.749
X-73.889 Y-68.118
X-73.233 Y-68.471
X-72.569 Y-68.809
X-71.897 Y-69.131
X-71.218 Y-69.437
X-70.531 Y-69.727
X-69.838 Y-70.001
X-69.139 Y-70.258
X-68.434 Y-70.499
X-67.723 Y-70.723
X-67.008 Y-70.93
X-66.287 Y-71.12
X-65.563 Y-71.293
X-64.834 Y-71.449
X-64.102 Y-71.587
X-63.367 Y-71.708
X-62.629 Y-71.812
X-61.889 Y-71.898
X-61.147 Y-71.966
X-60.404 Y-72.018
X-59.659 Y-72.051
X-58.914 Y-72.068
X-58.169 Y-72.066
X-57.425 Y-72.047
X-56.68 Y-72.011
X-55.937 Y-71.957
X-55.196 Y-71.886
X-54.456 Y-71.797
X-53.718 Y-71.69
X-52.984 Y-71.566
X-52.252 Y-71.425
X-51.524 Y-71.267
X-50.8 Y-71.092
X-50.08 Y-70.9
X-49.365 Y-70.69
X-48.655 Y-70.464
X-47.951 Y-70.221
X-47.252 Y-69.962
X-46.56 Y-69.687
X-45.874 Y-69.396
X-45.195 Y-69.089
X-44.524 Y-68.766
X-43.86 Y-68.427
X-43.204 Y-68.073
X-42.557 Y-67.705
X-41.918 Y-67.321
X-41.289 Y-66.922
X-40.669 Y-66.509
X-40.058 Y-66.082
X-39.458 Y-65.641
X-38.868 Y-65.186
X-38.289 Y-64.717
X-37.72 Y-64.235
X-37.163 Y-63.741
X-36.618 Y-63.233
X-36.085 Y-62.713
X-35.563 Y-62.18
X-35.054 Y-61.636
X-34.558 Y-61.081
X-34.074 Y-60.514
X-33.604 Y-59.936
X-33.147 Y-59.348
X-32.703 Y-58.749
X-32.273 Y-58.141
X-31.858 Y-57.522
X-31.456 Y-56.895
X-31.069 Y-56.258
X-30.697 Y-55.612
X-30.34 Y-54.959
X-29.998 Y-54.297
X-29.671 Y-53.627
X-29.359 Y-52.95
X-29.064 Y-52.267
X-28.784 Y-51.576
X-28.52 Y-50.879
X-28.272 Y-50.177
X-28.041 Y-49.468
X-27.825 Y-48.755
X-27.626 Y-48.037
X-27.444 Y-47.315
X-27.278 Y-46.588
X-27.129 Y-45.858
X-26.997 Y-45.125
X-26.881 Y-44.389
X-26.783 Y-43.651
X-26.701 Y-42.91
X-26.637 Y-42.168
X-26.59 Y-41.424
X-26.56 Y-40.68
X-26.548 Y-39.935
X-26.552 Y-39.19
X-26.574 Y-38.445
X-26.613 Y-37.701
X-26.669 Y-36.958
X-26.743 Y-36.217
X-26.834 Y-35.477
X-26.942 Y-34.74
X-27.067 Y-34.005
X-27.209 Y-33.274
X-27.368 Y-32.546
X-27.543 Y-31.822
X-27.735 Y-31.102
X-27.944 Y-30.387
X-28.17 Y-29.677
X-28.411 Y-28.972
X-28.669 Y-28.273
X-28.943 Y-27.58
X-29.233 Y-26.894
X-29.539 Y-26.215
X-29.861 Y-25.542
X-30.198 Y-24.878
X-30.55 Y-24.221
X-30.918 Y-23.573
X-31.301 Y-22.934
X-31.698 Y-22.304
X-32.11 Y-21.683
X-32.536 Y-21.072
X-32.976 Y-20.471
X-33.43 Y-19.88
X-33.897 Y-19.299
X-34.378 Y-18.73
X-34.871 Y-18.172
X-35.378 Y-17.625
X-35.896 Y-17.091
X-36.427 Y-16.568
X-36.97 Y-16.057
X-37.525 Y-15.56
X-38.091 Y-15.075
X-38.668 Y-14.604
X-39.255 Y-14.146
X-39.853 Y-13.702
X-40.462 Y-13.271
X-41.08 Y-12.855
X-41.707 Y-12.454
X-42.344 Y-12.067
X-42.989 Y-11.694
X-43.643 Y-11.337
X-44.305 Y-10.995
X-44.974 Y-10.668
X-45.651 Y-10.357
X-46.335 Y-10.061
X-47.026 Y-9.781
X-47.722 Y-9.516
X-48.425 Y-9.268
X-49.133 Y-9.036
X-49.846 Y-8.82
X-50.564 Y-8.621
X-51.286 Y-8.438
X-52.012 Y-8.272
X-52.742 Y-8.122
X-53.475 Y-7.99
X-54.211 Y-7.874
X-54.95 Y-7.775
X-55.69 Y-7.693
X-56.433 Y-7.628
X-57.176 Y-7.58
X-57.921 Y-7.549
X-58.665 Y-7.535
X-59.411 Y-7.538
X-60.155 Y-7.558
X-60.899 Y-7.595
X-61.643 Y-7.649
X-62.384 Y-7.72
X-63.124 Y-7.807
X-63.862 Y-7.912
X-64.597 Y-8.033
X-65.329 Y-8.171
X-66.058 Y-8.325
X-66.783 Y-8.496
X-67.504 Y-8.684
X-68.221 Y-8.888
X-68.933 Y-9.108
X-69.639 Y-9.344
X-70.34 Y-9.597
X-71.035 Y-9.865
X-71.724 Y-10.149
X-72.406 Y-10.449
X-73.081 Y-10.764
X-73.749 Y-11.094
X-74.41 Y-11.439
X-75.062 Y-11.799
X-75.706 Y-12.174
X-76.341 Y-12.563
X-76.968 Y-12.967
X-77.585 Y-13.384
X-78.192 Y-13.816
X-78.79 Y-14.261
X-79.377 Y-14.719
X-79.954 Y-15.191
X-80.52 Y-15.675
X-81.075 Y-16.173
X-81.618 Y-16.682
X-82.15 Y-17.204
X-82.669 Y-17.738
X-83.177 Y-18.284
X-83.672 Y-18.841
X-84.154 Y-19.409
X-84.623 Y-19.987
X-85.08 Y-20.576
X-85.523 Y-21.175
X-85.952 Y-21.784
X-86.367 Y-22.403
X-86.769 Y-23.031
X-87.156 Y-23.667
X-87.529 Y-24.312
X-87.887 Y-24.966
X-88.23 Y-25.627
X-88.558 Y-26.296
X-88.871 Y-26.972
X-89.169 Y-27.655
X-89.451 Y-28.344
X-89.718 Y-29.04
X-89.969 Y-29.742
X-90.204 Y-30.449
X-90.423 Y-31.161
X-90.625 Y-31.878
X-90.812 Y-32.599
X-90.982 Y-33.325
X-91.136 Y-34.054
X-91.273 Y-34.786
X-91.394 Y-35.521
X-91.499 Y-36.259
X-91.587 Y-36.998
X-91.658 Y-37.74
X-91.713 Y-38.483
X-91.751 Y-39.227
X-91.772 Y-39.972
X-91.776 Y-40.717
X-91.764 Y-41.462
X-91.735 Y-42.207
X-91.689 Y-42.95
X-91.626 Y-43.693
X-91.547 Y-44.433
X-91.451 Y-45.172
X-91.338 Y-45.909
X-91.209 Y-46.643
X-91.063 Y-47.373
X-90.901 Y-48.1
X-90.723 Y-48.824
X-90.528 Y-49.543
X-90.318 Y-50.258
X-90.091 Y-50.968
X-89.849 Y-51.672
X-89.59 Y-52.371
X-89.317 Y-53.064
X-89.027 Y-53.751
X-88.723 Y-54.431
X-88.403 Y-55.103
X-88.068 Y-55.769
X-87.719 Y-56.427
X-87.354 Y-57.077
X-86.975 Y-57.718
X-86.582 Y-58.351
X-86.175 Y-58.975
X-85.753 Y-59.589
X-85.318 Y-60.194
X-84.869 Y-60.789
X-84.407 Y-61.373
X-83.932 Y-61.948
X-83.445 Y-62.511
X-82.945 Y-63.063
X-82.433 Y-63.604
X-81.908 Y-64.134
X-81.372 Y-64.651
X-80.825 Y-65.156
X-80.266 Y-65.649
X-79.696 Y-66.13
X-79.116 Y-66.597
X-78.525 Y-67.051
X-77.925 Y-67.492
X-77.314 Y-67.919
X-76.694 Y-68.332
X-76.065 Y-68.732
X-75.428 Y-69.117
X-74.781 Y-69.487
X-74.127 Y-69.843
X-73.464 Y-70.184
X-72.794 Y-70.51
X-72.117 Y-70.821
X-71.433 Y-71.117
X-70.743 Y-71.397
X-70.047 Y-71.662
X-69.344 Y-71.911
X-68.637 Y-72.145
X-67.924 Y-72.362
X-67.207 Y-72.564
X-66.485 Y-72.749
X-65.76 Y-72.918
X-65.03 Y-73.071
X-64.298 Y-73.207
X-63.562 Y-73.327
X-62.825 Y-73.43
X-62.085 Y-73.516
X-61.343 Y-73.586
X-60.6 Y-73.64
X-59.855 Y-73.676
X-59.111 Y-73.695
X-58.366 Y-73.698
X-57.621 Y-73.684
X-56.876 Y-73.654
X-56.133 Y-73.607
X-55.39 Y-73.543
X-54.65 Y-73.463
X-53.911 Y-73.366
X-53.174 Y-73.252
X-52.441 Y-73.123
X-51.71 Y-72.976
X-50.983 Y-72.814
X-50.26 Y-72.635
X-49.541 Y-72.44
X-48.826 Y-72.229
X-48.116 Y-72.003
X-47.412 Y-71.76
X-46.713 Y-71.502
X-46.02 Y-71.228
X-45.333 Y-70.939
X-44.653 Y-70.634
X-43.98 Y-70.315
X-43.314 Y-69.981
X-42.656 Y-69.632
X-42.006 Y-69.268
X-41.363 Y-68.891
X-40.73 Y-68.499
X-40.105 Y-68.094
X-39.489 Y-67.674
X-38.882 Y-67.242
X-38.285 Y-66.796
X-37.698 Y-66.337
X-37.121 Y-65.865
X-36.555 Y-65.381
X-36 Y-64.885
X-35.455 Y-64.376
X-34.922 Y-63.855
X-34.4 Y-63.324
X-33.89 Y-62.78
X-33.393 Y-62.226
X-32.907 Y-61.661
X-32.434 Y-61.085
X-31.974 Y-60.499
X-31.527 Y-59.903
X-31.093 Y-59.298
X-30.672 Y-58.683
X-30.264 Y-58.059
X-29.87 Y-57.427
X-29.49 Y-56.786
X-29.125 Y-56.137
X-28.773 Y-55.48
X-28.436 Y-54.815
X-28.113 Y-54.144
X-27.805 Y-53.465
X-27.512 Y-52.78
X-27.234 Y-52.089
X-26.972 Y-51.392
X-26.724 Y-50.689
X-26.492 Y-49.981
X-26.276 Y-49.268
X-26.075 Y-48.551
X-25.89 Y-47.829
X-25.722 Y-47.103
X-25.569 Y-46.374
X-25.432 Y-45.641
X-25.311 Y-44.906
X-25.206 Y-44.169
X-25.117 Y-43.429
X-25.045 Y-42.687
X-24.988 Y-41.944
X-24.949 Y-41.2
X-24.925 Y-40.456
X-24.918 Y-39.711
X-24.927 Y-38.966
X-24.953 Y-38.221
X-24.995 Y-37.477
X-25.053 Y-36.734
X-25.128 Y-35.993
X-25.219 Y-35.254
X-25.326 Y-34.516
X-25.45 Y-33.782
X-25.59 Y-33.05
X-25.746 Y-32.321
X-25.919 Y-31.596
X-26.107 Y-30.876
X-26.311 Y-30.159
X-26.531 Y-29.447
X-26.766 Y-28.74
X-27.017 Y-28.039
X-27.283 Y-27.343
X-27.564 Y-26.653
X-27.861 Y-25.969
X-28.172 Y-25.293
X-28.499 Y-24.623
X-28.84 Y-23.96
X-29.195 Y-23.306
X-29.565 Y-22.659
X-29.949 Y-22.02
X-30.347 Y-21.391
X-30.759 Y-20.77
X-31.185 Y-20.158
X-31.624 Y-19.556
X-32.076 Y-18.964
X-32.541 Y-18.382
X-33.019 Y-17.81
X-33.509 Y-17.249
X-34.011 Y-16.699
X-34.526 Y-16.16
X-35.052 Y-15.632
X-35.589 Y-15.116
X-36.138 Y-14.612
X-36.698 Y-14.12
X-37.268 Y-13.641
X-37.849 Y-13.174
X-38.439 Y-12.72
X-39.04 Y-12.279
X-39.65 Y-11.852
X-40.27 Y-11.438
X-40.898 Y-11.037
X-41.535 Y-10.651
X-42.18 Y-10.279
X-42.834 Y-9.92
X-43.495 Y-9.577
X-44.163 Y-9.248
X-44.839 Y-8.934
X-45.521 Y-8.635
X-46.21 Y-8.35
X-46.905 Y-8.081
X-47.605 Y-7.827
X-48.311 Y-7.588
X-49.022 Y-7.365
X-49.737 Y-7.157
X-50.457 Y-6.965
X-51.181 Y-6.789
X-51.909 Y-6.628
X-52.639 Y-6.483
X-53.373 Y-6.355
X-54.11 Y-6.242
X-54.849 Y-6.145
X-55.589 Y-6.065
X-56.332 Y-6.001
X-57.075 Y-5.953
X-57.819 Y-5.921
X-58.564 Y-5.905
X-59.309 Y-5.906
X-60.054 Y-5.923
X-60.799 Y-5.956
X-61.542 Y-6.005
X-62.284 Y-6.071
X-63.025 Y-6.152
X-63.763 Y-6.25
X-64.5 Y-6.363
X-65.234 Y-6.492
X-65.964 Y-6.638
X-66.692 Y-6.799
X-67.416 Y-6.975
X-68.135 Y-7.168
X-68.851 Y-7.375
X-69.562 Y-7.599
X-70.268 Y-7.837
X-70.968 Y-8.091
X-71.663 Y-8.36
X-72.352 Y-8.644
X-73.034 Y-8.943
X-73.71 Y-9.256
X-74.379 Y-9.585
X-75.041 Y-9.927
X-75.695 Y-10.284
X-76.341 Y-10.655
X-76.979 Y-11.04
X-77.608 Y-11.438
X-78.229 Y-11.85
X-78.841 Y-12.275
X-79.444 Y-12.713
X-80.037 Y-13.164
X-80.62 Y-13.628
X-81.193 Y-14.104
X-81.756 Y-14.593
X-82.308 Y-15.093
X-82.849 Y-15.605
X-83.379 Y-16.129
X-83.897 Y-16.664
X-84.404 Y-17.21
X-84.899 Y-17.767
X-85.382 Y-18.334
X-85.853 Y-18.912
X-86.311 Y-19.5
X-86.756 Y-20.097
X-87.188 Y-20.704
X-87.607 Y-21.32
X-88.012 Y-21.945
X-88.404 Y-22.579
X-88.783 Y-23.221
X-89.147 Y-23.87
X-89.498 Y-24.528
X-89.834 Y-25.193
X-90.157 Y-25.864
X-90.464 Y-26.543
X-90.757 Y-27.228
X-91.035 Y-27.919
X-91.299 Y-28.616
X-91.547 Y-29.319
X-91.78 Y-30.026
X-91.998 Y-30.739
X-92.2 Y-31.456
X-92.388 Y-32.177
X-92.559 Y-32.902
X-92.715 Y-33.631
X-92.855 Y-34.362
X-92.979 Y-35.097
X-93.088 Y-35.834
X-93.18 Y-36.573
X-93.257 Y-37.315
X-93.318 Y-38.057
X-93.363 Y-38.801
X-93.392 Y-39.545
X-93.406 Y-40.29
X-93.403 Y-41.035
X-93.384 Y-41.78
X-93.35 Y-42.524
X-93.299 Y-43.268
X-93.233 Y-44.01
X-93.151 Y-44.75
X-93.053 Y-45.489
X-92.939 Y-46.225
X-92.809 Y-46.959
X-92.663 Y-47.69
X-92.502 Y-48.417
X-92.326 Y-49.141
X-92.133 Y-49.861
X-91.926 Y-50.576
X-91.703 Y-51.287
X-91.464 Y-51.993
X-91.211 Y-52.694
X-90.943 Y-53.389
X-90.66 Y-54.078
X-90.363 Y-54.761
X-90.051 Y-55.438
X-89.725 Y-56.108
X-89.384 Y-56.77
X-89.029 Y-57.426
X-88.66 Y-58.073
X-88.278 Y-58.712
X-87.882 Y-59.344
X-87.473 Y-59.966
X-87.05 Y-60.58
X-86.614 Y-61.184
X-86.166 Y-61.779
X-85.704 Y-62.364
X-85.231 Y-62.939
X-84.745 Y-63.504
X-84.247 Y-64.058
X-83.737 Y-64.601
X-83.215 Y-65.134
X-82.683 Y-65.655
X-82.139 Y-66.164
X-81.585 Y-66.662
X-81.02 Y-67.148
X-80.445 Y-67.622
X-79.86 Y-68.083
X-79.265 Y-68.532
X-78.661 Y-68.968
X-78.048 Y-69.391
X-77.426 Y-69.801
X-76.795 Y-70.197
X-76.155 Y-70.58
X-75.508 Y-70.949
X-74.853 Y-71.303
X-74.191 Y-71.644
X-73.521 Y-71.971
X-72.844 Y-72.283
X-72.161 Y-72.581
X-71.472 Y-72.863
X-70.777 Y-73.131
X-70.076 Y-73.384
X-69.37 Y-73.622
X-68.659 Y-73.845
X-67.943 Y-74.052
X-67.223 Y-74.244
X-66.5 Y-74.421
X-65.772 Y-74.583
X-65.042 Y-74.728
X-64.308 Y-74.858
X-63.572 Y-74.973
X-62.833 Y-75.071
X-62.093 Y-75.154
X-61.351 Y-75.221
X-60.607 Y-75.272
X-59.863 Y-75.307
X-59.118 Y-75.326
X-58.373 Y-75.329
X-57.628 Y-75.317
X-56.884 Y-75.288
X-56.14 Y-75.243
X-55.397 Y-75.182
X-54.656 Y-75.106
X-53.917 Y-75.013
X-53.18 Y-74.905
X-52.445 Y-74.781
X-51.713 Y-74.642
X-50.985 Y-74.487
X-50.259 Y-74.316
X-49.538 Y-74.13
X-48.82 Y-73.929
X-48.107 Y-73.713
X-47.399 Y-73.481
X-46.696 Y-73.235
X-45.998 Y-72.974
X-45.306 Y-72.698
X-44.62 Y-72.407
X-43.941 Y-72.102
X-43.268 Y-71.782
X-42.601 Y-71.449
X-41.942 Y-71.101
X-41.291 Y-70.739
X-40.647 Y-70.364
X-40.012 Y-69.975
X-39.385 Y-69.573
X-38.766 Y-69.157
X-38.156 Y-68.729
X-37.556 Y-68.289
X-36.964 Y-67.835
X-36.382 Y-67.37
X-35.811 Y-66.892
X-35.249 Y-66.403
X-34.698 Y-65.902
X-34.157 Y-65.389
X-33.627 Y-64.865
X-33.108 Y-64.331
X-32.6 Y-63.785
X-32.104 Y-63.23
X-31.62 Y-62.663
X-31.147 Y-62.087
X-30.687 Y-61.501
X-30.239 Y-60.906
X-29.803 Y-60.302
X-29.381 Y-59.688
X-28.971 Y-59.066
X-28.575 Y-58.435
X-28.191 Y-57.796
X-27.821 Y-57.149
X-27.465 Y-56.495
X-27.122 Y-55.834
X-26.793 Y-55.165
X-26.478 Y-54.49
X-26.177 Y-53.808
X-25.89 Y-53.121
X-25.618 Y-52.427
X-25.36 Y-51.728
X-25.117 Y-51.024
X-24.888 Y-50.315
X-24.675 Y-49.601
X-24.476 Y-48.883
X-24.293 Y-48.161
X-24.124 Y-47.435
X-23.971 Y-46.706
X-23.833 Y-45.974
X-23.711 Y-45.239
X-23.604 Y-44.501
X-23.512 Y-43.762
X-23.436 Y-43.021
X-23.376 Y-42.278
X-23.331 Y-41.534
X-23.302 Y-40.79
X-23.288 Y-40.045
X-23.29 Y-39.3
X-23.308 Y-38.555
X-23.341 Y-37.811
X-23.39 Y-37.067
X-23.454 Y-36.325
X-23.534 Y-35.584
X-23.629 Y-34.845
X-23.74 Y-34.109
X-23.867 Y-33.374
X-24.009 Y-32.643
X-24.166 Y-31.915
X-24.339 Y-31.19
X-24.527 Y-30.469
X-24.729 Y-29.752
X-24.948 Y-29.039
X-25.181 Y-28.332
X-25.429 Y-27.629
X-25.692 Y-26.932
X-25.969 Y-26.241
X-26.261 Y-25.555
X-26.567 Y-24.876
X-26.887 Y-24.203
X-27.222 Y-23.537
X-27.57 Y-22.879
X-27.932 Y-22.227
X-28.307 Y-21.584
X-28.696 Y-20.948
X-29.099 Y-20.321
X-29.514 Y-19.703
X-29.942 Y-19.093
X-30.383 Y-18.492
X-30.837 Y-17.901
X-31.302 Y-17.32
X-31.78 Y-16.748
X-32.27 Y-16.187
X-32.772 Y-15.636
X-33.285 Y-15.095
X-33.809 Y-14.566
X-34.344 Y-14.048
X-34.89 Y-13.541
X-35.447 Y-13.046
X-36.014 Y-12.562
X-36.591 Y-12.091
X-37.177 Y-11.631
X-37.773 Y-11.184
X-38.379 Y-10.75
X-38.993 Y-10.328
X-39.616 Y-9.919
X-40.247 Y-9.524
X-40.886 Y-9.141
X-41.534 Y-8.772
X-42.189 Y-8.417
X-42.851 Y-8.075
X-43.52 Y-7.748
X-44.196 Y-7.434
X-44.878 Y-7.135
X-45.567 Y-6.85
X-46.261 Y-6.58
X-46.961 Y-6.324
X-47.666 Y-6.083
X-48.375 Y-5.856
X-49.09 Y-5.645
X-49.809 Y-5.448
X-50.531 Y-5.266
X-51.223 Y-5.108
X-51.259 Y-5.101
X-51.295 Y-5.097
X-51.331 Y-5.095
X-65.108
X-65.852 Y-5.133
X-66.594 Y-5.202
X-67.328 Y-5.326
X-68.056 Y-5.485
X-68.778 Y-5.669
X-69.494 Y-5.875
X-70.205 Y-6.098
X-70.911 Y-6.337
X-71.611 Y-6.592
X-72.306 Y-6.861
X-72.995 Y-7.145
X-73.677 Y-7.443
X-74.354 Y-7.755
X-75.023 Y-8.082
X-75.686 Y-8.423
X-76.342 Y-8.777
X-76.99 Y-9.144
X-77.63 Y-9.525
X-78.262 Y-9.919
X-78.886 Y-10.326
X-79.502 Y-10.746
X-80.109 Y-11.178
X-80.707 Y-11.623
X-81.295 Y-12.079
X-81.875 Y-12.548
X-82.444 Y-13.029
X-83.004 Y-13.521
X-83.553 Y-14.024
X-84.092 Y-14.539
X-84.62 Y-15.064
X-85.137 Y-15.601
X-85.643 Y-16.147
X-86.138 Y-16.704
X-86.621 Y-17.272
X-87.092 Y-17.849
X-87.552 Y-18.435
X-87.998 Y-19.032
X-88.433 Y-19.637
X-88.855 Y-20.251
X-89.264 Y-20.874
X-89.66 Y-21.505
X-90.043 Y-22.143
X-90.414 Y-22.79
X-90.771 Y-23.444
X-91.114 Y-24.105
X-91.444 Y-24.773
X-91.76 Y-25.448
X-92.063 Y-26.129
X-92.351 Y-26.816
X-92.625 Y-27.509
X-92.885 Y-28.207
X-93.131 Y-28.91
X-93.362 Y-29.618
X-93.579 Y-30.331
X-93.781 Y-31.048
X-93.968 Y-31.77
X-94.14 Y-32.494
X-94.298 Y-33.223
X-94.44 Y-33.954
X-94.566 Y-34.688
X-94.678 Y-35.425
X-94.775 Y-36.164
X-94.856 Y-36.904
X-94.923 Y-37.646
X-94.974 Y-38.39
X-95.01 Y-39.134
X-95.031 Y-39.879
X-95.037 Y-40.624
X-95.028 Y-41.369
X-95.003 Y-42.113
X-94.963 Y-42.857
X-94.908 Y-43.6
X-94.838 Y-44.342
X-94.753 Y-45.082
X-94.653 Y-45.821
X-94.537 Y-46.557
X-94.407 Y-47.29
X-94.261 Y-48.021
X-94.101 Y-48.749
X-93.926 Y-49.473
X-93.735 Y-50.193
X-93.53 Y-50.909
X-93.31 Y-51.621
X-93.075 Y-52.328
X-92.826 Y-53.03
X-92.563 Y-53.727
X-92.286 Y-54.419
X-91.995 Y-55.105
X-91.689 Y-55.784
X-91.37 Y-56.458
X-91.038 Y-57.124
X-90.691 Y-57.784
X-90.332 Y-58.437
X-89.959 Y-59.082
X-89.573 Y-59.719
X-89.175 Y-60.349
X-88.763 Y-60.97
X-88.339 Y-61.582
X-87.902 Y-62.186
X-87.454 Y-62.781
X-86.993 Y-63.366
X-86.52 Y-63.942
X-86.035 Y-64.508
X-85.539 Y-65.064
X-85.031 Y-65.609
X-84.512 Y-66.144
X-83.983 Y-66.668
X-83.443 Y-67.181
X-82.892 Y-67.683
X-82.332 Y-68.174
X-81.761 Y-68.653
X-81.181 Y-69.121
X-80.592 Y-69.577
X-79.993 Y-70.02
X-79.386 Y-70.451
X-78.769 Y-70.87
X-78.145 Y-71.276
X-77.512 Y-71.67
X-76.871 Y-72.05
X-76.223 Y-72.417
X-75.567 Y-72.771
X-74.905 Y-73.112
X-74.235 Y-73.438
X-73.559 Y-73.751
X-72.876 Y-74.05
X-72.188 Y-74.335
X-71.494 Y-74.605
X-70.794 Y-74.861
X-70.089 Y-75.103
X-69.38 Y-75.33
X-68.666 Y-75.543
X-67.947 Y-75.741
X-67.365 Y-75.889
X-67.325 Y-75.898
X-67.285 Y-75.903
X-67.245 Y-75.905
X-51.392
X-50.648 Y-75.867
X-49.906 Y-75.795
X-49.173 Y-75.661
X-48.448 Y-75.488
X-47.731 Y-75.288
X-47.019 Y-75.066
X-46.314 Y-74.827
X-45.614 Y-74.571
X-44.92 Y-74.301
X-44.232 Y-74.015
X-43.549 Y-73.716
X-42.873 Y-73.403
X-42.204 Y-73.076
X-41.541 Y-72.735
X-40.885 Y-72.382
X-40.237 Y-72.015
X-39.596 Y-71.635
X-38.963 Y-71.242
X-38.338 Y-70.836
X-37.721 Y-70.418
X-37.113 Y-69.988
X-36.513 Y-69.546
X-35.922 Y-69.092
X-35.341 Y-68.626
X-34.769 Y-68.149
X-34.206 Y-67.66
X-33.654 Y-67.16
X-33.112 Y-66.649
X-32.58 Y-66.128
X-32.058 Y-65.595
X-31.548 Y-65.053
X-31.048 Y-64.5
X-30.56 Y-63.937
X-30.083 Y-63.365
X-29.617 Y-62.783
X-29.163 Y-62.193
X-28.721 Y-61.593
X-28.291 Y-60.984
X-27.873 Y-60.368
X-27.468 Y-59.742
X-27.075 Y-59.109
X-26.695 Y-58.469
X-26.327 Y-57.82
X-25.973 Y-57.165
X-25.632 Y-56.503
X-25.303 Y-55.834
X-24.989 Y-55.159
X-24.687 Y-54.477
X-24.399 Y-53.79
X-24.126 Y-53.097
X-23.866 Y-52.399
X-23.62 Y-51.695
X-23.389 Y-50.987
X-23.171 Y-50.275
X-22.968 Y-49.558
X-22.779 Y-48.837
X-22.605 Y-48.113
X-22.445 Y-47.385
X-22.299 Y-46.654
X-22.169 Y-45.921
X-22.053 Y-45.185
X-21.952 Y-44.446
X-21.865 Y-43.706
X-21.794 Y-42.965
X-21.737 Y-42.222
X-21.695 Y-41.478
X-21.668 Y-40.733
X-21.656 Y-39.988
X-21.659 Y-39.243
X-21.677 Y-38.499
X-21.709 Y-37.754
X-21.757 Y-37.011
X-21.819 Y-36.268
X-21.897 Y-35.527
X-21.99 Y-34.788
X-22.097 Y-34.051
X-22.219 Y-33.316
X-22.357 Y-32.583
X-22.508 Y-31.854
X-22.675 Y-31.128
X-22.856 Y-30.405
X-23.051 Y-29.686
X-23.261 Y-28.971
X-23.485 Y-28.261
X-23.724 Y-27.555
X-23.976 Y-26.854
X-24.243 Y-26.158
X-24.524 Y-25.468
X-24.818 Y-24.783
X-25.126 Y-24.105
X-25.447 Y-23.433
X-25.782 Y-22.767
X-26.13 Y-22.109
X-26.492 Y-21.457
X-26.866 Y-20.813
X-27.254 Y-20.176
X-27.654 Y-19.548
X-28.066 Y-18.928
X-28.492 Y-18.316
X-28.929 Y-17.713
X-29.378 Y-17.118
X-29.84 Y-16.533
X-30.312 Y-15.957
X-30.797 Y-15.391
X-31.292 Y-14.835
X-31.799 Y-14.289
X-32.316 Y-13.753
X-32.845 Y-13.227
X-33.383 Y-12.712
X-33.932 Y-12.208
X-34.491 Y-11.716
X-35.059 Y-11.234
X-35.637 Y-10.764
X-36.225 Y-10.305
X-36.821 Y-9.859
X-37.426 Y-9.424
X-38.04 Y-9.001
X-38.662 Y-8.591
X-39.292 Y-8.194
X-39.93 Y-7.809
X-40.576 Y-7.438
X-41.229 Y-7.079
X-41.889 Y-6.733
X-42.556 Y-6.401
X-43.229 Y-6.082
X-43.909 Y-5.777
X-44.594 Y-5.485
X-45.286 Y-5.207
X-45.496 Y-5.127
X-45.552 Y-5.11
X-45.61 Y-5.099
X-45.668 Y-5.095
X-51.331
G3 X-51.452 Y-5.124 I0.011 J-0.317
G1 X-51.516 Y-5.153 Z-3.157
X-51.577 Y-5.181 Z-3.134
X-51.632 Y-5.206 Z-3.096
X-51.678 Y-5.227 Z-3.045
X-51.712 Y-5.243 Z-2.985
X-51.734 Y-5.252 Z-2.918
X-51.741 Y-5.256 Z-2.848
G0 Z2
X-51.108 Y-75.681
Z-2.53
G1 Z-2.848 F3556
X-51.116 Y-75.684 Z-2.918
X-51.138 Y-75.691 Z-2.985
X-51.174 Y-75.703 Z-3.045
X-51.222 Y-75.719 Z-3.096
X-51.279 Y-75.738 Z-3.134
X-51.342 Y-75.759 Z-3.157
X-51.409 Y-75.781 Z-3.165
G3 X-51.392 Y-75.905 I0.02 J-0.06
G1 X-45.973
X-45.395 Y-75.876
X-44.753 Y-75.776
X-44.032 Y-75.587
X-43.328 Y-75.341
X-42.638 Y-75.061
X-41.958 Y-74.756
X-41.288 Y-74.432
X-40.625 Y-74.092
X-39.969 Y-73.737
X-39.322 Y-73.369
X-38.681 Y-72.988
X-38.049 Y-72.595
X-37.424 Y-72.189
X-36.806 Y-71.772
X-36.198 Y-71.342
X-35.597 Y-70.901
X-35.005 Y-70.449
X-34.422 Y-69.985
X-33.848 Y-69.51
X-33.283 Y-69.024
X-32.728 Y-68.527
X-32.183 Y-68.019
X-31.647 Y-67.502
X-31.121 Y-66.974
X-30.606 Y-66.436
X-30.101 Y-65.888
X-29.606 Y-65.331
X-29.122 Y-64.764
X-28.649 Y-64.189
X-28.187 Y-63.604
X-27.737 Y-63.011
X-27.297 Y-62.409
X-26.87 Y-61.799
X-26.454 Y-61.181
X-26.05 Y-60.555
X-25.905 Y-60.321
X-25.855 Y-60.211
X-25.833 Y-60.092
X-25.841 Y-59.972
X-25.874 Y-59.784
X-25.89 Y-59.614
X-25.891 Y-59.445
X-25.878 Y-59.276
X-25.821 Y-58.938
X-25.791 Y-58.769
X-25.69 Y-58.261
X-25.649 Y-58.092
X-25.597 Y-57.923
X-25.532 Y-57.754
X-25.509 Y-57.704
X-25.484 Y-57.655
X-25.227 Y-57.246
X-24.888 Y-56.739
X-24.807 Y-56.629
X-24.76 Y-56.57
X-24.637 Y-56.428
X-24.427 Y-56.231
X-24.388 Y-56.204
X-24.256 Y-56.099
X-23.97 Y-55.821
X-23.636 Y-55.421
X-23.227 Y-54.813
X-22.877 Y-54.155
X-22.571 Y-53.476
X-22.295 Y-52.784
X-22.042 Y-52.083
X-21.807 Y-51.376
X-21.588 Y-50.664
X-21.384 Y-49.948
X-21.194 Y-49.227
X-21.019 Y-48.503
X-20.858 Y-47.775
X-20.711 Y-47.045
X-20.578 Y-46.312
X-20.46 Y-45.576
X-20.356 Y-44.838
X-20.266 Y-44.099
X-20.19 Y-43.358
X-20.128 Y-42.615
X-20.081 Y-41.872
X-20.047 Y-41.127
X-20.028 Y-40.383
X-20.024 Y-39.637
X-20.033 Y-38.892
X-20.057 Y-38.148
X-20.095 Y-37.404
X-20.147 Y-36.66
X-20.214 Y-35.918
X-20.295 Y-35.178
X-20.39 Y-34.439
X-20.5 Y-33.702
X-20.623 Y-32.967
X-20.761 Y-32.235
X-20.913 Y-31.505
X-21.079 Y-30.779
X-21.259 Y-30.056
X-21.452 Y-29.337
X-21.66 Y-28.621
X-21.882 Y-27.91
X-22.117 Y-27.203
X-22.366 Y-26.501
X-22.574 Y-25.948
X-22.652 Y-25.812
X-22.769 Y-25.709
X-22.912 Y-25.647
X-22.944 Y-25.639
X-23.113 Y-25.587
X-23.283 Y-25.511
X-23.413 Y-25.445
X-23.452 Y-25.422
X-23.621 Y-25.316
X-23.96 Y-25.089
X-24.299 Y-24.86
X-24.427 Y-24.769
X-24.637 Y-24.572
X-24.76 Y-24.43
X-24.807 Y-24.371
X-24.888 Y-24.261
X-25.227 Y-23.754
X-25.484 Y-23.345
X-25.509 Y-23.296
X-25.532 Y-23.246
X-25.597 Y-23.077
X-25.649 Y-22.908
X-25.69 Y-22.739
X-25.791 Y-22.231
X-25.849 Y-21.893
X-25.878 Y-21.724
X-25.891 Y-21.555
X-25.89 Y-21.386
X-25.874 Y-21.216
X-25.858 Y-21.123
X-25.84 Y-20.972
X-25.835 Y-20.707
X-25.864 Y-20.378
X-25.943 Y-19.971
X-26.104 Y-19.44
X-26.392 Y-18.753
X-26.747 Y-18.098
X-27.141 Y-17.466
X-27.562 Y-16.85
X-28.001 Y-16.249
X-28.456 Y-15.658
X-28.924 Y-15.078
X-29.403 Y-14.509
X-29.895 Y-13.948
X-30.397 Y-13.398
X-30.91 Y-12.858
X-31.433 Y-12.327
X-31.966 Y-11.807
X-32.509 Y-11.297
X-33.062 Y-10.797
X-33.625 Y-10.309
X-34.196 Y-9.831
X-34.777 Y-9.364
X-35.366 Y-8.908
X-35.964 Y-8.463
X-36.57 Y-8.03
X-37.185 Y-7.609
X-37.807 Y-7.2
X-38.438 Y-6.802
X-39.076 Y-6.417
X-39.721 Y-6.045
X-40.373 Y-5.685
X-41.032 Y-5.337
X-41.41 Y-5.147
X-41.48 Y-5.119
X-41.553 Y-5.101
X-41.628 Y-5.095
X-45.668
G3 X-45.724 Y-5.102 Z-3.053 I0.011 J-0.317
X-45.975 Y-5.424 Z-2.165 I0.066 J-0.311
X-45.856 Y-5.66 I0.317 J0.011
G1 X-26.367 Y-21.306
G3 X-26.233 Y-21.37 I0.199 J0.248
X-25.858 Y-21.123 Z-3.165 I0.064 J0.311
G1 X-25.845 Y-21.047
X-25.779 Y-20.709
X-25.71 Y-20.371
X-25.653 Y-20.097
X-25.633 Y-20.032
X-25.578 Y-19.863
X-25.484 Y-19.654
X-25.421 Y-19.515
X-25.369 Y-19.35
X-25.327 Y-19.145
X-25.302 Y-18.891
X-25.303 Y-18.609
X-25.341 Y-18.257
X-25.431 Y-17.836
X-25.606 Y-17.298
X-25.909 Y-16.617
X-26.278 Y-15.97
X-26.689 Y-15.348
X-27.126 Y-14.745
X-27.584 Y-14.157
X-28.057 Y-13.581
X-28.543 Y-13.017
X-29.041 Y-12.462
X-29.549 Y-11.918
X-30.068 Y-11.383
X-30.597 Y-10.859
X-31.136 Y-10.344
X-31.684 Y-9.839
X-32.242 Y-9.345
X-32.808 Y-8.861
X-33.383 Y-8.387
X-33.967 Y-7.924
X-34.559 Y-7.471
X-35.159 Y-7.03
X-35.767 Y-6.6
X-36.383 Y-6.181
X-37.007 Y-5.773
X-37.638 Y-5.377
X-37.989 Y-5.165
X-38.068 Y-5.127
X-38.153 Y-5.103
X-38.24 Y-5.095
X-41.628
G3 X-41.684 Y-5.102 Z-3.053 I0.011 J-0.317
X-41.935 Y-5.424 Z-2.165 I0.066 J-0.311
X-41.828 Y-5.65 I0.317 J0.011
G1 X-25.96 Y-19.718
G3 X-25.923 Y-19.746 I0.211 J0.238
X-25.484 Y-19.654 Z-3.165 I0.174 J0.266
G1 X-25.406 Y-19.525
X-25.074 Y-19.017
X-24.961 Y-18.848
X-24.807 Y-18.632
X-24.707 Y-18.484
X-24.625 Y-18.331
X-24.554 Y-18.156
X-24.496 Y-17.956
X-24.45 Y-17.705
X-24.428 Y-17.406
X-24.437 Y-17.084
X-24.491 Y-16.673
X-24.6 Y-16.217
X-24.806 Y-15.632
X-25.125 Y-14.959
X-25.503 Y-14.317
X-25.922 Y-13.701
X-26.367 Y-13.104
X-26.833 Y-12.522
X-27.314 Y-11.953
X-27.808 Y-11.396
X-28.314 Y-10.849
X-28.831 Y-10.312
X-29.358 Y-9.786
X-29.895 Y-9.269
X-30.441 Y-8.761
X-30.995 Y-8.264
X-31.559 Y-7.777
X-32.131 Y-7.299
X-32.711 Y-6.832
X-33.3 Y-6.375
X-33.896 Y-5.929
X-34.5 Y-5.493
X-34.947 Y-5.183
X-35.033 Y-5.135
X-35.127 Y-5.105
X-35.224 Y-5.095
X-38.24
G3 X-38.295 Y-5.102 Z-3.053 I0.011 J-0.317
X-38.547 Y-5.424 Z-2.165 I0.066 J-0.311
X-38.452 Y-5.639 I0.317 J0.011
G1 X-25.277 Y-18.658
G3 X-25.253 Y-18.68 I0.223 J0.226
X-24.807 Y-18.632 Z-3.165 I0.199 J0.247
G1 X-24.715 Y-18.51
X-24.637 Y-18.426
X-24.552 Y-18.341
X-24.468 Y-18.266
X-24.34 Y-18.172
X-24.129 Y-18.024
X-24.098 Y-18.002
X-23.975 Y-17.912
X-23.866 Y-17.806
X-23.764 Y-17.683
X-23.672 Y-17.543
X-23.578 Y-17.363
X-23.497 Y-17.159
X-23.43 Y-16.92
X-23.378 Y-16.62
X-23.357 Y-16.308
X-23.372 Y-15.911
X-23.434 Y-15.471
X-23.569 Y-14.928
X-23.794 Y-14.306
X-24.119 Y-13.635
X-24.499 Y-12.995
X-24.918 Y-12.378
X-25.364 Y-11.781
X-25.83 Y-11.2
X-26.313 Y-10.633
X-26.809 Y-10.077
X-27.317 Y-9.532
X-27.836 Y-8.998
X-28.365 Y-8.473
X-28.904 Y-7.958
X-29.451 Y-7.453
X-30.007 Y-6.957
X-30.572 Y-6.471
X-31.145 Y-5.994
X-31.725 Y-5.527
X-32.15 Y-5.198
X-32.241 Y-5.142
X-32.343 Y-5.107
X-32.449 Y-5.095
X-35.224
G3 X-35.28 Y-5.102 Z-3.053 I0.011 J-0.317
X-35.531 Y-5.424 Z-2.165 I0.066 J-0.311
X-35.451 Y-5.624 I0.317 J0.011
G1 X-24.538 Y-17.903
X-24.502 Y-17.943 Z-2.274
G3 X-24.098 Y-18.002 Z-3.165 I0.237 J0.211
G1 X-23.96 Y-17.91
X-23.791 Y-17.8
X-23.452 Y-17.583
X-23.305 Y-17.495
X-23.283 Y-17.485
X-23.189 Y-17.446
X-23.052 Y-17.38
X-22.926 Y-17.295
X-22.811 Y-17.195
X-22.692 Y-17.066
X-22.583 Y-16.92
X-22.471 Y-16.734
X-22.372 Y-16.521
X-22.285 Y-16.269
X-22.214 Y-15.962
X-22.172 Y-15.629
X-22.163 Y-15.209
X-22.199 Y-14.772
X-22.302 Y-14.225
X-22.491 Y-13.59
X-22.776 Y-12.901
X-23.125 Y-12.243
X-23.519 Y-11.611
X-23.946 Y-11
X-24.397 Y-10.407
X-24.868 Y-9.83
X-25.354 Y-9.265
X-25.854 Y-8.713
X-26.365 Y-8.171
X-26.887 Y-7.639
X-27.419 Y-7.117
X-27.96 Y-6.605
X-28.509 Y-6.102
X-29.067 Y-5.608
X-29.53 Y-5.212
X-29.625 Y-5.149
X-29.733 Y-5.109
X-29.846 Y-5.095
X-32.449
G3 X-32.504 Y-5.102 Z-3.053 I0.011 J-0.317
X-32.755 Y-5.424 Z-2.165 I0.066 J-0.311
X-32.688 Y-5.608 I0.317 J0.011
G1 X-23.611 Y-17.269
X-23.552 Y-17.344 Z-2.356
G3 X-23.189 Y-17.446 Z-3.165 I0.251 J0.195
G1 X-23.113 Y-17.414
X-22.944 Y-17.36
X-22.81 Y-17.326
X-22.267 Y-17.216
X-22.119 Y-17.181
X-21.98 Y-17.117
X-21.849 Y-17.039
X-21.71 Y-16.934
X-21.576 Y-16.808
X-21.437 Y-16.649
X-21.301 Y-16.455
X-21.175 Y-16.229
X-21.059 Y-15.959
X-20.963 Y-15.65
X-20.889 Y-15.281
X-20.85 Y-14.863
X-20.854 Y-14.379
X-20.919 Y-13.8
X-21.052 Y-13.196
X-21.286 Y-12.488
X-21.589 Y-11.807
X-21.943 Y-11.152
X-22.337 Y-10.519
X-22.76 Y-9.907
X-23.208 Y-9.311
X-23.676 Y-8.731
X-24.159 Y-8.164
X-24.657 Y-7.609
X-25.166 Y-7.065
X-25.686 Y-6.532
X-26.216 Y-6.008
X-26.755 Y-5.493
X-27.046 Y-5.224
X-27.144 Y-5.154
X-27.257 Y-5.11
X-27.376 Y-5.095
X-29.846
G3 X-30.153 Y-5.424 Z-2.165 I0.011 J-0.317
X-30.101 Y-5.587 I0.317 J0.011
G1 X-22.655 Y-16.963
X-22.581 Y-17.077 Z-2.436
G3 X-22.267 Y-17.216 Z-3.165 I0.266 J0.174
G1 X-21.928 Y-17.152
X-21.759 Y-17.122
X-21.589 Y-17.109
X-21.42 Y-17.11
X-21.392 Y-17.112
X-21.239 Y-17.116
X-21.089 Y-17.09
X-20.944 Y-17.046
X-20.799 Y-16.982
X-20.65 Y-16.897
X-20.495 Y-16.786
X-20.333 Y-16.642
X-20.176 Y-16.471
X-20.015 Y-16.253
X-19.87 Y-16.007
X-19.729 Y-15.701
X-19.612 Y-15.357
X-19.518 Y-14.942
X-19.46 Y-14.463
X-19.451 Y-13.947
X-19.507 Y-13.313
X-19.642 Y-12.61
X-19.858 Y-11.897
X-20.14 Y-11.207
X-20.472 Y-10.54
X-20.845 Y-9.895
X-21.249 Y-9.269
X-21.679 Y-8.661
X-22.131 Y-8.069
X-22.601 Y-7.49
X-23.086 Y-6.925
X-23.584 Y-6.371
X-24.094 Y-5.828
X-24.615 Y-5.295
X-24.674 Y-5.236
X-24.775 Y-5.16
X-24.891 Y-5.112
X-25.016 Y-5.095
X-27.376
G3 X-27.683 Y-5.424 Z-2.165 I0.011 J-0.317
X-27.646 Y-5.561 I0.317 J0.011
G1 X-21.726 Y-16.778
X-21.638 Y-16.945 Z-2.544
G3 X-21.392 Y-17.112 Z-3.165 I0.281 J0.148
G1 X-21.251 Y-17.123
X-20.743 Y-17.214
X-20.48 Y-17.266
X-20.329 Y-17.289
X-20.177 Y-17.287
X-20.026 Y-17.266
X-19.873 Y-17.227
X-19.707 Y-17.166
X-19.529 Y-17.079
X-19.347 Y-16.966
X-19.156 Y-16.818
X-18.966 Y-16.635
X-18.775 Y-16.409
X-18.589 Y-16.136
X-18.417 Y-15.818
X-18.255 Y-15.426
X-18.131 Y-15.008
X-18.034 Y-14.489
X-17.985 Y-13.889
X-17.999 Y-13.257
X-18.093 Y-12.518
X-18.262 Y-11.792
X-18.494 Y-11.084
X-18.778 Y-10.395
X-19.106 Y-9.726
X-19.471 Y-9.077
X-19.867 Y-8.445
X-20.289 Y-7.831
X-20.732 Y-7.233
X-21.194 Y-6.648
X-21.671 Y-6.076
X-22.162 Y-5.515
X-22.402 Y-5.254
X-22.506 Y-5.168
X-22.628 Y-5.114
X-22.761 Y-5.095
X-25.016
G3 X-25.322 Y-5.424 Z-2.165 I0.011 J-0.317
X-25.3 Y-5.53 I0.317 J0.011
G1 X-20.774 Y-16.895
X-20.702 Y-17.075 Z-2.553
G3 X-20.48 Y-17.266 Z-3.165 I0.295 J0.117
G1 X-20.235 Y-17.315
X-20.187 Y-17.326
X-20.065 Y-17.359
X-19.896 Y-17.412
X-19.727 Y-17.481
X-19.7 Y-17.495
X-19.564 Y-17.564
X-19.417 Y-17.605
X-19.266 Y-17.625
X-19.114 Y-17.626
X-18.956 Y-17.61
X-18.776 Y-17.574
X-18.588 Y-17.515
X-18.384 Y-17.426
X-18.174 Y-17.308
X-17.95 Y-17.15
X-17.728 Y-16.956
X-17.495 Y-16.705
X-17.283 Y-16.423
X-17.065 Y-16.06
X-16.872 Y-15.649
X-16.704 Y-15.165
X-16.569 Y-14.588
X-16.487 Y-13.945
X-16.47 Y-13.246
X-16.53 Y-12.503
X-16.659 Y-11.769
X-16.847 Y-11.049
X-17.086 Y-10.343
X-17.37 Y-9.654
X-17.693 Y-8.983
X-18.05 Y-8.329
X-18.438 Y-7.692
X-18.85 Y-7.072
X-19.284 Y-6.466
X-19.736 Y-5.874
X-20.205 Y-5.295
X-20.229 Y-5.267
X-20.334 Y-5.174
X-20.461 Y-5.116
X-20.599 Y-5.095
X-22.761
G3 X-23.067 Y-5.424 Z-2.165 I0.011 J-0.317
X-23.056 Y-5.496 I0.317 J0.011
G1 X-19.901 Y-17.053
X-19.829 Y-17.315 Z-2.71
G3 X-19.7 Y-17.495 Z-3.165 I0.306 J0.084
G1 X-19.219 Y-17.793
X-19.156 Y-17.833
X-18.902 Y-18.002
X-18.772 Y-18.081
X-18.63 Y-18.138
X-18.483 Y-18.177
X-18.33 Y-18.199
X-18.154 Y-18.207
X-17.967 Y-18.195
X-17.754 Y-18.16
X-17.535 Y-18.1
X-17.293 Y-18.005
X-17.045 Y-17.878
X-16.782 Y-17.706
X-16.508 Y-17.483
X-16.246 Y-17.221
X-15.969 Y-16.88
X-15.714 Y-16.488
X-15.476 Y-16.023
X-15.256 Y-15.457
X-15.079 Y-14.811
X-14.966 Y-14.129
X-14.921 Y-13.385
X-14.948 Y-12.641
X-15.037 Y-11.901
X-15.18 Y-11.17
X-15.374 Y-10.45
X-15.611 Y-9.744
X-15.889 Y-9.053
X-16.204 Y-8.377
X-16.551 Y-7.718
X-16.926 Y-7.074
X-17.325 Y-6.445
X-17.746 Y-5.831
X-18.139 Y-5.295
X-18.246 Y-5.188
X-18.382 Y-5.119
X-18.532 Y-5.095
X-20.599
G3 X-20.906 Y-5.424 Z-2.165 I0.011 J-0.317
X-20.902 Y-5.46 I0.317 J0.011
G1 X-19.068 Y-17.549
X-19.031 Y-17.792 Z-2.658
G3 X-18.902 Y-18.002 Z-3.165 I0.314 J0.048
G1 X-18.654 Y-18.172
X-18.541 Y-18.261
X-18.446 Y-18.341
X-18.285 Y-18.51
X-18.26 Y-18.542
X-18.16 Y-18.656
X-18.036 Y-18.745
X-17.902 Y-18.817
X-17.758 Y-18.873
X-17.603 Y-18.915
X-17.417 Y-18.946
X-17.222 Y-18.957
X-16.991 Y-18.947
X-16.756 Y-18.912
X-16.487 Y-18.843
X-16.214 Y-18.741
X-15.913 Y-18.593
X-15.6 Y-18.395
X-15.289 Y-18.152
X-14.957 Y-17.83
X-14.638 Y-17.45
X-14.332 Y-16.997
X-14.032 Y-16.436
X-13.766 Y-15.784
X-13.56 Y-15.079
X-13.427 Y-14.346
X-13.363 Y-13.604
X-13.362 Y-12.859
X-13.416 Y-12.116
X-13.521 Y-11.378
X-13.672 Y-10.648
X-13.866 Y-9.929
X-14.099 Y-9.221
X-14.371 Y-8.528
X-14.676 Y-7.848
X-15.011 Y-7.183
X-15.373 Y-6.531
X-15.759 Y-5.894
X-16.136 Y-5.316
X-16.245 Y-5.198
X-16.386 Y-5.122
X-16.544 Y-5.095
X-18.532
G3 X-18.838 Y-5.424 Z-2.165 I0.011 J-0.317
G1 Y-5.425
X-18.334 Y-18.057
X-18.322 Y-18.366 Z-2.786
G3 X-18.26 Y-18.542 Z-3.165 I0.317 J0.013
G1 X-18.203 Y-18.615
X-18.154 Y-18.679
X-18.033 Y-18.856
X-17.752 Y-19.28
X-17.661 Y-19.402
X-17.553 Y-19.51
X-17.432 Y-19.602
X-17.302 Y-19.681
X-17.143 Y-19.755
X-16.97 Y-19.815
X-16.762 Y-19.864
X-16.541 Y-19.892
X-16.281 Y-19.898
X-16.014 Y-19.876
X-15.705 Y-19.819
X-15.39 Y-19.726
X-15.042 Y-19.582
X-14.668 Y-19.381
X-14.305 Y-19.133
X-13.916 Y-18.805
X-13.512 Y-18.384
X-13.143 Y-17.91
X-12.778 Y-17.326
X-12.451 Y-16.657
X-12.192 Y-15.958
X-11.997 Y-15.239
X-11.865 Y-14.506
X-11.793 Y-13.765
X-11.776 Y-13.02
X-11.808 Y-12.275
X-11.887 Y-11.534
X-12.008 Y-10.799
X-12.169 Y-10.072
X-12.368 Y-9.354
X-12.602 Y-8.646
X-12.87 Y-7.951
X-13.169 Y-7.269
X-13.497 Y-6.6
X-13.85 Y-5.943
X-14.204 Y-5.337
X-14.313 Y-5.208
X-14.459 Y-5.125
X-14.624 Y-5.095
X-16.544
G3 X-16.85 Y-5.391 Z-2.231 I0.011 J-0.317
G1 X-16.852 Y-5.424 Z-2.165
X-17.777 Y-18.79
X-17.798 Y-19.092 Z-2.771
G3 X-17.752 Y-19.28 Z-3.165 I0.317 J-0.022
G1 X-17.589 Y-19.525
X-17.525 Y-19.642
X-17.501 Y-19.694
X-17.423 Y-19.863
X-17.367 Y-20.032
X-17.312 Y-20.175
X-17.231 Y-20.303
X-17.134 Y-20.421
X-17.023 Y-20.525
X-16.893 Y-20.624
X-16.734 Y-20.722
X-16.556 Y-20.806
X-16.343 Y-20.882
X-16.11 Y-20.939
X-15.84 Y-20.975
X-15.543 Y-20.984
X-15.218 Y-20.96
X-14.849 Y-20.895
X-14.48 Y-20.788
X-14.065 Y-20.621
X-13.615 Y-20.383
X-13.179 Y-20.091
X-12.72 Y-19.708
X-12.245 Y-19.222
X-11.783 Y-18.638
X-11.383 Y-18.009
X-11.047 Y-17.344
X-10.77 Y-16.652
X-10.55 Y-15.941
X-10.384 Y-15.214
X-10.269 Y-14.478
X-10.203 Y-13.736
X-10.184 Y-12.991
X-10.211 Y-12.247
X-10.279 Y-11.505
X-10.387 Y-10.768
X-10.532 Y-10.037
X-10.711 Y-9.313
X-10.923 Y-8.599
X-11.166 Y-7.895
X-11.439 Y-7.202
X-11.74 Y-6.52
X-12.066 Y-5.85
X-12.33 Y-5.353
X-12.439 Y-5.217
X-12.588 Y-5.127
X-12.76 Y-5.095
X-14.624
G3 X-14.926 Y-5.36 Z-2.293 I0.011 J-0.317
G1 X-14.937 Y-5.423 Z-2.165
X-17.316 Y-19.54
X-17.375 Y-19.891 Z-2.879
G3 X-17.367 Y-20.032 Z-3.165 I0.313 J-0.053
G1 X-17.356 Y-20.066
X-17.325 Y-20.201
X-17.255 Y-20.54
X-17.221 Y-20.709
X-17.188 Y-20.878
X-17.152 Y-21.026
X-17.095 Y-21.168
X-17.021 Y-21.3
X-16.931 Y-21.424
X-16.817 Y-21.551
X-16.681 Y-21.675
X-16.515 Y-21.797
X-16.323 Y-21.909
X-16.093 Y-22.014
X-15.84 Y-22.099
X-15.538 Y-22.166
X-15.221 Y-22.203
X-14.851 Y-22.208
X-14.446 Y-22.171
X-14.016 Y-22.086
X-13.538 Y-21.939
X-13.026 Y-21.721
X-12.524 Y-21.443
X-11.978 Y-21.063
X-11.414 Y-20.576
X-10.903 Y-20.034
X-10.444 Y-19.447
X-10.041 Y-18.82
X-9.692 Y-18.162
X-9.395 Y-17.479
X-9.147 Y-16.776
X-8.946 Y-16.059
X-8.79 Y-15.33
X-8.679 Y-14.593
X-8.61 Y-13.851
X-8.586 Y-13.107
X-8.602 Y-12.362
X-8.656 Y-11.619
X-8.746 Y-10.879
X-8.87 Y-10.144
X-9.026 Y-9.416
X-9.213 Y-8.695
X-9.43 Y-7.982
X-9.675 Y-7.278
X-9.947 Y-6.585
X-10.244 Y-5.902
X-10.501 Y-5.371
X-10.608 Y-5.225
X-10.761 Y-5.129
X-10.939 Y-5.095
X-12.76
G3 X-13.056 Y-5.331 Z-2.353 I0.011 J-0.317
G1 X-13.08 Y-5.421 Z-2.165
X-17.087 Y-20.393
X-17.181 Y-20.746 Z-2.898
G3 X-17.188 Y-20.878 Z-3.165 I0.307 J-0.082
G1 X-17.155 Y-21.047
X-17.126 Y-21.216
X-17.11 Y-21.386
X-17.109 Y-21.555
X-17.122 Y-21.724
X-17.133 Y-21.876
X-17.109 Y-22.026
X-17.064 Y-22.172
X-17.002 Y-22.311
X-16.92 Y-22.454
X-16.812 Y-22.604
X-16.679 Y-22.753
X-16.516 Y-22.902
X-16.32 Y-23.046
X-16.09 Y-23.181
X-15.816 Y-23.306
X-15.515 Y-23.407
X-15.154 Y-23.488
X-14.77 Y-23.533
X-14.333 Y-23.539
X-13.83 Y-23.493
X-13.316 Y-23.392
X-12.766 Y-23.224
X-12.161 Y-22.968
X-11.513 Y-22.61
X-10.901 Y-22.184
X-10.334 Y-21.701
X-9.813 Y-21.169
X-9.338 Y-20.594
X-8.91 Y-19.985
X-8.526 Y-19.346
X-8.188 Y-18.682
X-7.892 Y-17.998
X-7.641 Y-17.297
X-7.432 Y-16.582
X-7.265 Y-15.856
X-7.137 Y-15.122
X-7.049 Y-14.382
X-6.998 Y-13.639
X-6.985 Y-12.894
X-7.006 Y-12.149
X-7.062 Y-11.406
X-7.15 Y-10.666
X-7.27 Y-9.931
X-7.42 Y-9.201
X-7.599 Y-8.478
X-7.806 Y-7.762
X-8.039 Y-7.054
X-8.298 Y-6.355
X-8.581 Y-5.666
X-8.728 Y-5.367
X-8.836 Y-5.223
X-8.988 Y-5.129
X-9.165 Y-5.095
X-10.939
G3 X-11.227 Y-5.305 Z-2.406 I0.011 J-0.317
G1 X-11.267 Y-5.419 Z-2.165
X-16.957 Y-21.254
X-17.106 Y-21.671 Z-3.053
X-17.11 Y-21.68 Z-3.074
G3 X-17.122 Y-21.724 Z-3.165 I0.299 J-0.107
G1 X-17.187 Y-22.106
X-17.209 Y-22.231
X-17.276 Y-22.57
X-17.298 Y-22.72
X-17.303 Y-22.873
X-17.287 Y-23.024
X-17.254 Y-23.173
X-17.2 Y-23.333
X-17.124 Y-23.498
X-17.02 Y-23.674
X-16.89 Y-23.849
X-16.721 Y-24.033
X-16.524 Y-24.208
X-16.276 Y-24.386
X-16.003 Y-24.542
X-15.669 Y-24.689
X-15.288 Y-24.812
X-14.866 Y-24.901
X-14.374 Y-24.953
X-13.829
X-13.269 Y-24.896
X-12.635 Y-24.763
X-11.934 Y-24.539
X-11.251 Y-24.24
X-10.6 Y-23.878
X-9.985 Y-23.457
X-9.409 Y-22.984
X-8.871 Y-22.469
X-8.373 Y-21.915
X-7.913 Y-21.329
X-7.492 Y-20.714
X-7.11 Y-20.074
X-6.768 Y-19.412
X-6.466 Y-18.731
X-6.203 Y-18.034
X-5.978 Y-17.324
X-5.79 Y-16.603
X-5.638 Y-15.873
X-5.521 Y-15.138
X-5.439 Y-14.397
X-5.39 Y-13.654
X-5.375 Y-12.909
X-5.392 Y-12.164
X-5.442 Y-11.42
X-5.521 Y-10.68
X-5.63 Y-9.943
X-5.767 Y-9.21
X-5.931 Y-8.483
X-6.121 Y-7.763
X-6.336 Y-7.05
X-6.575 Y-6.344
X-6.839 Y-5.647
X-6.972 Y-5.371
X-7.08 Y-5.225
X-7.233 Y-5.129
X-7.411 Y-5.095
X-9.165
G3 X-9.443 Y-5.282 Z-2.458 I0.011 J-0.317
G1 X-9.503 Y-5.415 Z-2.165
X-17.076 Y-22.114
X-17.256 Y-22.511 Z-3.041
X-17.259 Y-22.517 Z-3.053
G3 X-17.276 Y-22.57 Z-3.165 I0.292 J-0.126
G1 X-17.31 Y-22.739
X-17.356 Y-22.927
X-17.403 Y-23.077
X-17.468 Y-23.246
X-17.525 Y-23.356
X-17.59 Y-23.494
X-17.63 Y-23.641
X-17.65 Y-23.792
X-17.651 Y-23.944
X-17.635 Y-24.103
X-17.598 Y-24.279
X-17.539 Y-24.463
X-17.452 Y-24.66
X-17.336 Y-24.865
X-17.185 Y-25.076
X-16.992 Y-25.295
X-16.764 Y-25.504
X-16.475 Y-25.719
X-16.155 Y-25.909
X-15.767 Y-26.088
X-15.304 Y-26.246
X-14.815 Y-26.358
X-14.256 Y-26.427
X-13.616 Y-26.438
X-12.901 Y-26.377
X-12.176 Y-26.239
X-11.463 Y-26.024
X-10.772 Y-25.744
X-10.108 Y-25.407
X-9.472 Y-25.019
X-8.866 Y-24.585
X-8.293 Y-24.11
X-7.753 Y-23.596
X-7.248 Y-23.048
X-6.778 Y-22.47
X-6.342 Y-21.866
X-5.941 Y-21.238
X-5.574 Y-20.589
X-5.242 Y-19.922
X-5.136 Y-19.678
X-5.114 Y-19.616
X-5.1 Y-19.551
X-5.095 Y-19.484
Y-7.177
X-5.131 Y-6.458
X-5.205 Y-5.981
X-5.306 Y-5.598
X-5.377 Y-5.411
X-5.449 Y-5.283
X-5.555 Y-5.182
X-5.687 Y-5.118
X-5.832 Y-5.095
G3 X-6.138 Y-5.424 Z-2.165 I0.011 J-0.317
X-6.13 Y-5.485 I0.317 J0.011
G1 X-5.722 Y-7.237
G3 X-5.424 Y-7.483 I0.309 J0.072
X-5.095 Y-7.177 Z-3.165 I0.011 J0.317
G1 Y-5.485
X-5.097 Y-5.4
X-5.104 Y-5.358
X-5.117 Y-5.316
X-5.136 Y-5.275
X-5.164 Y-5.233
X-5.21 Y-5.183
X-5.233 Y-5.163
X-5.256 Y-5.147
X-5.295 Y-5.125
X-5.333 Y-5.11
X-5.376 Y-5.1
X-5.418 Y-5.096
X-7.411 Y-5.095
G3 X-7.679 Y-5.261 Z-2.504 I0.011 J-0.317
G1 X-7.76 Y-5.41 Z-2.165
X-17.287 Y-22.918
X-17.499 Y-23.307 Z-3.053
X-17.525 Y-23.356 Z-3.165
X-17.557 Y-23.415
X-17.661 Y-23.585
X-17.773 Y-23.754
X-18.033 Y-24.144
X-18.112 Y-24.275
X-18.168 Y-24.416
X-18.206 Y-24.564
X-18.227 Y-24.718
X-18.233 Y-24.892
X-18.22 Y-25.079
X-18.184 Y-25.285
X-18.121 Y-25.505
X-18.028 Y-25.74
X-17.897 Y-25.989
X-17.732 Y-26.236
X-17.511 Y-26.504
X-17.255 Y-26.755
X-16.93 Y-27.014
X-16.538 Y-27.265
X-16.11 Y-27.48
X-15.601 Y-27.674
X-15 Y-27.833
X-14.327 Y-27.938
X-13.621 Y-27.974
X-12.876 Y-27.936
X-12.14 Y-27.825
X-11.415 Y-27.651
X-10.707 Y-27.419
X-10.019 Y-27.134
X-9.353 Y-26.799
X-8.713 Y-26.418
X-8.099 Y-25.996
X-7.513 Y-25.536
X-6.955 Y-25.042
X-6.427 Y-24.516
X-5.93 Y-23.962
X-5.462 Y-23.382
X-5.188 Y-23.004
X-5.137 Y-22.916
X-5.106 Y-22.819
X-5.095 Y-22.718
Y-19.484
G3 X-5.424 Y-19.178 Z-2.165 I-0.317 J-0.011
X-5.528 Y-19.2 I0.011 J-0.317
G1 X-17.597 Y-23.918
X-17.891 Y-24.034 Z-2.799
G3 X-18.033 Y-24.144 Z-3.165 I0.116 J-0.296
G1 X-18.112 Y-24.261
X-18.203 Y-24.382
X-18.242 Y-24.43
X-18.372 Y-24.586
X-18.386 Y-24.599
X-18.541 Y-24.741
X-18.575 Y-24.769
X-18.694 Y-24.865
X-18.781 Y-24.989
X-18.852 Y-25.124
X-18.907 Y-25.27
X-18.948 Y-25.426
X-18.977 Y-25.613
X-18.987 Y-25.808
X-18.974 Y-26.038
X-18.937 Y-26.273
X-18.867 Y-26.538
X-18.763 Y-26.811
X-18.616 Y-27.103
X-18.415 Y-27.415
X-18.174 Y-27.717
X-17.861 Y-28.034
X-17.479 Y-28.349
X-17.052 Y-28.632
X-16.526 Y-28.908
X-15.901 Y-29.156
X-15.201 Y-29.354
X-14.467 Y-29.481
X-13.724 Y-29.532
X-12.979 Y-29.514
X-12.238 Y-29.435
X-11.505 Y-29.299
X-10.784 Y-29.111
X-10.078 Y-28.876
X-9.388 Y-28.593
X-8.719 Y-28.264
X-8.072 Y-27.895
X-7.448 Y-27.489
X-6.847 Y-27.048
X-6.271 Y-26.576
X-5.72 Y-26.074
X-5.237 Y-25.586
X-5.16 Y-25.485
X-5.112 Y-25.368
X-5.095 Y-25.243
Y-22.718
G3 X-5.424 Y-22.412 Z-2.165 I-0.317 J-0.011
X-5.468 Y-22.417 I0.011 J-0.317
G1 X-18.093 Y-24.656
X-18.454 Y-24.719 Z-2.9
G3 X-18.575 Y-24.769 Z-3.165 I0.055 J-0.313
G1 X-18.711 Y-24.867
X-19.319 Y-25.276
X-19.441 Y-25.367
X-19.557 Y-25.466
X-19.659 Y-25.58
X-19.746 Y-25.705
X-19.82 Y-25.838
X-19.88 Y-25.978
X-19.928 Y-26.123
X-19.964 Y-26.271
X-19.989 Y-26.421
X-20.003 Y-26.573
X-20.007 Y-26.725
X-20.001 Y-26.877
X-19.987 Y-27.029
X-19.964 Y-27.18
X-19.933 Y-27.329
X-19.895 Y-27.477
X-19.849 Y-27.622
X-19.797 Y-27.765
X-19.739 Y-27.906
X-19.675 Y-28.045
X-19.605 Y-28.18
X-19.53 Y-28.313
X-19.451 Y-28.443
X-19.366 Y-28.57
X-19.278 Y-28.693
X-19.185 Y-28.814
X-19.088 Y-28.932
X-18.988 Y-29.047
X-18.884 Y-29.158
X-18.776 Y-29.266
X-18.666 Y-29.371
X-18.552 Y-29.473
X-18.437 Y-29.572
X-18.318 Y-29.668
X-18.197 Y-29.76
X-18.073 Y-29.849
X-17.948 Y-29.936
X-17.82 Y-30.019
X-17.691 Y-30.1
X-17.559 Y-30.177
X-17.426 Y-30.251
X-17.291 Y-30.322
X-17.155 Y-30.39
X-17.018 Y-30.456
X-16.879 Y-30.519
X-16.738 Y-30.579
X-16.597 Y-30.635
X-16.454 Y-30.689
X-16.311 Y-30.74
X-16.166 Y-30.789
X-16.021 Y-30.835
X-15.875 Y-30.878
X-15.728 Y-30.917
X-15.58 Y-30.954
X-15.431 Y-30.989
X-15.283 Y-31.021
X-15.133 Y-31.051
X-14.983 Y-31.077
X-14.832 Y-31.101
X-14.681 Y-31.122
X-14.53 Y-31.141
X-14.379 Y-31.157
X-14.227 Y-31.171
X-14.075 Y-31.182
X-13.923 Y-31.191
X-13.771 Y-31.197
X-13.618 Y-31.201
X-13.466 Y-31.203
X-13.313
X-13.161 Y-31.199
X-13.009 Y-31.194
X-12.856 Y-31.186
X-12.704 Y-31.177
X-12.552 Y-31.165
X-12.401 Y-31.151
X-12.249 Y-31.135
X-12.098 Y-31.116
X-11.947 Y-31.096
X-11.796 Y-31.074
X-11.646 Y-31.05
X-11.496 Y-31.023
X-11.346 Y-30.995
X-11.196 Y-30.964
X-11.048 Y-30.932
X-10.899 Y-30.898
X-10.751 Y-30.862
X-10.603 Y-30.824
X-10.456 Y-30.784
X-10.31 Y-30.743
X-10.163 Y-30.699
X-10.018 Y-30.654
X-9.873 Y-30.607
X-9.728 Y-30.558
X-9.585 Y-30.508
X-9.442 Y-30.455
X-9.299 Y-30.402
X-9.157 Y-30.346
X-9.016 Y-30.289
X-8.876 Y-30.229
X-8.736 Y-30.168
X-8.597 Y-30.106
X-8.458 Y-30.043
X-8.321 Y-29.977
X-8.184 Y-29.91
X-8.048 Y-29.841
X-7.911 Y-29.77
X-7.776 Y-29.699
X-7.642 Y-29.626
X-7.51 Y-29.551
X-7.378 Y-29.475
X-7.246 Y-29.397
X-7.105 Y-29.312
X-6.975 Y-29.232
X-6.847 Y-29.15
X-6.719 Y-29.067
X-6.592 Y-28.983
X-6.452 Y-28.888
X-6.327 Y-28.801
X-6.203 Y-28.713
X-6.08 Y-28.623
X-5.957 Y-28.532
X-5.823 Y-28.43
X-5.695 Y-28.331
X-5.576 Y-28.237
X-5.457 Y-28.141
X-5.339 Y-28.044
X-5.269 Y-27.984
X-5.175 Y-27.879
X-5.116 Y-27.751
X-5.095 Y-27.612
Y-25.243
G3 X-5.42 Y-24.937 Z-2.173 I-0.317 J-0.011
G1 X-5.424 Z-2.165
X-18.83 Y-25.222
X-19.159 Y-25.229 Z-2.826
G3 X-19.319 Y-25.276 Z-3.165 I0.007 J-0.317
G1 X-19.388 Y-25.322
X-19.557 Y-25.424
X-19.594 Y-25.445
X-19.727 Y-25.518
X-19.896 Y-25.588
X-19.967 Y-25.614
X-20.065 Y-25.641
X-20.235 Y-25.685
X-20.743 Y-25.786
X-21.081 Y-25.852
X-21.251 Y-25.88
X-21.42 Y-25.89
X-21.589 Y-25.891
X-21.759 Y-25.878
X-21.928 Y-25.85
X-22.268 Y-25.784
X-22.775 Y-25.681
X-22.912 Y-25.647
G3 X-22.968 Y-25.64 Z-3.053 I-0.066 J-0.311
X-23.289 Y-25.891 Z-2.165 I-0.011 J-0.317
X-23.295 Y-25.941 I0.311 J-0.066
G1 X-24.88 Y-55.922
G3 X-24.828 Y-56.114 I0.317 J-0.017
X-24.437 Y-56.23 Z-3.053 I0.265 J0.175
X-24.388 Y-56.204 Z-3.165 I-0.126 J0.291
G1 X-24.299 Y-56.14
X-23.791 Y-55.797
X-23.621 Y-55.684
X-23.452 Y-55.578
X-23.413 Y-55.555
X-23.283 Y-55.489
X-23.113 Y-55.413
X-22.944 Y-55.361
X-22.893 Y-55.348
X-22.747 Y-55.304
X-22.563 Y-55.22
X-22.351 Y-55.095
X-22.126 Y-54.929
X-21.866 Y-54.692
X-21.577 Y-54.368
X-21.239 Y-53.899
X-20.868 Y-53.252
X-20.56 Y-52.574
X-20.294 Y-51.878
X-20.057 Y-51.172
X-19.842 Y-50.458
X-19.645 Y-49.74
X-19.465 Y-49.017
X-19.299 Y-48.29
X-19.148 Y-47.561
X-19.011 Y-46.828
X-18.888 Y-46.094
X-18.778 Y-45.357
X-18.682 Y-44.618
X-18.6 Y-43.877
X-18.531 Y-43.136
X-18.476 Y-42.392
X-18.435 Y-41.649
X-18.407 Y-40.904
X-18.392 Y-40.159
Y-39.414
X-18.405 Y-38.669
X-18.432 Y-37.925
X-18.472 Y-37.181
X-18.527 Y-36.437
X-18.595 Y-35.696
X-18.676 Y-34.955
X-18.772 Y-34.216
X-18.881 Y-33.479
X-18.942 Y-33.111
X-19.023 Y-32.653
X-19.092 Y-32.287
X-19.056 Y-32.104
X-18.954 Y-31.949
X-18.801 Y-31.843
X-18.619 Y-31.802
X-17.884 Y-31.925
X-17.181 Y-32.171
X-16.467 Y-32.386
X-15.743 Y-32.559
X-15.008 Y-32.686
X-14.268 Y-32.765
X-13.523 Y-32.795
X-12.778 Y-32.778
X-12.036 Y-32.717
X-11.298 Y-32.611
X-10.568 Y-32.463
X-9.847 Y-32.275
X-9.137 Y-32.049
X-8.44 Y-31.785
X-7.758 Y-31.486
X-7.091 Y-31.153
X-6.441 Y-30.789
X-5.81 Y-30.394
X-5.306 Y-30.047
X-5.193 Y-29.938
X-5.121 Y-29.8
X-5.095 Y-29.646
Y-27.612
G3 X-5.124 Y-27.491 I-0.317 J-0.011
G1 X-5.153 Y-27.427 Z-3.157
X-5.181 Y-27.366 Z-3.134
X-5.206 Y-27.311 Z-3.096
X-5.227 Y-27.265 Z-3.045
X-5.243 Y-27.231 Z-2.985
X-5.252 Y-27.21 Z-2.918
X-5.256 Y-27.202 Z-2.848
G0 Z2
X-22.671 Y-55.063
Z-2.53
G1 Z-2.848 F3556
X-22.678 Y-55.067 Z-2.918
X-22.698 Y-55.08 Z-2.985
X-22.73 Y-55.1 Z-3.045
X-22.772 Y-55.127 Z-3.096
X-22.823 Y-55.159 Z-3.134
X-22.88 Y-55.195 Z-3.157
X-22.94 Y-55.233 Z-3.165
G3 X-22.893 Y-55.348 I0.034 J-0.054
G1 X-22.775 Y-55.319
X-22.267 Y-55.216
X-21.928 Y-55.15
X-21.759 Y-55.122
X-21.589 Y-55.109
X-21.437 Y-55.098
X-21.283 Y-55.069
X-21.103 Y-55.014
X-20.892 Y-54.926
X-20.667 Y-54.803
X-20.43 Y-54.64
X-20.153 Y-54.404
X-19.869 Y-54.105
X-19.538 Y-53.676
X-19.165 Y-53.072
X-18.841 Y-52.401
X-18.568 Y-51.708
X-18.33 Y-51.002
X-18.118 Y-50.288
X-17.927 Y-49.568
X-17.754 Y-48.843
X-17.596 Y-48.115
X-17.453 Y-47.384
X-17.324 Y-46.65
X-17.208 Y-45.914
X-17.106 Y-45.176
X-17.017 Y-44.436
X-16.941 Y-43.695
X-16.878 Y-42.952
X-16.828 Y-42.209
X-16.792 Y-41.465
X-16.768 Y-40.72
X-16.757 Y-39.975
X-16.76 Y-39.23
X-16.776 Y-38.485
X-16.805 Y-37.741
X-16.847 Y-36.997
X-16.902 Y-36.254
X-16.936 Y-35.883
X-16.975 Y-35.512
X-16.995 Y-35.327
X-16.943 Y-35.148
X-16.829 Y-35.001
X-16.506 Y-34.815
X-15.795 Y-34.593
X-15.054 Y-34.511
X-14.31 Y-34.48
X-13.565 Y-34.456
X-12.821 Y-34.415
X-12.079 Y-34.347
X-11.341 Y-34.248
X-10.608 Y-34.114
X-9.882 Y-33.947
X-9.165 Y-33.745
X-8.457 Y-33.511
X-7.762 Y-33.243
X-7.08 Y-32.944
X-6.412 Y-32.614
X-5.759 Y-32.255
X-5.329 Y-31.993
X-5.205 Y-31.885
X-5.124 Y-31.74
X-5.095 Y-31.577
Y-29.646
G3 X-5.124 Y-29.525 I-0.317 J-0.011
G1 X-5.153 Y-29.461 Z-3.157
X-5.181 Y-29.4 Z-3.134
X-5.206 Y-29.345 Z-3.096
X-5.227 Y-29.299 Z-3.045
X-5.243 Y-29.265 Z-2.985
X-5.252 Y-29.244 Z-2.918
X-5.256 Y-29.236 Z-2.848
G0 Z2
X-21.305 Y-54.887
Z-2.53
G1 Z-2.848 F3556
X-21.312 Y-54.89 Z-2.918
X-21.335 Y-54.897 Z-2.985
X-21.371 Y-54.909 Z-3.045
X-21.418 Y-54.924 Z-3.096
X-21.476 Y-54.943 Z-3.134
X-21.539 Y-54.964 Z-3.157
X-21.607 Y-54.986 Z-3.165
G3 X-21.589 Y-55.109 I0.02 J-0.06
G1 X-21.42 Y-55.11
X-21.251 Y-55.12
X-21.081 Y-55.148
X-20.731 Y-55.216
X-20.48 Y-55.266
X-20.329 Y-55.289
X-20.173
X-20.003 Y-55.271
X-19.801 Y-55.228
X-19.584 Y-55.159
X-19.353 Y-55.057
X-19.079 Y-54.901
X-18.805 Y-54.705
X-18.501 Y-54.435
X-18.173 Y-54.078
X-17.809 Y-53.588
X-17.429 Y-52.947
X-17.115 Y-52.272
X-16.847 Y-51.576
X-16.615 Y-50.868
X-16.409 Y-50.152
X-16.224 Y-49.431
X-16.057 Y-48.705
X-15.906 Y-47.975
X-15.77 Y-47.242
X-15.647 Y-46.508
X-15.538 Y-45.771
X-15.442 Y-45.032
X-15.358 Y-44.291
X-15.287 Y-43.55
X-15.229 Y-42.807
X-15.183 Y-42.063
X-15.151 Y-41.319
X-15.13 Y-40.574
X-15.123 Y-39.829
X-15.128 Y-39.084
X-15.145 Y-38.339
X-15.16 Y-37.967
X-15.179 Y-37.595
X-15.118 Y-37.419
X-14.91 Y-37.11
X-14.336 Y-36.635
X-13.64 Y-36.368
X-12.915 Y-36.198
X-12.182 Y-36.065
X-11.447 Y-35.938
X-10.715 Y-35.799
X-9.987 Y-35.64
X-9.266 Y-35.456
X-8.551 Y-35.244
X-7.846 Y-35.004
X-7.151 Y-34.736
X-6.468 Y-34.438
X-5.798 Y-34.112
X-5.351 Y-33.871
X-5.215 Y-33.763
X-5.126 Y-33.614
X-5.095 Y-33.443
Y-31.577
G3 X-5.124 Y-31.457 I-0.317 J-0.011
G1 X-5.153 Y-31.393 Z-3.157
X-5.181 Y-31.331 Z-3.134
X-5.206 Y-31.277 Z-3.096
X-5.227 Y-31.231 Z-3.045
X-5.243 Y-31.197 Z-2.985
X-5.252 Y-31.175 Z-2.918
X-5.256 Y-31.168 Z-2.848
