%
(1)
(planck holes0)
(T3  D=1.587 CR=0 TAPER=118deg - ZMIN=-9 - drill)
G90
G17
G21
G28 G91 Z0
G90

(Drill2)
M9
T3 M6
S16000 M3
G54
M7
G0 X-21.5 Y-21.5
Z15.24
Z5.08
Z2
G1 Z-0.397 F317.5
G0 Z5.08
Z1.603
G1 Z-0.794 F317.5
G0 Z5.08
Z1.206
G1 Z-1.191 F317.5
G0 Z5.08
Z0.809
G1 Z-1.587 F317.5
G0 Z5.08
Z0.413
G1 Z-1.984 F317.5
G0 Z5.08
Z0.016
G1 Z-2.381 F317.5
G0 Z5.08
Z-0.381
G1 Z-2.778 F317.5
G0 Z5.08
Z-0.778
G1 Z-3.175 F317.5
G0 Z5.08
Z-1.175
G1 Z-3.572 F317.5
G0 Z5.08
Z-1.572
G1 Z-3.969 F317.5
G0 Z5.08
Z-1.969
G1 Z-4.366 F317.5
G0 Z5.08
Z-2.366
G1 Z-4.762 F317.5
G0 Z5.08
Z-2.762
G1 Z-5.159 F317.5
G0 Z5.08
Z-3.159
G1 Z-5.556 F317.5
G0 Z5.08
Z-3.556
G1 Z-5.953 F317.5
G0 Z5.08
Z-3.953
G1 Z-6.35 F317.5
G0 Z5.08
Z-4.35
G1 Z-6.747 F317.5
G0 Z5.08
Z-4.747
G1 Z-7.144 F317.5
G0 Z5.08
Z-5.144
G1 Z-7.541 F317.5
G0 Z5.08
Z-5.541
G1 Z-7.937 F317.5
G0 Z5.08
Z-5.937
G1 Z-8.334 F317.5
G0 Z5.08
Z-6.334
G1 Z-8.731 F317.5
G0 Z5.08
Z-6.731
G1 Z-9 F317.5
G0 Z5.08
Y-59.5
Z2
G1 Z-0.397 F317.5
G0 Z5.08
Z1.603
G1 Z-0.794 F317.5
G0 Z5.08
Z1.206
G1 Z-1.191 F317.5
G0 Z5.08
Z0.809
G1 Z-1.587 F317.5
G0 Z5.08
Z0.413
G1 Z-1.984 F317.5
G0 Z5.08
Z0.016
G1 Z-2.381 F317.5
G0 Z5.08
Z-0.381
G1 Z-2.778 F317.5
G0 Z5.08
Z-0.778
G1 Z-3.175 F317.5
G0 Z5.08
Z-1.175
G1 Z-3.572 F317.5
G0 Z5.08
Z-1.572
G1 Z-3.969 F317.5
G0 Z5.08
Z-1.969
G1 Z-4.366 F317.5
G0 Z5.08
Z-2.366
G1 Z-4.762 F317.5
G0 Z5.08
Z-2.762
G1 Z-5.159 F317.5
G0 Z5.08
Z-3.159
G1 Z-5.556 F317.5
G0 Z5.08
Z-3.556
G1 Z-5.953 F317.5
G0 Z5.08
Z-3.953
G1 Z-6.35 F317.5
G0 Z5.08
Z-4.35
G1 Z-6.747 F317.5
G0 Z5.08
Z-4.747
G1 Z-7.144 F317.5
G0 Z5.08
Z-5.144
G1 Z-7.541 F317.5
G0 Z5.08
Z-5.541
G1 Z-7.937 F317.5
G0 Z5.08
Z-5.937
G1 Z-8.334 F317.5
G0 Z5.08
Z-6.334
G1 Z-8.731 F317.5
G0 Z5.08
Z-6.731
G1 Z-9 F317.5
G0 Z5.08
X-116.5 Y-40.5
Z2
G1 Z-0.397 F317.5
G0 Z5.08
Z1.603
G1 Z-0.794 F317.5
G0 Z5.08
Z1.206
G1 Z-1.191 F317.5
G0 Z5.08
Z0.809
G1 Z-1.587 F317.5
G0 Z5.08
Z0.413
G1 Z-1.984 F317.5
G0 Z5.08
Z0.016
G1 Z-2.381 F317.5
G0 Z5.08
Z-0.381
G1 Z-2.778 F317.5
G0 Z5.08
Z-0.778
G1 Z-3.175 F317.5
G0 Z5.08
Z-1.175
G1 Z-3.572 F317.5
G0 Z5.08
Z-1.572
G1 Z-3.969 F317.5
G0 Z5.08
Z-1.969
G1 Z-4.366 F317.5
G0 Z5.08
Z-2.366
G1 Z-4.762 F317.5
G0 Z5.08
Z-2.762
G1 Z-5.159 F317.5
G0 Z5.08
Z-3.159
G1 Z-5.556 F317.5
G0 Z5.08
Z-3.556
G1 Z-5.953 F317.5
G0 Z5.08
Z-3.953
G1 Z-6.35 F317.5
G0 Z5.08
Z-4.35
G1 Z-6.747 F317.5
G0 Z5.08
Z-4.747
G1 Z-7.144 F317.5
G0 Z5.08
Z-5.144
G1 Z-7.541 F317.5
G0 Z5.08
Z-5.541
G1 Z-7.937 F317.5
G0 Z5.08
Z-5.937
G1 Z-8.334 F317.5
G0 Z5.08
Z-6.334
G1 Z-8.731 F317.5
G0 Z5.08
Z-6.731
G1 Z-9 F317.5
G0 Z5.08
X-211.5 Y-21.5
Z2
G1 Z-0.397 F317.5
G0 Z5.08
Z1.603
G1 Z-0.794 F317.5
G0 Z5.08
Z1.206
G1 Z-1.191 F317.5
G0 Z5.08
Z0.809
G1 Z-1.587 F317.5
G0 Z5.08
Z0.413
G1 Z-1.984 F317.5
G0 Z5.08
Z0.016
G1 Z-2.381 F317.5
G0 Z5.08
Z-0.381
G1 Z-2.778 F317.5
G0 Z5.08
Z-0.778
G1 Z-3.175 F317.5
G0 Z5.08
Z-1.175
G1 Z-3.572 F317.5
G0 Z5.08
Z-1.572
G1 Z-3.969 F317.5
G0 Z5.08
Z-1.969
G1 Z-4.366 F317.5
G0 Z5.08
Z-2.366
G1 Z-4.762 F317.5
G0 Z5.08
Z-2.762
G1 Z-5.159 F317.5
G0 Z5.08
Z-3.159
G1 Z-5.556 F317.5
G0 Z5.08
Z-3.556
G1 Z-5.953 F317.5
G0 Z5.08
Z-3.953
G1 Z-6.35 F317.5
G0 Z5.08
Z-4.35
G1 Z-6.747 F317.5
G0 Z5.08
Z-4.747
G1 Z-7.144 F317.5
G0 Z5.08
Z-5.144
G1 Z-7.541 F317.5
G0 Z5.08
Z-5.541
G1 Z-7.937 F317.5
G0 Z5.08
Z-5.937
G1 Z-8.334 F317.5
G0 Z5.08
Z-6.334
G1 Z-8.731 F317.5
G0 Z5.08
Z-6.731
G1 Z-9 F317.5
G0 Z5.08
Y-59.5
Z2
G1 Z-0.397 F317.5
G0 Z5.08
Z1.603
G1 Z-0.794 F317.5
G0 Z5.08
Z1.206
G1 Z-1.191 F317.5
G0 Z5.08
Z0.809
G1 Z-1.587 F317.5
G0 Z5.08
Z0.413
G1 Z-1.984 F317.5
G0 Z5.08
Z0.016
G1 Z-2.381 F317.5
G0 Z5.08
Z-0.381
G1 Z-2.778 F317.5
G0 Z5.08
Z-0.778
G1 Z-3.175 F317.5
G0 Z5.08
Z-1.175
G1 Z-3.572 F317.5
G0 Z5.08
Z-1.572
G1 Z-3.969 F317.5
G0 Z5.08
Z-1.969
G1 Z-4.366 F317.5
G0 Z5.08
Z-2.366
G1 Z-4.762 F317.5
G0 Z5.08
Z-2.762
G1 Z-5.159 F317.5
G0 Z5.08
Z-3.159
G1 Z-5.556 F317.5
G0 Z5.08
Z-3.556
G1 Z-5.953 F317.5
G0 Z5.08
Z-3.953
G1 Z-6.35 F317.5
G0 Z5.08
Z-4.35
G1 Z-6.747 F317.5
G0 Z5.08
Z-4.747
G1 Z-7.144 F317.5
G0 Z5.08
Z-5.144
G1 Z-7.541 F317.5
G0 Z5.08
Z-5.541
G1 Z-7.937 F317.5
G0 Z5.08
Z-5.937
G1 Z-8.334 F317.5
G0 Z5.08
Z-6.334
G1 Z-8.731 F317.5
G0 Z5.08
Z-6.731
G1 Z-9 F317.5
G0 Z5.08
Z15.24
M9
G28 G91 Z0
G28 X0 Y0
M30
%
