%
(1001)
(wood-top4)
(T3  D=1.587 CR=0 TAPER=118deg - ZMIN=-9 - drill)
(T5  D=3.175 CR=0 - ZMIN=-10.5 - flat end mill)
G90
G17
G21
G28 G91 Z0
G90

(2D Adaptive4)
M9
T5 M6
S16000 M3
G54
M9
G0 X-60.067 Y-40.852
Z15.24
Z5.08
Z2.858
G1 Z2.54 F5080
G3 X-57.134 Y-40.148 Z2.375 I1.466 J0.352
X-60.067 Y-40.852 Z2.209 I-1.466 J-0.352
X-57.134 Y-40.148 Z2.044 I1.466 J0.352
X-60.067 Y-40.852 Z1.878 I-1.466 J-0.352
X-57.134 Y-40.148 Z1.713 I1.466 J0.352
X-60.067 Y-40.852 Z1.547 I-1.466 J-0.352
X-57.134 Y-40.148 Z1.382 I1.466 J0.352
X-60.067 Y-40.852 Z1.216 I-1.466 J-0.352
X-57.134 Y-40.148 Z1.051 I1.466 J0.352
X-60.067 Y-40.852 Z0.885 I-1.466 J-0.352
X-57.134 Y-40.148 Z0.72 I1.466 J0.352
X-60.067 Y-40.852 Z0.555 I-1.466 J-0.352
X-57.134 Y-40.148 Z0.389 I1.466 J0.352
X-60.067 Y-40.852 Z0.224 I-1.466 J-0.352
X-57.134 Y-40.148 Z0.058 I1.466 J0.352
X-60.067 Y-40.852 Z-0.107 I-1.466 J-0.352
X-57.134 Y-40.148 Z-0.273 I1.466 J0.352
X-60.067 Y-40.852 Z-0.438 I-1.466 J-0.352
X-57.134 Y-40.148 Z-0.604 I1.466 J0.352
X-60.067 Y-40.852 Z-0.769 I-1.466 J-0.352
X-57.134 Y-40.148 Z-0.934 I1.466 J0.352
X-60.067 Y-40.852 Z-1.1 I-1.466 J-0.352
X-57.134 Y-40.148 Z-1.265 I1.466 J0.352
X-60.067 Y-40.852 Z-1.431 I-1.466 J-0.352
X-57.134 Y-40.148 Z-1.596 I1.466 J0.352
X-60.067 Y-40.852 Z-1.762 I-1.466 J-0.352
X-57.134 Y-40.148 Z-1.927 I1.466 J0.352
X-60.067 Y-40.852 Z-2.093 I-1.466 J-0.352
X-57.134 Y-40.148 Z-2.258 I1.466 J0.352
X-60.067 Y-40.852 Z-2.424 I-1.466 J-0.352
X-57.134 Y-40.148 Z-2.589 I1.466 J0.352
X-60.067 Y-40.852 Z-2.754 I-1.466 J-0.352
X-57.134 Y-40.148 Z-2.92 I1.466 J0.352
X-60.067 Y-40.852 Z-3.085 I-1.466 J-0.352
X-57.134 Y-40.148 Z-3.251 I1.466 J0.352
X-60.067 Y-40.852 Z-3.416 I-1.466 J-0.352
X-57.134 Y-40.148 Z-3.582 I1.466 J0.352
X-60.067 Y-40.852 Z-3.747 I-1.466 J-0.352
X-57.134 Y-40.148 Z-3.913 I1.466 J0.352
X-60.067 Y-40.852 Z-4.078 I-1.466 J-0.352
X-57.134 Y-40.148 Z-4.244 I1.466 J0.352
X-60.067 Y-40.852 Z-4.409 I-1.466 J-0.352
X-57.092 Y-40.5 Z-4.562 I1.466 J0.352
X-60.108 I-1.508 J0
X-57.092 I1.508 J0
G1 X-57.073 Y-39.755
X-57.051 Y-39.665
X-57.037 Y-39.513
X-57.052 Y-39.361
X-57.09 Y-39.213
X-57.147 Y-39.072
X-57.222 Y-38.939
X-57.311 Y-38.816
X-57.412 Y-38.702
X-57.524 Y-38.599
X-57.646 Y-38.507
X-57.775 Y-38.425
X-57.91 Y-38.356
X-58.051 Y-38.298
X-58.2 Y-38.25
X-58.355 Y-38.213
X-58.517 Y-38.189
X-58.683 Y-38.177
X-58.852 Y-38.179
X-59.023 Y-38.194
X-59.195 Y-38.224
X-59.366 Y-38.268
X-59.535 Y-38.326
X-59.701 Y-38.398
X-59.861 Y-38.484
X-60.015 Y-38.583
X-60.162 Y-38.695
X-60.3 Y-38.82
X-60.428 Y-38.956
X-60.546 Y-39.102
X-60.652 Y-39.258
X-60.745 Y-39.422
X-60.825 Y-39.594
X-60.891 Y-39.772
X-60.943 Y-39.956
X-60.98 Y-40.143
X-61.002 Y-40.334
X-61.009 Y-40.525
X-61 Y-40.717
X-60.975 Y-40.908
X-60.936 Y-41.096
X-60.881 Y-41.281
X-60.812 Y-41.461
X-60.729 Y-41.635
X-60.631 Y-41.802
X-60.521 Y-41.961
X-60.398 Y-42.11
X-60.263 Y-42.249
X-60.118 Y-42.377
X-59.963 Y-42.492
X-59.799 Y-42.595
X-59.627 Y-42.685
X-59.449 Y-42.76
X-59.265 Y-42.821
X-59.077 Y-42.867
X-58.885 Y-42.898
X-58.692 Y-42.913
X-58.498 Y-42.912
X-58.305 Y-42.896
X-58.114 Y-42.865
X-57.926 Y-42.819
X-57.742 Y-42.757
X-57.563 Y-42.681
X-57.392 Y-42.591
X-57.228 Y-42.487
X-57.073 Y-42.37
X-56.928 Y-42.242
X-56.793 Y-42.102
X-56.67 Y-41.952
X-56.56 Y-41.792
X-56.455 Y-41.611
X-56.342 Y-41.373
X-56.191 Y-40.976
X-56.098 Y-40.656
X-56.042 Y-40.385
X-56.011 Y-40.135
X-56.001 Y-39.899
X-56.009 Y-39.677
X-56.034 Y-39.465
X-56.076 Y-39.26
X-56.133 Y-39.06
X-56.206 Y-38.864
X-56.295 Y-38.675
X-56.399 Y-38.494
X-56.518 Y-38.321
X-56.651 Y-38.157
X-56.798 Y-38.002
X-56.959 Y-37.858
X-57.134 Y-37.725
X-57.321 Y-37.605
X-57.52 Y-37.5
X-57.731 Y-37.409
X-57.951 Y-37.334
X-58.179 Y-37.276
X-58.415 Y-37.236
X-58.656 Y-37.215
X-58.901 Y-37.214
X-59.147 Y-37.232
X-59.394 Y-37.27
X-59.639 Y-37.329
X-59.881 Y-37.408
X-60.117 Y-37.506
X-60.346 Y-37.624
X-60.567 Y-37.761
X-60.777 Y-37.917
X-60.975 Y-38.089
X-61.159 Y-38.278
X-61.329 Y-38.482
X-61.482 Y-38.699
X-61.617 Y-38.93
X-61.735 Y-39.171
X-61.833 Y-39.421
X-61.91 Y-39.68
X-61.967 Y-39.944
X-62.002 Y-40.213
X-62.016 Y-40.484
X-62.008 Y-40.756
X-61.978 Y-41.026
X-61.926 Y-41.294
X-61.853 Y-41.557
X-61.759 Y-41.814
X-61.645 Y-42.062
X-61.511 Y-42.301
X-61.358 Y-42.528
X-61.187 Y-42.743
X-61 Y-42.943
X-60.797 Y-43.128
X-60.579 Y-43.295
X-60.349 Y-43.445
X-60.108 Y-43.576
X-59.856 Y-43.687
X-59.597 Y-43.778
X-59.331 Y-43.847
X-59.06 Y-43.895
X-58.786 Y-43.921
X-58.511 Y-43.926
X-58.237 Y-43.907
X-57.965 Y-43.867
X-57.697 Y-43.806
X-57.434 Y-43.723
X-57.18 Y-43.619
X-56.934 Y-43.495
X-56.699 Y-43.351
X-56.476 Y-43.19
X-56.265 Y-43.009
X-56.06 Y-42.802
X-55.845 Y-42.548
X-55.647 Y-42.271
X-55.465 Y-41.968
X-55.307 Y-41.649
X-55.177 Y-41.324
X-55.076 Y-40.998
X-55.003 Y-40.674
X-54.959 Y-40.355
X-54.94 Y-40.039
X-54.947 Y-39.728
X-54.978 Y-39.422
X-55.033 Y-39.122
X-55.112 Y-38.83
X-55.213 Y-38.546
X-55.336 Y-38.273
X-55.481 Y-38.01
X-55.646 Y-37.759
X-55.832 Y-37.522
X-56.037 Y-37.299
X-56.261 Y-37.092
X-56.503 Y-36.903
X-56.761 Y-36.732
X-57.034 Y-36.581
X-57.32 Y-36.451
X-57.619 Y-36.344
X-57.928 Y-36.261
X-58.246 Y-36.202
X-58.57 Y-36.168
X-58.898 Y-36.161
X-59.228 Y-36.18
X-59.557 Y-36.225
X-59.884 Y-36.298
X-60.207 Y-36.397
X-60.522 Y-36.523
X-60.828 Y-36.674
X-61.122 Y-36.85
X-61.403 Y-37.05
X-61.668 Y-37.274
X-61.915 Y-37.519
X-62.143 Y-37.784
X-62.349 Y-38.067
X-62.533 Y-38.367
X-62.693 Y-38.682
X-62.827 Y-39.01
X-62.934 Y-39.349
X-63.015 Y-39.695
X-63.067 Y-40.048
X-63.091 Y-40.404
X-63.086 Y-40.762
X-63.053 Y-41.119
X-62.991 Y-41.472
X-62.901 Y-41.82
X-62.783 Y-42.159
X-62.638 Y-42.488
X-62.466 Y-42.805
X-62.27 Y-43.107
X-62.05 Y-43.393
X-61.808 Y-43.66
X-61.545 Y-43.908
X-61.263 Y-44.133
X-60.964 Y-44.335
X-60.649 Y-44.512
X-60.321 Y-44.664
X-59.982 Y-44.788
X-59.633 Y-44.886
X-59.278 Y-44.955
X-58.919 Y-44.995
X-58.558 Y-45.006
X-58.196 Y-44.988
X-57.838 Y-44.941
X-57.484 Y-44.866
X-57.137 Y-44.762
X-56.8 Y-44.631
X-56.473 Y-44.473
X-56.157 Y-44.288
X-55.847 Y-44.07
X-55.546 Y-43.821
X-55.257 Y-43.539
X-54.985 Y-43.228
X-54.736 Y-42.891
X-54.512 Y-42.533
X-54.318 Y-42.158
X-54.156 Y-41.771
X-54.027 Y-41.376
X-53.93 Y-40.975
X-53.867 Y-40.571
X-53.837 Y-40.167
X-53.839 Y-39.766
X-53.873 Y-39.369
X-53.938 Y-38.978
X-54.034 Y-38.596
X-54.16 Y-38.224
X-54.315 Y-37.864
X-54.498 Y-37.517
X-54.709 Y-37.187
X-54.946 Y-36.874
X-55.208 Y-36.58
X-55.494 Y-36.307
X-55.802 Y-36.056
X-56.131 Y-35.83
X-56.479 Y-35.63
X-56.845 Y-35.458
X-57.225 Y-35.314
X-57.618 Y-35.201
X-58.021 Y-35.12
X-58.432 Y-35.07
X-58.848 Y-35.054
X-59.266 Y-35.071
X-59.684 Y-35.122
X-60.099 Y-35.207
X-60.508 Y-35.325
X-60.908 Y-35.477
X-61.296 Y-35.661
X-61.67 Y-35.877
X-62.027 Y-36.123
X-62.364 Y-36.398
X-62.68 Y-36.7
X-62.971 Y-37.027
X-63.235 Y-37.379
X-63.472 Y-37.751
X-63.678 Y-38.142
X-63.853 Y-38.549
X-63.994 Y-38.97
X-64.102 Y-39.402
X-64.175 Y-39.842
X-64.212 Y-40.288
X-64.214 Y-40.735
X-64.179 Y-41.182
X-64.109 Y-41.625
X-64.003 Y-42.061
X-63.862 Y-42.488
X-63.688 Y-42.903
X-63.48 Y-43.302
X-63.242 Y-43.684
X-62.973 Y-44.046
X-62.675 Y-44.385
X-62.352 Y-44.699
X-62.003 Y-44.986
X-61.633 Y-45.245
X-61.244 Y-45.473
X-60.837 Y-45.669
X-60.415 Y-45.832
X-59.982 Y-45.961
X-59.54 Y-46.054
X-59.091 Y-46.112
X-58.64 Y-46.134
X-58.188 Y-46.119
X-57.738 Y-46.068
X-57.294 Y-45.981
X-56.858 Y-45.858
X-56.43 Y-45.7
X-56.012 Y-45.506
X-55.606 Y-45.276
X-55.214 Y-45.011
X-54.837 Y-44.709
X-54.479 Y-44.371
X-54.144 Y-44.001
X-53.838 Y-43.601
X-53.563 Y-43.176
X-53.323 Y-42.73
X-53.12 Y-42.267
X-52.955 Y-41.79
X-52.83 Y-41.304
X-52.745 Y-40.813
X-52.699 Y-40.318
X-52.693 Y-39.825
X-52.727 Y-39.335
X-52.8 Y-38.851
X-52.911 Y-38.376
X-53.059 Y-37.913
X-53.244 Y-37.465
X-53.463 Y-37.032
X-53.717 Y-36.619
X-54.004 Y-36.227
X-54.322 Y-35.859
X-54.669 Y-35.516
X-55.044 Y-35.201
X-55.444 Y-34.916
X-55.868 Y-34.664
X-56.313 Y-34.445
X-56.776 Y-34.261
X-57.255 Y-34.115
X-57.746 Y-34.007
X-58.246 Y-33.938
X-58.753 Y-33.91
X-59.263 Y-33.922
X-59.773 Y-33.976
X-60.279 Y-34.071
X-60.778 Y-34.207
X-61.266 Y-34.383
X-61.741 Y-34.598
X-62.198 Y-34.852
X-62.635 Y-35.143
X-63.049 Y-35.469
X-63.437 Y-35.828
X-63.795 Y-36.219
X-64.122 Y-36.638
X-64.415 Y-37.083
X-64.672 Y-37.551
X-64.891 Y-38.04
X-65.071 Y-38.545
X-65.209 Y-39.064
X-65.306 Y-39.594
X-65.359 Y-40.13
X-65.37 Y-40.67
X-65.337 Y-41.209
X-65.261 Y-41.745
X-65.142 Y-42.273
X-64.981 Y-42.79
X-64.779 Y-43.294
X-64.537 Y-43.779
X-64.257 Y-44.244
X-63.94 Y-44.686
X-63.588 Y-45.1
X-63.204 Y-45.485
X-62.79 Y-45.839
X-62.35 Y-46.158
X-61.884 Y-46.44
X-61.398 Y-46.685
X-60.893 Y-46.89
X-60.374 Y-47.053
X-59.842 Y-47.174
X-59.303 Y-47.253
X-58.759 Y-47.288
X-58.214 Y-47.279
X-57.672 Y-47.226
X-57.134 Y-47.13
X-56.603 Y-46.99
X-56.082 Y-46.807
X-55.573 Y-46.581
X-55.079 Y-46.312
X-54.602 Y-46
X-54.146 Y-45.647
X-53.715 Y-45.254
X-53.313 Y-44.824
X-52.945 Y-44.36
X-52.614 Y-43.866
X-52.323 Y-43.346
X-52.075 Y-42.804
X-51.871 Y-42.245
X-51.714 Y-41.673
X-51.603 Y-41.092
X-51.539 Y-40.506
X-51.523 Y-39.918
X-51.553 Y-39.334
X-51.631 Y-38.755
X-51.754 Y-38.186
X-51.922 Y-37.63
X-52.134 Y-37.09
X-52.388 Y-36.568
X-52.684 Y-36.069
X-53.018 Y-35.595
X-53.391 Y-35.149
X-53.799 Y-34.733
X-54.24 Y-34.35
X-54.711 Y-34.002
X-55.211 Y-33.693
X-55.736 Y-33.424
X-56.282 Y-33.197
X-56.848 Y-33.014
X-57.428 Y-32.876
X-58.02 Y-32.785
X-58.62 Y-32.742
X-59.224 Y-32.747
X-59.827 Y-32.8
X-60.427 Y-32.902
X-61.019 Y-33.053
X-61.599 Y-33.251
X-62.163 Y-33.496
X-62.707 Y-33.787
X-63.228 Y-34.121
X-63.722 Y-34.497
X-64.185 Y-34.913
X-64.615 Y-35.365
X-65.007 Y-35.852
X-65.361 Y-36.37
X-65.672 Y-36.916
X-65.939 Y-37.486
X-66.159 Y-38.076
X-66.332 Y-38.684
X-66.456 Y-39.304
X-66.529 Y-39.933
X-66.552 Y-40.567
X-66.524 Y-41.201
X-66.445 Y-41.832
X-66.316 Y-42.454
X-66.137 Y-43.065
X-65.909 Y-43.66
X-65.634 Y-44.235
X-65.314 Y-44.786
X-64.95 Y-45.311
X-64.545 Y-45.804
X-64.102 Y-46.264
X-63.623 Y-46.687
X-63.112 Y-47.07
X-62.571 Y-47.411
X-62.004 Y-47.707
X-61.416 Y-47.957
X-60.809 Y-48.159
X-60.188 Y-48.312
X-59.556 Y-48.415
X-58.918 Y-48.466
X-58.278
X-57.638 Y-48.415
X-57.003 Y-48.312
X-56.376 Y-48.158
X-55.759 Y-47.952
X-55.157 Y-47.697
X-54.572 Y-47.391
X-54.009 Y-47.036
X-53.472 Y-46.634
X-52.965 Y-46.187
X-52.493 Y-45.697
X-52.059 Y-45.168
X-51.667 Y-44.604
X-51.321 Y-44.008
X-51.024 Y-43.386
X-50.777 Y-42.743
X-50.584 Y-42.083
X-50.444 Y-41.41
X-50.358 Y-40.73
X-50.328 Y-40.048
X-50.353 Y-39.366
X-50.432 Y-38.691
X-50.564 Y-38.025
X-50.75 Y-37.373
X-50.986 Y-36.739
X-51.273 Y-36.126
X-51.608 Y-35.538
X-51.99 Y-34.979
X-52.415 Y-34.451
X-52.882 Y-33.959
X-53.389 Y-33.504
X-53.931 Y-33.091
X-54.506 Y-32.722
X-55.111 Y-32.399
X-55.742 Y-32.125
X-56.394 Y-31.901
X-57.065 Y-31.731
X-57.749 Y-31.614
X-58.443 Y-31.552
X-59.143 Y-31.546
X-59.842 Y-31.597
X-60.538 Y-31.704
X-61.225 Y-31.866
X-61.899 Y-32.085
X-62.555 Y-32.357
X-63.189 Y-32.682
X-63.796 Y-33.058
X-64.373 Y-33.483
X-64.916 Y-33.953
X-65.42 Y-34.467
X-65.882 Y-35.021
X-66.299 Y-35.611
X-66.668 Y-36.234
X-66.986 Y-36.886
X-67.252 Y-37.562
X-67.462 Y-38.259
X-67.616 Y-38.971
X-67.713 Y-39.694
X-67.752 Y-40.423
X-67.731 Y-41.154
X-67.652 Y-41.881
X-67.515 Y-42.6
X-67.321 Y-43.307
X-67.07 Y-43.996
X-66.764 Y-44.663
X-66.406 Y-45.303
X-65.997 Y-45.914
X-65.541 Y-46.489
X-65.04 Y-47.027
X-64.496 Y-47.522
X-63.915 Y-47.973
X-63.299 Y-48.375
X-62.653 Y-48.727
X-61.981 Y-49.026
X-61.286 Y-49.27
X-60.575 Y-49.457
X-59.85 Y-49.587
X-59.117 Y-49.658
X-58.38 Y-49.67
X-57.643 Y-49.623
X-56.91 Y-49.517
X-56.186 Y-49.352
X-55.475 Y-49.128
X-54.785 Y-48.848
X-54.119 Y-48.514
X-53.481 Y-48.129
X-52.876 Y-47.695
X-52.306 Y-47.215
X-51.775 Y-46.692
X-51.286 Y-46.13
X-50.841 Y-45.532
X-50.443 Y-44.902
X-50.095 Y-44.244
X-49.797 Y-43.561
X-49.552 Y-42.857
X-49.361 Y-42.137
X-49.226 Y-41.404
X-49.147 Y-40.663
X-49.125 Y-39.918
X-49.16 Y-39.174
X-49.252 Y-38.435
X-49.401 Y-37.705
X-49.606 Y-36.989
X-49.866 Y-36.29
X-50.18 Y-35.615
X-50.545 Y-34.965
X-50.959 Y-34.346
X-51.42 Y-33.761
X-51.925 Y-33.213
X-52.471 Y-32.705
X-53.053 Y-32.241
X-53.67 Y-31.823
X-54.317 Y-31.453
X-54.99 Y-31.134
X-55.686 Y-30.867
X-56.4 Y-30.653
X-57.127 Y-30.494
X-57.865 Y-30.39
X-58.609 Y-30.342
X-59.354 Y-30.35
X-60.096 Y-30.413
X-60.832 Y-30.531
X-61.556 Y-30.705
X-62.266 Y-30.933
X-62.956 Y-31.213
X-63.623 Y-31.545
X-64.264 Y-31.924
X-64.876 Y-32.349
X-65.455 Y-32.818
X-65.998 Y-33.328
X-66.503 Y-33.876
X-66.967 Y-34.459
X-67.388 Y-35.074
X-67.762 Y-35.718
X-68.088 Y-36.388
X-68.363 Y-37.081
X-68.586 Y-37.792
X-68.758 Y-38.517
X-68.876 Y-39.252
X-68.942 Y-39.994
X-68.955 Y-40.739
X-68.914 Y-41.483
X-68.82 Y-42.222
X-68.674 Y-42.953
X-68.474 Y-43.671
X-68.221 Y-44.372
X-67.918 Y-45.052
X-67.567 Y-45.71
X-67.17 Y-46.34
X-66.73 Y-46.941
X-66.247 Y-47.509
X-65.726 Y-48.041
X-65.168 Y-48.534
X-64.576 Y-48.987
X-63.952 Y-49.394
X-63.3 Y-49.754
X-62.623 Y-50.066
X-61.926 Y-50.33
X-61.212 Y-50.543
X-60.485 Y-50.705
X-59.748 Y-50.814
X-59.005 Y-50.872
X-58.26 Y-50.877
X-57.517 Y-50.827
X-56.779 Y-50.722
X-56.051 Y-50.564
X-55.336 Y-50.355
X-54.637 Y-50.097
X-53.958 Y-49.791
X-53.301 Y-49.438
X-52.671 Y-49.041
X-52.069 Y-48.601
X-51.501 Y-48.12
X-50.967 Y-47.6
X-50.471 Y-47.044
X-50.014 Y-46.456
X-49.597 Y-45.838
X-49.223 Y-45.194
X-48.892 Y-44.526
X-48.607 Y-43.838
X-48.368 Y-43.132
X-48.18 Y-42.411
X-48.042 Y-41.679
X-47.955 Y-40.939
X-47.917 Y-40.195
X-47.931 Y-39.45
X-47.994 Y-38.708
X-48.107 Y-37.971
X-48.27 Y-37.244
X-48.482 Y-36.53
X-48.744 Y-35.832
X-49.055 Y-35.155
X-49.412 Y-34.502
X-49.814 Y-33.874
X-50.257 Y-33.275
X-50.739 Y-32.707
X-51.259 Y-32.173
X-51.814 Y-31.676
X-52.401 Y-31.217
X-53.019 Y-30.801
X-53.664 Y-30.428
X-54.333 Y-30.101
X-55.023 Y-29.82
X-55.73 Y-29.585
X-56.452 Y-29.398
X-57.184 Y-29.259
X-57.923 Y-29.169
X-58.667 Y-29.128
X-59.412 Y-29.138
X-60.155 Y-29.199
X-60.891 Y-29.31
X-61.619 Y-29.47
X-62.334 Y-29.678
X-63.034 Y-29.933
X-63.716 Y-30.233
X-64.377 Y-30.578
X-65.014 Y-30.964
X-65.624 Y-31.392
X-66.204 Y-31.86
X-66.751 Y-32.366
X-67.264 Y-32.906
X-67.742 Y-33.477
X-68.182 Y-34.079
X-68.582 Y-34.707
X-68.941 Y-35.36
X-69.256 Y-36.035
X-69.527 Y-36.729
X-69.749 Y-37.44
X-69.925 Y-38.165
X-70.053 Y-38.899
X-70.133 Y-39.639
X-70.167 Y-40.384
X-70.153 Y-41.128
X-70.092 Y-41.871
X-69.985 Y-42.608
X-69.83 Y-43.337
X-69.627 Y-44.054
X-69.375 Y-44.755
X-69.079 Y-45.439
X-68.739 Y-46.102
X-68.357 Y-46.742
X-67.936 Y-47.356
X-67.477 Y-47.943
X-66.981 Y-48.5
X-66.452 Y-49.024
X-65.891 Y-49.514
X-65.297 Y-49.964
X-64.675 Y-50.374
X-64.028 Y-50.743
X-63.358 Y-51.069
X-62.668 Y-51.351
X-61.962 Y-51.59
X-61.243 Y-51.784
X-60.513 Y-51.932
X-59.775 Y-52.034
X-59.032 Y-52.088
X-58.287 Y-52.093
X-57.543 Y-52.048
X-56.804 Y-51.955
X-56.072 Y-51.815
X-55.35 Y-51.629
X-54.642 Y-51.398
X-53.949 Y-51.124
X-53.275 Y-50.807
X-52.621 Y-50.45
X-51.992 Y-50.051
X-51.389 Y-49.613
X-50.816 Y-49.137
X-50.274 Y-48.626
X-49.764 Y-48.083
X-49.288 Y-47.509
X-48.848 Y-46.908
X-48.444 Y-46.282
X-48.079 Y-45.633
X-47.753 Y-44.963
X-47.469 Y-44.274
X-47.229 Y-43.569
X-47.034 Y-42.849
X-46.884 Y-42.12
X-46.778 Y-41.382
X-46.718 Y-40.64
X-46.702 Y-39.895
X-46.731 Y-39.15
X-46.805 Y-38.409
X-46.924 Y-37.673
X-47.088 Y-36.946
X-47.299 Y-36.232
X-47.555 Y-35.532
X-47.854 Y-34.85
X-48.195 Y-34.187
X-48.575 Y-33.547
X-48.994 Y-32.93
X-49.45 Y-32.341
X-49.94 Y-31.78
X-50.463 Y-31.249
X-51.018 Y-30.753
X-51.604 Y-30.292
X-52.218 Y-29.87
X-52.857 Y-29.486
X-53.517 Y-29.142
X-54.198 Y-28.838
X-54.895 Y-28.576
X-55.607 Y-28.356
X-56.331 Y-28.178
X-57.064 Y-28.044
X-57.803 Y-27.955
X-58.547 Y-27.912
X-59.292 Y-27.916
X-60.036 Y-27.964
X-60.775 Y-28.058
X-61.507 Y-28.195
X-62.23 Y-28.376
X-62.941 Y-28.599
X-63.637 Y-28.864
X-64.317 Y-29.169
X-64.977 Y-29.515
X-65.614 Y-29.9
X-66.227 Y-30.324
X-66.814 Y-30.783
X-67.372 Y-31.277
X-67.901 Y-31.802
X-68.398 Y-32.357
X-68.863 Y-32.939
X-69.292 Y-33.548
X-69.687 Y-34.18
X-70.043 Y-34.835
X-70.358 Y-35.51
X-70.632 Y-36.202
X-70.863 Y-36.911
X-71.053 Y-37.631
X-71.2 Y-38.362
X-71.304 Y-39.099
X-71.366 Y-39.842
X-71.386 Y-40.587
X-71.363 Y-41.331
X-71.298 Y-42.074
X-71.189 Y-42.811
X-71.036 Y-43.54
X-70.838 Y-44.258
X-70.598 Y-44.964
X-70.318 Y-45.654
X-69.997 Y-46.326
X-69.639 Y-46.979
X-69.243 Y-47.611
X-68.813 Y-48.219
X-68.349 Y-48.802
X-67.852 Y-49.357
X-67.323 Y-49.882
X-66.763 Y-50.374
X-66.175 Y-50.831
X-65.561 Y-51.253
X-64.924 Y-51.639
X-64.265 Y-51.987
X-63.587 Y-52.296
X-62.893 Y-52.566
X-62.184 Y-52.797
X-61.464 Y-52.986
X-60.733 Y-53.134
X-59.996 Y-53.238
X-59.253 Y-53.298
X-58.508 Y-53.313
X-57.763 Y-53.285
X-57.022 Y-53.214
X-56.285 Y-53.1
X-55.557 Y-52.945
X-54.838 Y-52.748
X-54.132 Y-52.511
X-53.44 Y-52.235
X-52.765 Y-51.919
X-52.11 Y-51.565
X-51.476 Y-51.173
X-50.866 Y-50.745
X-50.281 Y-50.283
X-49.724 Y-49.789
X-49.194 Y-49.265
X-48.695 Y-48.712
X-48.227 Y-48.132
X-47.79 Y-47.528
X-47.388 Y-46.901
X-47.022 Y-46.252
X-46.693 Y-45.584
X-46.402 Y-44.898
X-46.15 Y-44.197
X-45.937 Y-43.483
X-45.765 Y-42.758
X-45.633 Y-42.025
X-45.542 Y-41.285
X-45.491 Y-40.542
X-45.481 Y-39.797
X-45.512 Y-39.052
X-45.585 Y-38.311
X-45.7 Y-37.575
X-45.856 Y-36.846
X-46.054 Y-36.128
X-46.292 Y-35.422
X-46.57 Y-34.731
X-46.886 Y-34.056
X-47.239 Y-33.4
X-47.627 Y-32.764
X-48.05 Y-32.15
X-48.507 Y-31.562
X-48.996 Y-31
X-49.516 Y-30.466
X-50.065 Y-29.963
X-50.642 Y-29.492
X-51.245 Y-29.054
X-51.871 Y-28.65
X-52.519 Y-28.282
X-53.186 Y-27.949
X-53.87 Y-27.653
X-54.569 Y-27.395
X-55.281 Y-27.176
X-56.004 Y-26.997
X-56.736 Y-26.859
X-57.475 Y-26.761
X-58.218 Y-26.705
X-58.962 Y-26.69
X-59.707 Y-26.715
X-60.449 Y-26.782
X-61.187 Y-26.889
X-61.917 Y-27.035
X-62.639 Y-27.22
X-63.349 Y-27.445
X-64.046 Y-27.709
X-64.727 Y-28.01
X-65.391 Y-28.349
X-66.035 Y-28.723
X-66.658 Y-29.132
X-67.258 Y-29.574
X-67.833 Y-30.048
X-68.382 Y-30.552
X-68.903 Y-31.084
X-69.396 Y-31.642
X-69.859 Y-32.226
X-70.289 Y-32.834
X-70.686 Y-33.465
X-71.048 Y-34.117
X-71.373 Y-34.787
X-71.661 Y-35.474
X-71.912 Y-36.175
X-72.125 Y-36.889
X-72.3 Y-37.614
X-72.436 Y-38.346
X-72.534 Y-39.085
X-72.593 Y-39.828
X-72.612 Y-40.572
X-72.591 Y-41.317
X-72.531 Y-42.06
X-72.43 Y-42.798
X-72.29 Y-43.53
X-72.111 Y-44.253
X-71.892 Y-44.965
X-71.636 Y-45.665
X-71.344 Y-46.35
X-71.016 Y-47.019
X-70.653 Y-47.67
X-70.257 Y-48.301
X-69.827 Y-48.91
X-69.366 Y-49.495
X-68.874 Y-50.055
X-68.353 Y-50.587
X-67.804 Y-51.091
X-67.229 Y-51.565
X-66.629 Y-52.007
X-66.007 Y-52.416
X-65.364 Y-52.793
X-64.702 Y-53.135
X-64.023 Y-53.442
X-63.329 Y-53.712
X-62.621 Y-53.945
X-61.902 Y-54.14
X-61.174 Y-54.296
X-60.438 Y-54.414
X-59.697 Y-54.492
X-58.953 Y-54.53
X-58.208 Y-54.529
X-57.464 Y-54.488
X-56.723 Y-54.409
X-55.987 Y-54.291
X-55.259 Y-54.134
X-54.54 Y-53.939
X-53.832 Y-53.706
X-53.138 Y-53.436
X-52.458 Y-53.131
X-51.796 Y-52.79
X-51.152 Y-52.415
X-50.529 Y-52.007
X-49.927 Y-51.567
X-49.349 Y-51.097
X-48.796 Y-50.597
X-48.269 Y-50.071
X-47.77 Y-49.518
X-47.3 Y-48.94
X-46.86 Y-48.338
X-46.451 Y-47.716
X-46.074 Y-47.073
X-45.731 Y-46.411
X-45.422 Y-45.733
X-45.148 Y-45.04
X-44.91 Y-44.335
X-44.708 Y-43.617
X-44.542 Y-42.891
X-44.413 Y-42.157
X-44.322 Y-41.418
X-44.269 Y-40.675
X-44.254 Y-39.93
X-44.277 Y-39.185
X-44.338 Y-38.442
X-44.437 Y-37.704
X-44.574 Y-36.972
X-44.748 Y-36.247
X-44.96 Y-35.533
X-45.208 Y-34.83
X-45.491 Y-34.141
X-45.809 Y-33.467
X-46.162 Y-32.811
X-46.548 Y-32.174
X-46.967 Y-31.558
X-47.416 Y-30.963
X-47.895 Y-30.393
X-48.403 Y-29.848
X-48.939 Y-29.33
X-49.5 Y-28.84
X-50.086 Y-28.379
X-50.694 Y-27.949
X-51.323 Y-27.55
X-51.972 Y-27.183
X-52.638 Y-26.85
X-53.321 Y-26.552
X-54.018 Y-26.289
X-54.727 Y-26.061
X-55.447 Y-25.869
X-56.176 Y-25.714
X-56.912 Y-25.596
X-57.652 Y-25.516
X-58.396 Y-25.473
X-59.141 Y-25.467
X-59.886 Y-25.498
X-60.628 Y-25.567
X-61.365 Y-25.674
X-62.096 Y-25.817
X-62.819 Y-25.997
X-63.532 Y-26.214
X-64.233 Y-26.466
X-64.921 Y-26.752
X-65.594 Y-27.073
X-66.249 Y-27.426
X-66.887 Y-27.812
X-67.504 Y-28.229
X-68.1 Y-28.676
X-68.674 Y-29.152
X-69.223 Y-29.656
X-69.746 Y-30.186
X-70.242 Y-30.741
X-70.711 Y-31.321
X-71.151 Y-31.922
X-71.56 Y-32.545
X-71.937 Y-33.187
X-72.283 Y-33.847
X-72.595 Y-34.524
X-72.874 Y-35.215
X-73.118 Y-35.919
X-73.328 Y-36.634
X-73.502 Y-37.358
X-73.639 Y-38.09
X-73.741 Y-38.829
X-73.806 Y-39.571
X-73.836 Y-40.315
X-73.829 Y-41.06
X-73.785 Y-41.804
X-73.706 Y-42.545
X-73.589 Y-43.281
X-73.437 Y-44.01
X-73.249 Y-44.731
X-73.026 Y-45.442
X-72.769 Y-46.141
X-72.477 Y-46.827
X-72.152 Y-47.497
X-71.794 Y-48.151
X-71.405 Y-48.786
X-70.986 Y-49.402
X-70.537 Y-49.997
X-70.06 Y-50.569
X-69.555 Y-51.117
X-69.024 Y-51.64
X-68.469 Y-52.136
X-67.889 Y-52.605
X-67.288 Y-53.045
X-66.665 Y-53.454
X-66.023 Y-53.832
X-65.364 Y-54.178
X-64.688 Y-54.492
X-63.997 Y-54.772
X-63.294 Y-55.018
X-62.58 Y-55.23
X-61.856 Y-55.408
X-61.125 Y-55.549
X-60.387 Y-55.655
X-59.646 Y-55.725
X-58.901 Y-55.759
X-58.156 Y-55.757
X-57.412 Y-55.717
X-56.671 Y-55.641
X-55.934 Y-55.528
X-55.204 Y-55.381
X-54.482 Y-55.198
X-53.769 Y-54.98
X-53.068 Y-54.729
X-52.38 Y-54.444
X-51.705 Y-54.127
X-51.047 Y-53.777
X-50.407 Y-53.397
X-49.785 Y-52.986
X-49.184 Y-52.546
X-48.605 Y-52.078
X-48.049 Y-51.582
X-47.517 Y-51.06
X-47.01 Y-50.514
X-46.529 Y-49.944
X-46.076 Y-49.353
X-45.651 Y-48.741
X-45.255 Y-48.11
X-44.889 Y-47.461
X-44.554 Y-46.796
X-44.25 Y-46.115
X-43.978 Y-45.422
X-43.74 Y-44.716
X-43.536 Y-43.999
X-43.366 Y-43.274
X-43.23 Y-42.541
X-43.128 Y-41.803
X-43.062 Y-41.061
X-43.03 Y-40.317
X-43.033 Y-39.572
X-43.071 Y-38.827
X-43.144 Y-38.086
X-43.251 Y-37.349
X-43.393 Y-36.617
X-43.57 Y-35.894
X-43.782 Y-35.179
X-44.027 Y-34.476
X-44.306 Y-33.785
X-44.617 Y-33.108
X-44.96 Y-32.446
X-45.334 Y-31.802
X-45.738 Y-31.176
X-46.171 Y-30.569
X-46.632 Y-29.984
X-47.119 Y-29.421
X-47.633 Y-28.881
X-48.172 Y-28.366
X-48.734 Y-27.877
X-49.319 Y-27.416
X-49.926 Y-26.984
X-50.552 Y-26.58
X-51.196 Y-26.206
X-51.858 Y-25.863
X-52.535 Y-25.551
X-53.225 Y-25.272
X-53.928 Y-25.024
X-54.641 Y-24.809
X-55.364 Y-24.628
X-56.094 Y-24.481
X-56.831 Y-24.367
X-57.572 Y-24.288
X-58.315 Y-24.244
X-59.06 Y-24.236
X-59.805 Y-24.262
X-60.548 Y-24.322
X-61.286 Y-24.418
X-62.02 Y-24.547
X-62.747 Y-24.71
X-63.466 Y-24.907
X-64.175 Y-25.136
X-64.872 Y-25.398
X-65.557 Y-25.691
X-66.228 Y-26.016
X-66.883 Y-26.371
X-67.52 Y-26.756
X-68.139 Y-27.171
X-68.738 Y-27.614
X-69.317 Y-28.084
X-69.873 Y-28.58
X-70.406 Y-29.1
X-70.915 Y-29.644
X-71.399 Y-30.211
X-71.856 Y-30.799
X-72.286 Y-31.407
X-72.689 Y-32.035
X-73.062 Y-32.679
X-73.405 Y-33.341
X-73.718 Y-34.017
X-73.998 Y-34.707
X-74.246 Y-35.41
X-74.463 Y-36.123
X-74.646 Y-36.845
X-74.796 Y-37.575
X-74.914 Y-38.31
X-74.998 Y-39.051
X-75.049 Y-39.794
X-75.066 Y-40.539
X-75.05 Y-41.284
X-75.001 Y-42.027
X-74.918 Y-42.768
X-74.801 Y-43.503
X-74.65 Y-44.233
X-74.465 Y-44.955
X-74.248 Y-45.668
X-73.999 Y-46.37
X-73.718 Y-47.06
X-73.406 Y-47.736
X-73.064 Y-48.398
X-72.692 Y-49.044
X-72.292 Y-49.673
X-71.865 Y-50.283
X-71.41 Y-50.873
X-70.93 Y-51.443
X-70.424 Y-51.99
X-69.894 Y-52.513
X-69.34 Y-53.011
X-68.764 Y-53.484
X-68.167 Y-53.93
X-67.55 Y-54.348
X-66.915 Y-54.737
X-66.263 Y-55.098
X-65.596 Y-55.429
X-64.914 Y-55.73
X-64.22 Y-56
X-63.514 Y-56.239
X-62.798 Y-56.446
X-62.074 Y-56.621
X-61.342 Y-56.762
X-60.605 Y-56.87
X-59.864 Y-56.943
X-59.12 Y-56.984
X-58.375 Y-56.99
X-57.63 Y-56.963
X-56.887 Y-56.902
X-56.148 Y-56.808
X-55.414 Y-56.681
X-54.686 Y-56.521
X-53.967 Y-56.329
X-53.256 Y-56.106
X-52.556 Y-55.851
X-51.868 Y-55.565
X-51.193 Y-55.248
X-50.534 Y-54.901
X-49.891 Y-54.525
X-49.265 Y-54.121
X-48.657 Y-53.69
X-48.07 Y-53.232
X-47.503 Y-52.748
X-46.958 Y-52.24
X-46.436 Y-51.709
X-45.937 Y-51.155
X-45.463 Y-50.58
X-45.014 Y-49.986
X-44.591 Y-49.372
X-44.196 Y-48.741
X-43.828 Y-48.092
X-43.49 Y-47.429
X-43.181 Y-46.751
X-42.902 Y-46.06
X-42.654 Y-45.357
X-42.437 Y-44.645
X-42.25 Y-43.923
X-42.096 Y-43.194
X-41.973 Y-42.459
X-41.882 Y-41.72
X-41.823 Y-40.977
X-41.797 Y-40.233
X-41.802 Y-39.488
X-41.84 Y-38.744
X-41.912 Y-38.002
X-42.016 Y-37.264
X-42.153 Y-36.532
X-42.321 Y-35.806
X-42.522 Y-35.088
X-42.754 Y-34.38
X-43.017 Y-33.683
X-43.31 Y-32.998
X-43.633 Y-32.327
X-43.985 Y-31.67
X-44.365 Y-31.029
X-44.772 Y-30.406
X-45.207 Y-29.8
X-45.667 Y-29.215
X-46.154 Y-28.65
X-46.665 Y-28.108
X-47.199 Y-27.589
X-47.755 Y-27.093
X-48.333 Y-26.623
X-48.931 Y-26.178
X-49.547 Y-25.76
X-50.181 Y-25.369
X-50.832 Y-25.005
X-51.498 Y-24.671
X-52.177 Y-24.365
X-52.869 Y-24.089
X-53.572 Y-23.843
X-54.286 Y-23.628
X-55.008 Y-23.445
X-55.738 Y-23.293
X-56.473 Y-23.173
X-57.213 Y-23.085
X-57.956 Y-23.029
X-58.7 Y-23.005
X-59.445 Y-23.014
X-60.189 Y-23.055
X-60.931 Y-23.127
X-61.669 Y-23.232
X-62.401 Y-23.368
X-63.127 Y-23.535
X-63.845 Y-23.733
X-64.554 Y-23.962
X-65.253 Y-24.222
X-65.939 Y-24.511
X-66.613 Y-24.83
X-67.272 Y-25.177
X-67.915 Y-25.553
X-68.542 Y-25.955
X-69.152 Y-26.384
X-69.742 Y-26.839
X-70.313 Y-27.318
X-70.862 Y-27.82
X-71.391 Y-28.346
X-71.896 Y-28.893
X-72.379 Y-29.461
X-72.836 Y-30.049
X-73.268 Y-30.656
X-73.673 Y-31.281
X-74.052 Y-31.923
X-74.402 Y-32.58
X-74.725 Y-33.252
X-75.018 Y-33.937
X-75.282 Y-34.634
X-75.516 Y-35.341
X-75.72 Y-36.058
X-75.894 Y-36.782
X-76.037 Y-37.513
X-76.15 Y-38.25
X-76.231 Y-38.991
X-76.282 Y-39.734
X-76.301 Y-40.479
X-76.288 Y-41.224
X-76.243 Y-41.967
X-76.168 Y-42.709
X-76.06 Y-43.446
X-75.922 Y-44.178
X-75.753 Y-44.904
X-75.553 Y-45.621
X-75.323 Y-46.33
X-75.064 Y-47.029
X-74.775 Y-47.715
X-74.458 Y-48.39
X-74.113 Y-49.05
X-73.741 Y-49.696
X-73.342 Y-50.325
X-72.916 Y-50.936
X-72.465 Y-51.529
X-71.99 Y-52.103
X-71.491 Y-52.656
X-70.969 Y-53.188
X-70.424 Y-53.697
X-69.859 Y-54.182
X-69.274 Y-54.644
X-68.67 Y-55.08
X-68.049 Y-55.49
X-67.41 Y-55.875
X-66.756 Y-56.232
X-66.088 Y-56.561
X-65.407 Y-56.862
X-64.713 Y-57.134
X-64.008 Y-57.376
X-63.294 Y-57.589
X-62.572 Y-57.772
X-61.842 Y-57.924
X-61.107 Y-58.044
X-60.368 Y-58.134
X-59.625 Y-58.193
X-58.88 Y-58.221
X-58.135 Y-58.217
X-57.391 Y-58.182
X-56.649 Y-58.117
X-55.91 Y-58.02
X-55.176 Y-57.892
X-54.448 Y-57.734
X-53.727 Y-57.545
X-53.015 Y-57.326
X-52.313 Y-57.078
X-51.621 Y-56.801
X-50.942 Y-56.495
X-50.275 Y-56.162
X-49.624 Y-55.801
X-48.987 Y-55.413
X-48.368 Y-54.999
X-47.765 Y-54.561
X-47.182 Y-54.098
X-46.617 Y-53.611
X-46.073 Y-53.102
X-45.551 Y-52.571
X-45.051 Y-52.019
X-44.574 Y-51.446
X-44.12 Y-50.855
X-43.691 Y-50.246
X-43.287 Y-49.62
X-42.909 Y-48.978
X-42.558 Y-48.321
X-42.233 Y-47.65
X-41.936 Y-46.967
X-41.667 Y-46.272
X-41.426 Y-45.567
X-41.214 Y-44.853
X-41.031 Y-44.131
X-40.878 Y-43.402
X-40.754 Y-42.667
X-40.662 Y-41.928
X-40.599 Y-41.185
X-40.566 Y-40.441
X-40.564 Y-39.696
X-40.592 Y-38.951
X-40.65 Y-38.209
X-40.739 Y-37.469
X-40.858 Y-36.733
X-41.007 Y-36.003
X-41.185 Y-35.28
X-41.393 Y-34.564
X-41.63 Y-33.858
X-41.896 Y-33.162
X-42.19 Y-32.477
X-42.512 Y-31.806
X-42.862 Y-31.148
X-43.238 Y-30.505
X-43.64 Y-29.877
X-44.067 Y-29.267
X-44.519 Y-28.675
X-44.995 Y-28.101
X-45.494 Y-27.548
X-46.015 Y-27.015
X-46.558 Y-26.505
X-47.12 Y-26.016
X-47.702 Y-25.551
X-48.303 Y-25.11
X-48.921 Y-24.694
X-49.555 Y-24.303
X-50.205 Y-23.939
X-50.87 Y-23.602
X-51.547 Y-23.292
X-52.237 Y-23.009
X-52.937 Y-22.755
X-53.647 Y-22.529
X-54.365 Y-22.332
X-55.091 Y-22.164
X-55.823 Y-22.026
X-56.561 Y-21.917
X-57.301 Y-21.838
X-58.045 Y-21.789
X-58.79 Y-21.77
X-59.535 Y-21.781
X-60.279 Y-21.822
X-61.02 Y-21.894
X-61.758 Y-21.995
X-62.492 Y-22.126
X-63.219 Y-22.286
X-63.94 Y-22.475
X-64.653 Y-22.694
X-65.356 Y-22.94
X-66.048 Y-23.215
X-66.729 Y-23.517
X-67.398 Y-23.846
X-68.053 Y-24.201
X-68.693 Y-24.582
X-69.317 Y-24.989
X-69.925 Y-25.419
X-70.516 Y-25.874
X-71.087 Y-26.352
X-71.639 Y-26.853
X-72.17 Y-27.375
X-72.681 Y-27.918
X-73.17 Y-28.48
X-73.636 Y-29.061
X-74.078 Y-29.661
X-74.497 Y-30.277
X-74.89 Y-30.91
X-75.258 Y-31.557
X-75.601 Y-32.219
X-75.916 Y-32.894
X-76.205 Y-33.581
X-76.467 Y-34.279
X-76.7 Y-34.986
X-76.905 Y-35.702
X-77.081 Y-36.426
X-77.229 Y-37.157
X-77.347 Y-37.892
X-77.437 Y-38.632
X-77.498 Y-39.374
X-77.529 Y-40.119
X-77.531 Y-40.864
X-77.504 Y-41.609
X-77.448 Y-42.351
X-77.362 Y-43.092
X-77.247 Y-43.828
X-77.103 Y-44.559
X-76.931 Y-45.284
X-76.73 Y-46.001
X-76.5 Y-46.71
X-76.243 Y-47.409
X-75.957 Y-48.097
X-75.646 Y-48.774
X-75.307 Y-49.438
X-74.944 Y-50.088
X-74.554 Y-50.723
X-74.141 Y-51.343
X-73.703 Y-51.946
X-73.242 Y-52.531
X-72.758 Y-53.098
X-72.253 Y-53.645
X-71.726 Y-54.173
X-71.179 Y-54.679
X-70.613 Y-55.163
X-70.028 Y-55.624
X-69.425 Y-56.061
X-68.805 Y-56.474
X-68.169 Y-56.863
X-67.519 Y-57.226
X-66.854 Y-57.564
X-66.177 Y-57.875
X-65.489 Y-58.159
X-64.789 Y-58.416
X-64.081 Y-58.646
X-63.363 Y-58.848
X-62.639 Y-59.021
X-61.908 Y-59.166
X-61.172 Y-59.283
X-60.432 Y-59.37
X-59.689 Y-59.428
X-58.945 Y-59.457
X-58.2 Y-59.455
X-57.455 Y-59.425
X-56.713 Y-59.365
X-55.973 Y-59.277
X-55.237 Y-59.159
X-54.507 Y-59.013
X-53.782 Y-58.839
X-53.065 Y-58.636
X-52.357 Y-58.406
X-51.657 Y-58.149
X-50.969 Y-57.864
X-50.292 Y-57.553
X-49.627 Y-57.217
X-48.976 Y-56.855
X-48.339 Y-56.467
X-47.719 Y-56.055
X-47.115 Y-55.619
X-46.528 Y-55.16
X-45.959 Y-54.679
X-45.409 Y-54.176
X-44.878 Y-53.653
X-44.368 Y-53.11
X-43.88 Y-52.548
X-43.412 Y-51.967
X-42.968 Y-51.369
X-42.546 Y-50.755
X-42.148 Y-50.125
X-41.774 Y-49.481
X-41.425 Y-48.823
X-41.101 Y-48.152
X-40.804 Y-47.468
X-40.533 Y-46.774
X-40.289 Y-46.07
X-40.071 Y-45.358
X-39.881 Y-44.637
X-39.719 Y-43.91
X-39.584 Y-43.177
X-39.478 Y-42.44
X-39.399 Y-41.699
X-39.349 Y-40.956
X-39.327 Y-40.211
X-39.333 Y-39.466
X-39.368 Y-38.722
X-39.431 Y-37.979
X-39.522 Y-37.24
X-39.642 Y-36.504
X-39.79 Y-35.774
X-39.966 Y-35.05
X-40.17 Y-34.334
X-40.402 Y-33.626
X-40.66 Y-32.927
X-40.945 Y-32.238
X-41.256 Y-31.561
X-41.593 Y-30.897
X-41.955 Y-30.246
X-42.341 Y-29.609
X-42.752 Y-28.987
X-43.186 Y-28.381
X-43.643 Y-27.793
X-44.122 Y-27.222
X-44.622 Y-26.67
X-45.143 Y-26.137
X-45.685 Y-25.626
X-46.246 Y-25.135
X-46.825 Y-24.667
X-47.422 Y-24.22
X-48.035 Y-23.797
X-48.664 Y-23.398
X-49.307 Y-23.023
X-49.965 Y-22.672
X-50.635 Y-22.347
X-51.318 Y-22.048
X-52.011 Y-21.774
X-52.713 Y-21.527
X-53.425 Y-21.306
X-54.145 Y-21.113
X-54.871 Y-20.946
X-55.603 Y-20.808
X-56.34 Y-20.698
X-57.08 Y-20.616
X-57.823 Y-20.562
X-58.568 Y-20.536
X-59.313 Y-20.539
X-60.058 Y-20.569
X-60.8 Y-20.628
X-61.54 Y-20.715
X-62.277 Y-20.829
X-63.008 Y-20.971
X-63.733 Y-21.141
X-64.452 Y-21.337
X-65.163 Y-21.56
X-65.865 Y-21.81
X-66.557 Y-22.086
X-67.238 Y-22.388
X-67.907 Y-22.716
X-68.564 Y-23.068
X-69.206 Y-23.445
X-69.834 Y-23.846
X-70.447 Y-24.27
X-71.043 Y-24.717
X-71.623 Y-25.185
X-72.184 Y-25.675
X-72.727 Y-26.185
X-73.251 Y-26.715
X-73.754 Y-27.264
X-74.237 Y-27.832
X-74.699 Y-28.416
X-75.139 Y-29.018
X-75.556 Y-29.635
X-75.949 Y-30.268
X-76.319 Y-30.915
X-76.663 Y-31.576
X-76.983 Y-32.249
X-77.278 Y-32.933
X-77.547 Y-33.628
X-77.789 Y-34.332
X-78.006 Y-35.045
X-78.196 Y-35.765
X-78.359 Y-36.492
X-78.495 Y-37.225
X-78.604 Y-37.962
X-78.686 Y-38.703
X-78.741 Y-39.446
X-78.768 Y-40.19
Y-40.935
X-78.741 Y-41.68
X-78.685 Y-42.423
X-78.602 Y-43.163
X-78.491 Y-43.9
X-78.352 Y-44.632
X-78.187 Y-45.359
X-77.995 Y-46.078
X-77.777 Y-46.791
X-77.532 Y-47.494
X-77.261 Y-48.188
X-76.965 Y-48.872
X-76.644 Y-49.545
X-76.298 Y-50.205
X-75.929 Y-50.852
X-75.536 Y-51.485
X-75.12 Y-52.103
X-74.682 Y-52.705
X-74.221 Y-53.291
X-73.739 Y-53.859
X-73.236 Y-54.409
X-72.713 Y-54.939
X-72.171 Y-55.45
X-71.61 Y-55.941
X-71.032 Y-56.411
X-70.436 Y-56.859
X-69.825 Y-57.284
X-69.198 Y-57.687
X-68.556 Y-58.066
X-67.902 Y-58.422
X-67.234 Y-58.753
X-66.555 Y-59.059
X-65.865 Y-59.341
X-65.166 Y-59.597
X-64.457 Y-59.827
X-63.74 Y-60.03
X-63.016 Y-60.206
X-62.286 Y-60.355
X-61.551 Y-60.478
X-60.812 Y-60.574
X-60.071 Y-60.642
X-59.327 Y-60.682
X-58.582 Y-60.695
X-57.837 Y-60.681
X-57.093 Y-60.639
X-56.351 Y-60.57
X-55.612 Y-60.474
X-54.877 Y-60.351
X-54.147 Y-60.201
X-53.424 Y-60.025
X-52.707 Y-59.822
X-51.998 Y-59.593
X-51.298 Y-59.338
X-50.608 Y-59.057
X-49.928 Y-58.751
X-49.26 Y-58.421
X-48.605 Y-58.067
X-47.962 Y-57.689
X-47.335 Y-57.288
X-46.722 Y-56.864
X-46.125 Y-56.419
X-45.544 Y-55.952
X-44.98 Y-55.465
X-44.435 Y-54.957
X-43.908 Y-54.431
X-43.4 Y-53.885
X-42.912 Y-53.322
X-42.445 Y-52.742
X-41.999 Y-52.145
X-41.575 Y-51.532
X-41.173 Y-50.905
X-40.794 Y-50.264
X-40.438 Y-49.609
X-40.105 Y-48.942
X-39.797 Y-48.264
X-39.514 Y-47.575
X-39.255 Y-46.876
X-39.022 Y-46.168
X-38.814 Y-45.453
X-38.632 Y-44.731
X-38.475 Y-44.002
X-38.345 Y-43.269
X-38.241 Y-42.531
X-38.163 Y-41.79
X-38.112 Y-41.047
X-38.089 Y-40.302
X-38.092 Y-39.557
X-38.122 Y-38.812
X-38.178 Y-38.069
X-38.261 Y-37.329
X-38.371 Y-36.592
X-38.507 Y-35.86
X-38.67 Y-35.132
X-38.859 Y-34.412
X-39.073 Y-33.698
X-39.313 Y-32.993
X-39.579 Y-32.297
X-39.869 Y-31.61
X-40.184 Y-30.935
X-40.522 Y-30.271
X-40.885 Y-29.62
X-41.27 Y-28.983
X-41.679 Y-28.36
X-42.11 Y-27.752
X-42.563 Y-27.161
X-43.036 Y-26.585
X-43.53 Y-26.027
X-44.044 Y-25.488
X-44.576 Y-24.967
X-45.128 Y-24.466
X-45.697 Y-23.984
X-46.282 Y-23.524
X-46.884 Y-23.085
X-47.501 Y-22.667
X-48.133 Y-22.272
X-48.778 Y-21.9
X-49.437 Y-21.551
X-50.107 Y-21.226
X-50.789 Y-20.925
X-51.481 Y-20.649
X-52.182 Y-20.398
X-52.892 Y-20.172
X-53.61 Y-19.971
X-54.334 Y-19.796
X-55.064 Y-19.647
X-55.799 Y-19.524
X-56.538 Y-19.428
X-57.279 Y-19.358
X-58.023 Y-19.314
X-58.768 Y-19.297
X-59.513 Y-19.306
X-60.257 Y-19.341
X-61 Y-19.403
X-61.74 Y-19.491
X-62.476 Y-19.605
X-63.207 Y-19.746
X-63.934 Y-19.913
X-64.653 Y-20.105
X-65.366 Y-20.323
X-66.07 Y-20.566
X-66.766 Y-20.833
X-67.451 Y-21.125
X-68.126 Y-21.441
X-68.789 Y-21.781
X-69.44 Y-22.144
X-70.077 Y-22.53
X-70.701 Y-22.937
X-71.31 Y-23.367
X-71.903 Y-23.817
X-72.481 Y-24.288
X-73.041 Y-24.779
X-73.584 Y-25.289
X-74.109 Y-25.818
X-74.614 Y-26.365
X-75.1 Y-26.93
X-75.566 Y-27.511
X-76.012 Y-28.109
X-76.436 Y-28.721
X-76.839 Y-29.348
X-77.219 Y-29.989
X-77.576 Y-30.643
X-77.91 Y-31.309
X-78.221 Y-31.986
X-78.507 Y-32.673
X-78.77 Y-33.371
X-79.008 Y-34.077
X-79.222 Y-34.791
X-79.41 Y-35.511
X-79.573 Y-36.238
X-79.71 Y-36.971
X-79.822 Y-37.707
X-79.907 Y-38.448
X-79.967 Y-39.19
X-80.001 Y-39.934
X-80.01 Y-40.679
X-79.992 Y-41.424
X-79.949 Y-42.168
X-79.879 Y-42.91
X-79.783 Y-43.649
X-79.662 Y-44.384
X-79.515 Y-45.114
X-79.343 Y-45.839
X-79.146 Y-46.558
X-78.924 Y-47.269
X-78.677 Y-47.972
X-78.406 Y-48.666
X-78.11 Y-49.35
X-77.791 Y-50.023
X-77.449 Y-50.685
X-77.083 Y-51.334
X-76.696 Y-51.971
X-76.287 Y-52.593
X-75.856 Y-53.201
X-75.404 Y-53.794
X-74.932 Y-54.37
X-74.441 Y-54.93
X-73.93 Y-55.472
X-73.4 Y-55.997
X-72.853 Y-56.502
X-72.289 Y-56.989
X-71.707 Y-57.455
X-71.111 Y-57.901
X-70.498 Y-58.325
X-69.872 Y-58.729
X-69.231 Y-59.109
X-68.578 Y-59.467
X-67.913 Y-59.802
X-67.236 Y-60.114
X-66.549 Y-60.403
X-65.852 Y-60.667
X-65.147 Y-60.908
X-64.434 Y-61.123
X-63.714 Y-61.313
X-62.987 Y-61.479
X-62.255 Y-61.619
X-61.519 Y-61.733
X-60.779 Y-61.823
X-60.037 Y-61.886
X-59.293 Y-61.924
X-58.548 Y-61.935
X-57.803 Y-61.921
X-57.059 Y-61.881
X-56.317 Y-61.814
X-55.578 Y-61.722
X-54.842 Y-61.604
X-54.111 Y-61.461
X-53.385 Y-61.293
X-52.665 Y-61.101
X-51.953 Y-60.883
X-51.248 Y-60.641
X-50.552 Y-60.374
X-49.866 Y-60.084
X-49.19 Y-59.771
X-48.525 Y-59.435
X-47.872 Y-59.076
X-47.232 Y-58.695
X-46.605 Y-58.292
X-45.992 Y-57.868
X-45.395 Y-57.423
X-44.813 Y-56.958
X-44.247 Y-56.473
X-43.698 Y-55.969
X-43.167 Y-55.447
X-42.654 Y-54.907
X-42.159 Y-54.35
X-41.683 Y-53.776
X-41.227 Y-53.187
X-40.791 Y-52.583
X-40.376 Y-51.964
X-39.983 Y-51.331
X-39.61 Y-50.686
X-39.26 Y-50.029
X-38.932 Y-49.36
X-38.626 Y-48.68
X-38.344 Y-47.99
X-38.086 Y-47.292
X-37.851 Y-46.584
X-37.641 Y-45.87
X-37.456 Y-45.148
X-37.294 Y-44.421
X-37.158 Y-43.688
X-37.046 Y-42.952
X-36.958 Y-42.212
X-36.896 Y-41.469
X-36.86 Y-40.725
X-36.848 Y-39.98
X-36.862 Y-39.235
X-36.901 Y-38.491
X-36.965 Y-37.749
X-37.054 Y-37.009
X-37.168 Y-36.273
X-37.307 Y-35.541
X-37.47 Y-34.814
X-37.659 Y-34.093
X-37.872 Y-33.379
X-38.11 Y-32.673
X-38.372 Y-31.976
X-38.657 Y-31.287
X-38.965 Y-30.609
X-39.296 Y-29.941
X-39.65 Y-29.286
X-40.025 Y-28.642
X-40.423 Y-28.012
X-40.841 Y-27.395
X-41.28 Y-26.794
X-41.74 Y-26.207
X-42.218 Y-25.636
X-42.716 Y-25.082
X-43.233 Y-24.545
X-43.767 Y-24.025
X-44.319 Y-23.525
X-44.887 Y-23.043
X-45.472 Y-22.581
X-46.072 Y-22.14
X-46.687 Y-21.718
X-47.315 Y-21.318
X-47.957 Y-20.94
X-48.611 Y-20.583
X-49.276 Y-20.248
X-49.953 Y-19.936
X-50.64 Y-19.647
X-51.336 Y-19.382
X-52.041 Y-19.14
X-52.753 Y-18.921
X-53.472 Y-18.727
X-54.198 Y-18.557
X-54.928 Y-18.411
X-55.663 Y-18.29
X-56.402 Y-18.194
X-57.144 Y-18.123
X-57.888 Y-18.078
X-58.632 Y-18.057
X-59.377 Y-18.061
X-60.122 Y-18.091
X-60.865 Y-18.145
X-61.606 Y-18.224
X-62.344 Y-18.328
X-63.078 Y-18.456
X-63.807 Y-18.609
X-64.53 Y-18.787
X-65.248 Y-18.988
X-65.958 Y-19.213
X-66.66 Y-19.462
X-67.354 Y-19.734
X-68.038 Y-20.029
X-68.712 Y-20.347
X-69.375 Y-20.686
X-70.026 Y-21.049
X-70.665 Y-21.433
X-71.29 Y-21.838
X-71.902 Y-22.263
X-72.499 Y-22.709
X-73.081 Y-23.174
X-73.648 Y-23.658
X-74.198 Y-24.16
X-74.731 Y-24.68
X-75.246 Y-25.218
X-75.744 Y-25.773
X-76.223 Y-26.344
X-76.683 Y-26.93
X-77.123 Y-27.531
X-77.543 Y-28.146
X-77.943 Y-28.775
X-78.321 Y-29.417
X-78.678 Y-30.071
X-79.013 Y-30.737
X-79.325 Y-31.413
X-79.615 Y-32.099
X-79.882 Y-32.795
X-80.125 Y-33.499
X-80.346 Y-34.211
X-80.543 Y-34.93
X-80.716 Y-35.654
X-80.864 Y-36.384
X-80.989 Y-37.119
X-81.09 Y-37.857
X-81.166 Y-38.598
X-81.218 Y-39.341
X-81.246 Y-40.086
X-81.249 Y-40.831
X-81.228 Y-41.576
X-81.182 Y-42.319
X-81.111 Y-43.061
X-81.016 Y-43.8
X-80.897 Y-44.536
X-80.753 Y-45.267
X-80.584 Y-45.992
X-80.393 Y-46.712
X-80.177 Y-47.426
X-79.938 Y-48.131
X-79.676 Y-48.829
X-79.392 Y-49.517
X-79.084 Y-50.196
X-78.755 Y-50.864
X-78.404 Y-51.521
X-78.031 Y-52.167
X-77.638 Y-52.799
X-77.224 Y-53.419
X-76.79 Y-54.025
X-76.337 Y-54.616
X-75.864 Y-55.192
X-75.372 Y-55.752
X-74.862 Y-56.295
X-74.335 Y-56.821
X-73.79 Y-57.329
X-73.229 Y-57.819
X-72.652 Y-58.291
X-72.06 Y-58.743
X-71.453 Y-59.176
X-70.833 Y-59.588
X-70.199 Y-59.98
X-69.552 Y-60.35
X-68.894 Y-60.699
X-68.225 Y-61.027
X-67.545 Y-61.332
X-66.856 Y-61.615
X-66.158 Y-61.876
X-65.452 Y-62.113
X-64.738 Y-62.327
X-64.018 Y-62.518
X-63.292 Y-62.684
X-62.56 Y-62.826
X-61.825 Y-62.944
X-61.086 Y-63.038
X-60.344 Y-63.107
X-59.6 Y-63.153
X-58.855 Y-63.174
X-58.11 Y-63.17
X-57.366 Y-63.142
X-56.622 Y-63.089
X-55.881 Y-63.012
X-55.143 Y-62.911
X-54.409 Y-62.786
X-53.679 Y-62.637
X-52.954 Y-62.464
X-52.235 Y-62.268
X-51.523 Y-62.049
X-50.819 Y-61.806
X-50.122 Y-61.541
X-49.435 Y-61.252
X-48.758 Y-60.942
X-48.092 Y-60.609
X-47.436 Y-60.255
X-46.792 Y-59.88
X-46.161 Y-59.485
X-45.543 Y-59.069
X-44.938 Y-58.633
X-44.348 Y-58.178
X-43.773 Y-57.704
X-43.214 Y-57.212
X-42.671 Y-56.702
X-42.144 Y-56.175
X-41.635 Y-55.631
X-41.143 Y-55.072
X-40.669 Y-54.496
X-40.214 Y-53.907
X-39.778 Y-53.302
X-39.362 Y-52.684
X-38.966 Y-52.053
X-38.591 Y-51.409
X-38.237 Y-50.754
X-37.903 Y-50.088
X-37.591 Y-49.411
X-37.301 Y-48.725
X-37.033 Y-48.03
X-36.787 Y-47.326
X-36.565 Y-46.615
X-36.365 Y-45.897
X-36.188 Y-45.174
X-36.034 Y-44.445
X-35.904 Y-43.711
X-35.797 Y-42.974
X-35.713 Y-42.233
X-35.653 Y-41.491
X-35.617 Y-40.747
X-35.605 Y-40.002
X-35.618 Y-39.257
X-35.654 Y-38.512
X-35.714 Y-37.77
X-35.798 Y-37.029
X-35.906 Y-36.292
X-36.037 Y-35.559
X-36.192 Y-34.83
X-36.37 Y-34.107
X-36.572 Y-33.389
X-36.797 Y-32.679
X-37.044 Y-31.976
X-37.314 Y-31.282
X-37.606 Y-30.596
X-37.919 Y-29.92
X-38.254 Y-29.255
X-38.611 Y-28.6
X-38.988 Y-27.958
X-39.385 Y-27.328
X-39.803 Y-26.711
X-40.241 Y-26.108
X-40.698 Y-25.52
X-41.174 Y-24.946
X-41.667 Y-24.388
X-42.179 Y-23.846
X-42.707 Y-23.321
X-43.252 Y-22.813
X-43.813 Y-22.323
X-44.39 Y-21.851
X-44.982 Y-21.398
X-45.587 Y-20.964
X-46.207 Y-20.55
X-46.839 Y-20.156
X-47.483 Y-19.782
X-48.139 Y-19.429
X-48.806 Y-19.096
X-49.483 Y-18.786
X-50.17 Y-18.497
X-50.866 Y-18.23
X-51.57 Y-17.986
X-52.281 Y-17.765
X-52.999 Y-17.566
X-53.723 Y-17.39
X-54.453 Y-17.238
X-55.186 Y-17.108
X-55.924 Y-17.002
X-56.664 Y-16.92
X-57.407 Y-16.861
X-58.151 Y-16.826
X-58.896 Y-16.815
X-59.641 Y-16.827
X-60.386 Y-16.863
X-61.128 Y-16.923
X-61.869 Y-17.005
X-62.606 Y-17.112
X-63.34 Y-17.241
X-64.069 Y-17.394
X-64.793 Y-17.571
X-65.511 Y-17.77
X-66.222 Y-17.992
X-66.926 Y-18.236
X-67.622 Y-18.503
X-68.309 Y-18.791
X-68.986 Y-19.101
X-69.654 Y-19.432
X-70.31 Y-19.784
X-70.956 Y-20.156
X-71.589 Y-20.549
X-72.209 Y-20.962
X-72.816 Y-21.394
X-73.41 Y-21.844
X-73.989 Y-22.313
X-74.553 Y-22.8
X-75.101 Y-23.304
X-75.633 Y-23.826
X-76.149 Y-24.363
X-76.647 Y-24.917
X-77.128 Y-25.487
X-77.59 Y-26.071
X-78.034 Y-26.669
X-78.459 Y-27.281
X-78.865 Y-27.906
X-79.251 Y-28.544
X-79.616 Y-29.193
X-79.961 Y-29.853
X-80.285 Y-30.524
X-80.587 Y-31.205
X-80.869 Y-31.895
X-81.128 Y-32.594
X-81.365 Y-33.3
X-81.581 Y-34.013
X-81.774 Y-34.733
X-81.945 Y-35.458
X-82.092 Y-36.188
X-82.217 Y-36.923
X-82.319 Y-37.661
X-82.397 Y-38.402
X-82.452 Y-39.145
X-82.484 Y-39.889
X-82.493 Y-40.634
X-82.478 Y-41.379
X-82.441 Y-42.123
X-82.38 Y-42.866
X-82.296 Y-43.606
X-82.188 Y-44.343
X-82.058 Y-45.077
X-81.904 Y-45.806
X-81.728 Y-46.53
X-81.53 Y-47.248
X-81.309 Y-47.96
X-81.067 Y-48.664
X-80.802 Y-49.361
X-80.516 Y-50.049
X-80.208 Y-50.727
X-79.88 Y-51.396
X-79.53 Y-52.054
X-79.16 Y-52.701
X-78.77 Y-53.336
X-78.361 Y-53.958
X-77.932 Y-54.568
X-77.485 Y-55.163
X-77.019 Y-55.745
X-76.536 Y-56.312
X-76.035 Y-56.863
X-75.517 Y-57.399
X-74.982 Y-57.918
X-74.432 Y-58.42
X-73.866 Y-58.905
X-73.286 Y-59.372
X-72.691 Y-59.821
X-72.082 Y-60.251
X-71.461 Y-60.662
X-70.827 Y-61.053
X-70.181 Y-61.424
X-69.523 Y-61.774
X-68.855 Y-62.104
X-68.177 Y-62.413
X-67.49 Y-62.701
X-66.794 Y-62.967
X-66.09 Y-63.211
X-65.379 Y-63.434
X-64.661 Y-63.634
X-63.938 Y-63.812
X-63.209 Y-63.967
X-62.476 Y-64.099
X-61.739 Y-64.209
X-60.999 Y-64.295
X-60.256 Y-64.359
X-59.513 Y-64.399
X-58.768 Y-64.417
X-58.023 Y-64.411
X-57.278 Y-64.382
X-56.535 Y-64.33
X-55.794 Y-64.254
X-55.055 Y-64.155
X-54.32 Y-64.033
X-53.589 Y-63.889
X-52.863 Y-63.722
X-52.142 Y-63.533
X-51.428 Y-63.322
X-50.72 Y-63.089
X-50.02 Y-62.833
X-49.329 Y-62.557
X-48.646 Y-62.259
X-47.972 Y-61.94
X-47.309 Y-61.6
X-46.656 Y-61.241
X-46.015 Y-60.861
X-45.386 Y-60.463
X-44.769 Y-60.045
X-44.166 Y-59.608
X-43.576 Y-59.153
X-43 Y-58.679
X-42.44 Y-58.189
X-41.894 Y-57.681
X-41.365 Y-57.157
X-40.852 Y-56.617
X-40.355 Y-56.061
X-39.875 Y-55.491
X-39.413 Y-54.907
X-38.969 Y-54.308
X-38.544 Y-53.697
X-38.137 Y-53.073
X-37.749 Y-52.436
X-37.381 Y-51.788
X-37.033 Y-51.13
X-36.705 Y-50.461
X-36.397 Y-49.782
X-36.11 Y-49.095
X-35.844 Y-48.399
X-35.599 Y-47.695
X-35.376 Y-46.984
X-35.175 Y-46.267
X-34.996 Y-45.543
X-34.84 Y-44.815
X-34.705 Y-44.082
X-34.592 Y-43.346
X-34.502 Y-42.606
X-34.434 Y-41.864
X-34.389 Y-41.121
X-34.367 Y-40.376
Y-39.631
X-34.39 Y-38.886
X-34.436 Y-38.142
X-34.504 Y-37.4
X-34.595 Y-36.661
X-34.708 Y-35.925
X-34.843 Y-35.192
X-35.001 Y-34.464
X-35.181 Y-33.741
X-35.383 Y-33.024
X-35.607 Y-32.313
X-35.853 Y-31.61
X-36.121 Y-30.914
X-36.409 Y-30.227
X-36.719 Y-29.55
X-37.048 Y-28.881
X-37.398 Y-28.224
X-37.768 Y-27.577
X-38.157 Y-26.942
X-38.566 Y-26.319
X-38.993 Y-25.708
X-39.439 Y-25.112
X-39.903 Y-24.529
X-40.385 Y-23.96
X-40.883 Y-23.406
X-41.398 Y-22.868
X-41.929 Y-22.345
X-42.476 Y-21.839
X-43.038 Y-21.35
X-43.615 Y-20.878
X-44.206 Y-20.425
X-44.811 Y-19.989
X-45.428 Y-19.573
X-46.058 Y-19.175
X-46.7 Y-18.797
X-47.353 Y-18.438
X-48.017 Y-18.099
X-48.69 Y-17.78
X-49.373 Y-17.482
X-50.064 Y-17.204
X-50.764 Y-16.948
X-51.471 Y-16.713
X-52.185 Y-16.5
X-52.905 Y-16.308
X-53.63 Y-16.138
X-54.361 Y-15.99
X-55.095 Y-15.864
X-55.833 Y-15.761
X-56.573 Y-15.679
X-57.316 Y-15.62
X-58.06 Y-15.584
X-58.805 Y-15.571
X-59.55 Y-15.58
X-60.295 Y-15.612
X-61.038 Y-15.666
X-61.779 Y-15.742
X-62.517 Y-15.841
X-63.253 Y-15.962
X-63.984 Y-16.104
X-64.71 Y-16.269
X-65.432 Y-16.456
X-66.147 Y-16.664
X-66.856 Y-16.894
X-67.557 Y-17.145
X-68.251 Y-17.417
X-68.936 Y-17.709
X-69.613 Y-18.022
X-70.279 Y-18.355
X-70.935 Y-18.708
X-71.581 Y-19.08
X-72.214 Y-19.472
X-72.836 Y-19.883
X-73.445 Y-20.312
X-74.041 Y-20.759
X-74.623 Y-21.224
X-75.191 Y-21.706
X-75.745 Y-22.205
X-76.284 Y-22.719
X-76.807 Y-23.25
X-77.313 Y-23.796
X-77.804 Y-24.357
X-78.277 Y-24.933
X-78.733 Y-25.522
X-79.171 Y-26.124
X-79.592 Y-26.74
X-79.993 Y-27.367
X-80.376 Y-28.006
X-80.74 Y-28.656
X-81.084 Y-29.317
X-81.408 Y-29.988
X-81.712 Y-30.669
X-81.995 Y-31.358
X-82.257 Y-32.055
X-82.498 Y-32.76
X-82.719 Y-33.472
X-82.918 Y-34.19
X-83.096 Y-34.913
X-83.252 Y-35.642
X-83.387 Y-36.374
X-83.5 Y-37.111
X-83.591 Y-37.85
X-83.66 Y-38.592
X-83.706 Y-39.336
X-83.731 Y-40.08
X-83.734 Y-40.826
X-83.715 Y-41.57
X-83.674 Y-42.314
X-83.611 Y-43.057
X-83.525 Y-43.797
X-83.418 Y-44.534
X-83.289 Y-45.268
X-83.137 Y-45.997
X-82.964 Y-46.722
X-82.769 Y-47.441
X-82.553 Y-48.154
X-82.316 Y-48.861
X-82.059 Y-49.56
X-81.781 Y-50.251
X-81.482 Y-50.934
X-81.163 Y-51.607
X-80.825 Y-52.271
X-80.467 Y-52.924
X-80.089 Y-53.567
X-79.693 Y-54.198
X-79.279 Y-54.817
X-78.846 Y-55.424
X-78.396 Y-56.017
X-77.929 Y-56.597
X-77.444 Y-57.163
X-76.943 Y-57.715
X-76.425 Y-58.251
X-75.892 Y-58.771
X-75.343 Y-59.275
X-74.78 Y-59.762
X-74.203 Y-60.233
X-73.611 Y-60.687
X-73.007 Y-61.122
X-72.39 Y-61.54
X-71.761 Y-61.94
X-71.121 Y-62.32
X-70.469 Y-62.681
X-69.807 Y-63.023
X-69.135 Y-63.345
X-68.454 Y-63.647
X-67.764 Y-63.929
X-67.066 Y-64.19
X-66.361 Y-64.431
X-65.649 Y-64.651
X-64.931 Y-64.85
X-64.208 Y-65.027
X-63.479 Y-65.183
X-62.746 Y-65.316
X-62.01 Y-65.428
X-61.27 Y-65.518
X-60.528 Y-65.586
X-59.784 Y-65.632
X-59.04 Y-65.657
X-58.295 Y-65.659
X-57.55 Y-65.639
X-56.806 Y-65.597
X-56.064 Y-65.533
X-55.323 Y-65.447
X-54.586 Y-65.34
X-53.853 Y-65.21
X-53.123 Y-65.06
X-52.398 Y-64.887
X-51.678 Y-64.694
X-50.965 Y-64.48
X-50.258 Y-64.245
X-49.558 Y-63.989
X-48.866 Y-63.713
X-48.183 Y-63.416
X-47.508 Y-63.099
X-46.844 Y-62.762
X-46.189 Y-62.406
X-45.545 Y-62.031
X-44.913 Y-61.638
X-44.292 Y-61.226
X-43.683 Y-60.796
X-43.087 Y-60.349
X-42.505 Y-59.885
X-41.936 Y-59.403
X-41.382 Y-58.905
X-40.842 Y-58.392
X-40.317 Y-57.863
X-39.808 Y-57.319
X-39.315 Y-56.76
X-38.838 Y-56.188
X-38.378 Y-55.602
X-37.935 Y-55.003
X-37.51 Y-54.391
X-37.102 Y-53.767
X-36.714 Y-53.131
X-36.344 Y-52.485
X-35.992 Y-51.828
X-35.66 Y-51.161
X-35.347 Y-50.485
X-35.054 Y-49.8
X-34.781 Y-49.107
X-34.527 Y-48.406
X-34.295 Y-47.698
X-34.083 Y-46.984
X-33.891 Y-46.264
X-33.721 Y-45.538
X-33.572 Y-44.809
X-33.443 Y-44.075
X-33.336 Y-43.337
X-33.25 Y-42.597
X-33.186 Y-41.855
X-33.143 Y-41.111
X-33.121 Y-40.366
X-33.122 Y-39.621
X-33.144 Y-38.877
X-33.188 Y-38.133
X-33.253 Y-37.391
X-33.34 Y-36.651
X-33.449 Y-35.913
X-33.578 Y-35.18
X-33.729 Y-34.45
X-33.901 Y-33.725
X-34.094 Y-33.006
X-34.308 Y-32.292
X-34.542 Y-31.585
X-34.798 Y-30.885
X-35.073 Y-30.192
X-35.368 Y-29.508
X-35.683 Y-28.833
X-36.017 Y-28.167
X-36.371 Y-27.511
X-36.743 Y-26.866
X-37.134 Y-26.232
X-37.543 Y-25.609
X-37.97 Y-24.998
X-38.415 Y-24.401
X-38.877 Y-23.816
X-39.356 Y-23.246
X-39.852 Y-22.689
X-40.363 Y-22.147
X-40.889 Y-21.62
X-41.431 Y-21.109
X-41.987 Y-20.613
X-42.558 Y-20.134
X-43.142 Y-19.671
X-43.739 Y-19.226
X-44.349 Y-18.798
X-44.971 Y-18.388
X-45.605 Y-17.996
X-46.25 Y-17.623
X-46.905 Y-17.268
X-47.57 Y-16.932
X-48.244 Y-16.615
X-48.928 Y-16.318
X-49.619 Y-16.041
X-50.319 Y-15.784
X-51.025 Y-15.548
X-51.739 Y-15.333
X-52.458 Y-15.137
X-53.182 Y-14.963
X-53.911 Y-14.81
X-54.644 Y-14.677
X-55.381 Y-14.565
X-56.121 Y-14.475
X-56.862 Y-14.406
X-57.606 Y-14.359
X-58.351 Y-14.333
X-59.096 Y-14.329
X-59.84 Y-14.346
X-60.585 Y-14.384
X-61.327 Y-14.443
X-62.068 Y-14.524
X-62.806 Y-14.626
X-63.541 Y-14.749
X-64.272 Y-14.893
X-64.999 Y-15.058
X-65.72 Y-15.243
X-66.436 Y-15.45
X-67.145 Y-15.678
X-67.848 Y-15.925
X-68.543 Y-16.193
X-69.231 Y-16.48
X-69.91 Y-16.786
X-70.58 Y-17.112
X-71.241 Y-17.457
X-71.891 Y-17.82
X-72.531 Y-18.203
X-73.159 Y-18.603
X-73.776 Y-19.021
X-74.38 Y-19.456
X-74.972 Y-19.909
X-75.551 Y-20.378
X-76.117 Y-20.863
X-76.668 Y-21.364
X-77.205 Y-21.88
X-77.728 Y-22.411
X-78.235 Y-22.957
X-78.726 Y-23.518
X-79.2 Y-24.092
X-79.658 Y-24.68
X-80.099 Y-25.28
X-80.523 Y-25.893
X-80.93 Y-26.517
X-81.318 Y-27.153
X-81.689 Y-27.799
X-82.041 Y-28.456
X-82.374 Y-29.123
X-82.688 Y-29.798
X-82.982 Y-30.483
X-83.257 Y-31.175
X-83.512 Y-31.875
X-83.748 Y-32.582
X-83.963 Y-33.295
X-84.158 Y-34.014
X-84.333 Y-34.739
X-84.487 Y-35.468
X-84.621 Y-36.201
X-84.734 Y-36.937
X-84.825 Y-37.676
X-84.896 Y-38.418
X-84.945 Y-39.162
X-84.973 Y-39.906
X-84.98 Y-40.651
X-84.967 Y-41.396
X-84.932 Y-42.14
X-84.877 Y-42.883
X-84.8 Y-43.625
X-84.702 Y-44.363
X-84.584 Y-45.099
X-84.444 Y-45.831
X-84.284 Y-46.558
X-84.103 Y-47.281
X-83.902 Y-47.998
X-83.681 Y-48.71
X-83.44 Y-49.415
X-83.179 Y-50.113
X-82.899 Y-50.803
X-82.599 Y-51.485
X-82.281 Y-52.159
X-81.943 Y-52.823
X-81.586 Y-53.477
X-81.21 Y-54.12
X-80.817 Y-54.753
X-80.406 Y-55.375
X-79.978 Y-55.984
X-79.533 Y-56.582
X-79.071 Y-57.167
X-78.593 Y-57.738
X-78.099 Y-58.296
X-77.589 Y-58.839
X-77.065 Y-59.368
X-76.525 Y-59.882
X-75.971 Y-60.38
X-75.403 Y-60.862
X-74.822 Y-61.329
X-74.228 Y-61.778
X-73.621 Y-62.211
X-73.003 Y-62.627
X-72.373 Y-63.025
X-71.733 Y-63.405
X-71.081 Y-63.767
X-70.42 Y-64.11
X-69.749 Y-64.433
X-69.069 Y-64.738
X-68.381 Y-65.024
X-67.685 Y-65.29
X-66.982 Y-65.537
X-66.272 Y-65.764
X-65.556 Y-65.97
X-64.835 Y-66.157
X-64.109 Y-66.323
X-63.378 Y-66.468
X-62.643 Y-66.593
X-61.905 Y-66.696
X-61.165 Y-66.779
X-60.422 Y-66.841
X-59.679 Y-66.883
X-58.934 Y-66.903
X-58.189 Y-66.902
X-57.444 Y-66.881
X-56.7 Y-66.838
X-55.958 Y-66.775
X-55.218 Y-66.69
X-54.48 Y-66.584
X-53.746 Y-66.458
X-53.015 Y-66.311
X-52.289 Y-66.143
X-51.568 Y-65.956
X-50.853 Y-65.748
X-50.143 Y-65.521
X-49.44 Y-65.274
X-48.745 Y-65.007
X-48.057 Y-64.72
X-47.377 Y-64.415
X-46.707 Y-64.09
X-46.045 Y-63.747
X-45.394 Y-63.386
X-44.753 Y-63.006
X-44.122 Y-62.609
X-43.503 Y-62.195
X-42.895 Y-61.764
X-42.3 Y-61.315
X-41.718 Y-60.851
X-41.149 Y-60.37
X-40.593 Y-59.873
X-40.052 Y-59.361
X-39.525 Y-58.835
X-39.013 Y-58.294
X-38.515 Y-57.739
X-38.034 Y-57.171
X-37.568 Y-56.589
X-37.118 Y-55.995
X-36.685 Y-55.389
X-36.269 Y-54.771
X-35.87 Y-54.141
X-35.489 Y-53.501
X-35.125 Y-52.851
X-34.78 Y-52.191
X-34.453 Y-51.521
X-34.144 Y-50.843
X-33.855 Y-50.157
X-33.584 Y-49.462
X-33.332 Y-48.761
X-33.1 Y-48.053
X-32.888 Y-47.339
X-32.695 Y-46.619
X-32.523 Y-45.894
X-32.371 Y-45.165
X-32.239 Y-44.432
X-32.128 Y-43.695
X-32.036 Y-42.956
X-31.965 Y-42.214
X-31.914 Y-41.471
X-31.884 Y-40.726
X-31.874 Y-39.981
X-31.886 Y-39.236
X-31.917 Y-38.492
X-31.97 Y-37.749
X-32.043 Y-37.007
X-32.136 Y-36.268
X-32.25 Y-35.532
X-32.384 Y-34.799
X-32.538 Y-34.07
X-32.712 Y-33.345
X-32.907 Y-32.626
X-33.121 Y-31.912
X-33.355 Y-31.205
X-33.609 Y-30.505
X-33.882 Y-29.811
X-34.174 Y-29.126
X-34.486 Y-28.449
X-34.815 Y-27.781
X-35.164 Y-27.122
X-35.53 Y-26.473
X-35.913 Y-25.835
X-36.315 Y-25.207
X-36.733 Y-24.591
X-37.169 Y-23.986
X-37.621 Y-23.394
X-38.09 Y-22.815
X-38.574 Y-22.249
X-39.074 Y-21.696
X-39.589 Y-21.158
X-40.118 Y-20.634
X-40.662 Y-20.124
X-41.22 Y-19.63
X-41.791 Y-19.151
X-42.375 Y-18.689
X-42.972 Y-18.243
X-43.581 Y-17.814
X-44.201 Y-17.402
X-44.833 Y-17.007
X-45.476 Y-16.629
X-46.128 Y-16.27
X-46.79 Y-15.928
X-47.462 Y-15.605
X-48.142 Y-15.3
X-48.83 Y-15.014
X-49.525 Y-14.748
X-50.228 Y-14.5
X-50.937 Y-14.272
X-51.653 Y-14.064
X-52.374 Y-13.875
X-53.099 Y-13.706
X-53.829 Y-13.557
X-54.563 Y-13.428
X-55.3 Y-13.319
X-56.04 Y-13.231
X-56.782 Y-13.163
X-57.525 Y-13.115
X-58.27 Y-13.088
X-59.015 Y-13.082
X-59.76 Y-13.096
X-60.504 Y-13.131
X-61.247 Y-13.185
X-61.988 Y-13.26
X-62.727 Y-13.356
X-63.463 Y-13.471
X-64.196 Y-13.606
X-64.925 Y-13.762
X-65.649 Y-13.937
X-66.368 Y-14.133
X-67.081 Y-14.348
X-67.789 Y-14.582
X-68.489 Y-14.836
X-69.183 Y-15.108
X-69.868 Y-15.399
X-70.546 Y-15.709
X-71.215 Y-16.037
X-71.875 Y-16.383
X-72.525 Y-16.747
X-73.165 Y-17.129
X-73.794 Y-17.528
X-74.412 Y-17.945
X-75.018 Y-18.378
X-75.612 Y-18.827
X-76.194 Y-19.292
X-76.763 Y-19.773
X-77.319 Y-20.269
X-77.862 Y-20.78
X-78.39 Y-21.305
X-78.904 Y-21.845
X-79.403 Y-22.398
X-79.886 Y-22.965
X-80.354 Y-23.544
X-80.807 Y-24.137
X-81.243 Y-24.741
X-81.662 Y-25.357
X-82.065 Y-25.983
X-82.451 Y-26.621
X-82.819 Y-27.268
X-83.17 Y-27.926
X-83.502 Y-28.592
X-83.817 Y-29.268
X-84.112 Y-29.952
X-84.389 Y-30.644
X-84.647 Y-31.343
X-84.885 Y-32.049
X-85.105 Y-32.76
X-85.306 Y-33.478
X-85.487 Y-34.201
X-85.648 Y-34.928
X-85.79 Y-35.66
X-85.913 Y-36.394
X-86.015 Y-37.133
X-86.097 Y-37.873
X-86.159 Y-38.616
X-86.201 Y-39.359
X-86.222 Y-40.104
X-86.224 Y-40.849
X-86.206 Y-41.594
X-86.168 Y-42.338
X-86.11 Y-43.081
X-86.032 Y-43.822
X-85.934 Y-44.56
X-85.815 Y-45.296
X-85.677 Y-46.028
X-85.518 Y-46.756
X-85.34 Y-47.48
X-85.143 Y-48.198
X-84.926 Y-48.911
X-84.69 Y-49.618
X-84.435 Y-50.318
X-84.162 Y-51.011
X-83.87 Y-51.696
X-83.559 Y-52.374
X-83.23 Y-53.042
X-82.884 Y-53.702
X-82.519 Y-54.352
X-82.138 Y-54.991
X-81.739 Y-55.621
X-81.323 Y-56.239
X-80.891 Y-56.846
X-80.443 Y-57.441
X-79.979 Y-58.025
X-79.5 Y-58.595
X-79.005 Y-59.152
X-78.496 Y-59.696
X-77.972 Y-60.225
X-77.433 Y-60.74
X-76.881 Y-61.24
X-76.315 Y-61.725
X-75.737 Y-62.195
X-75.146 Y-62.649
X-74.543 Y-63.087
X-73.929 Y-63.508
X-73.304 Y-63.913
X-72.667 Y-64.301
X-72.021 Y-64.672
X-71.365 Y-65.025
X-70.699 Y-65.36
X-70.025 Y-65.677
X-69.343 Y-65.975
X-68.652 Y-66.256
X-67.955 Y-66.517
X-67.25 Y-66.76
X-66.54 Y-66.984
X-65.823 Y-67.189
X-65.102 Y-67.375
X-64.376 Y-67.541
X-63.645 Y-67.687
X-62.911 Y-67.813
X-62.173 Y-67.919
X-61.433 Y-68.005
X-60.691 Y-68.071
X-59.947 Y-68.118
X-59.203 Y-68.144
X-58.458 Y-68.151
X-57.713 Y-68.137
X-56.968 Y-68.103
X-56.225 Y-68.05
X-55.484 Y-67.976
X-54.745 Y-67.882
X-54.008 Y-67.769
X-53.275 Y-67.636
X-52.546 Y-67.483
X-51.821 Y-67.311
X-51.101 Y-67.119
X-50.386 Y-66.909
X-49.678 Y-66.679
X-48.975 Y-66.431
X-48.28 Y-66.164
X-47.592 Y-65.878
X-46.912 Y-65.573
X-46.24 Y-65.251
X-45.577 Y-64.91
X-44.924 Y-64.552
X-44.28 Y-64.177
X-43.647 Y-63.785
X-43.024 Y-63.376
X-42.412 Y-62.951
X-41.812 Y-62.51
X-41.223 Y-62.053
X-40.647 Y-61.58
X-40.084 Y-61.092
X-39.534 Y-60.589
X-38.998 Y-60.072
X-38.475 Y-59.541
X-37.967 Y-58.996
X-37.473 Y-58.439
X-36.994 Y-57.868
X-36.53 Y-57.285
X-36.081 Y-56.69
X-35.649 Y-56.083
X-35.233 Y-55.466
X-34.833 Y-54.837
X-34.45 Y-54.197
X-34.085 Y-53.548
X-33.737 Y-52.889
X-33.406 Y-52.222
X-33.093 Y-51.546
X-32.797 Y-50.862
X-32.52 Y-50.17
X-32.261 Y-49.472
X-32.02 Y-48.766
X-31.799 Y-48.055
X-31.596 Y-47.338
X-31.412 Y-46.616
X-31.248 Y-45.89
X-31.102 Y-45.159
X-30.976 Y-44.424
X-30.869 Y-43.687
X-30.782 Y-42.947
X-30.714 Y-42.205
X-30.665 Y-41.462
X-30.636 Y-40.717
X-30.627 Y-39.972
X-30.638 Y-39.227
X-30.669 Y-38.483
X-30.719 Y-37.739
X-30.789 Y-36.998
X-30.879 Y-36.258
X-30.988 Y-35.521
X-31.117 Y-34.787
X-31.265 Y-34.057
X-31.432 Y-33.331
X-31.618 Y-32.609
X-31.823 Y-31.893
X-32.048 Y-31.183
X-32.291 Y-30.478
X-32.553 Y-29.781
X-32.833 Y-29.091
X-33.131 Y-28.408
X-33.448 Y-27.733
X-33.782 Y-27.067
X-34.133 Y-26.41
X-34.501 Y-25.763
X-34.887 Y-25.125
X-35.289 Y-24.498
X-35.707 Y-23.881
X-36.143 Y-23.277
X-36.594 Y-22.684
X-37.061 Y-22.103
X-37.542 Y-21.535
X-38.039 Y-20.979
X-38.551 Y-20.438
X-39.076 Y-19.909
X-39.615 Y-19.395
X-40.167 Y-18.895
X-40.733 Y-18.41
X-41.311 Y-17.939
X-41.901 Y-17.485
X-42.503 Y-17.046
X-43.117 Y-16.624
X-43.742 Y-16.218
X-44.377 Y-15.828
X-45.022 Y-15.455
X-45.676 Y-15.099
X-46.34 Y-14.76
X-47.012 Y-14.439
X-47.693 Y-14.136
X-48.381 Y-13.85
X-49.076 Y-13.583
X-49.779 Y-13.335
X-50.488 Y-13.105
X-51.202 Y-12.895
X-51.922 Y-12.703
X-52.647 Y-12.53
X-53.376 Y-12.376
X-54.109 Y-12.241
X-54.845 Y-12.125
X-55.583 Y-12.028
X-56.324 Y-11.951
X-57.067 Y-11.894
X-57.811 Y-11.856
X-58.556 Y-11.838
X-59.301 Y-11.839
X-60.046 Y-11.86
X-60.79 Y-11.9
X-61.533 Y-11.96
X-62.274 Y-12.039
X-63.012 Y-12.137
X-63.748 Y-12.255
X-64.48 Y-12.391
X-65.209 Y-12.547
X-65.933 Y-12.722
X-66.652 Y-12.916
X-67.366 Y-13.13
X-68.074 Y-13.361
X-68.776 Y-13.612
X-69.471 Y-13.88
X-70.159 Y-14.166
X-70.839 Y-14.47
X-71.511 Y-14.792
X-72.175 Y-15.131
X-72.829 Y-15.487
X-73.474 Y-15.86
X-74.109 Y-16.25
X-74.734 Y-16.656
X-75.347 Y-17.079
X-75.95 Y-17.518
X-76.54 Y-17.971
X-77.119 Y-18.44
X-77.686 Y-18.924
X-78.24 Y-19.422
X-78.781 Y-19.934
X-79.309 Y-20.461
X-79.822 Y-21
X-80.322 Y-21.553
X-80.806 Y-22.119
X-81.276 Y-22.698
X-81.73 Y-23.288
X-82.169 Y-23.89
X-82.592 Y-24.504
X-82.999 Y-25.127
X-83.39 Y-25.762
X-83.765 Y-26.406
X-84.123 Y-27.059
X-84.463 Y-27.722
X-84.786 Y-28.393
X-85.092 Y-29.073
X-85.38 Y-29.76
X-85.649 Y-30.455
X-85.901 Y-31.156
X-86.135 Y-31.863
X-86.35 Y-32.577
X-86.547 Y-33.295
X-86.725 Y-34.019
X-86.884 Y-34.747
X-87.025 Y-35.478
X-87.147 Y-36.213
X-87.25 Y-36.951
X-87.333 Y-37.692
X-87.397 Y-38.434
X-87.441 Y-39.178
X-87.467 Y-39.922
X-87.473 Y-40.667
X-87.46 Y-41.412
X-87.428 Y-42.157
X-87.377 Y-42.9
X-87.306 Y-43.642
X-87.217 Y-44.381
X-87.108 Y-45.118
X-86.98 Y-45.852
X-86.833 Y-46.583
X-86.668 Y-47.309
X-86.483 Y-48.031
X-86.28 Y-48.748
X-86.059 Y-49.459
X-85.819 Y-50.165
X-85.561 Y-50.864
X-85.286 Y-51.556
X-84.993 Y-52.241
X-84.682 Y-52.918
X-84.353 Y-53.587
X-84.008 Y-54.247
X-83.645 Y-54.898
X-83.265 Y-55.539
X-82.869 Y-56.17
X-82.457 Y-56.791
X-82.029 Y-57.401
X-81.586 Y-58
X-81.128 Y-58.587
X-80.654 Y-59.162
X-80.166 Y-59.725
X-79.664 Y-60.275
X-79.147 Y-60.812
X-78.617 Y-61.335
X-78.073 Y-61.845
X-77.516 Y-62.34
X-76.947 Y-62.82
X-76.365 Y-63.286
X-75.772 Y-63.737
X-75.167 Y-64.172
X-74.552 Y-64.592
X-73.925 Y-64.996
X-73.289 Y-65.383
X-72.643 Y-65.754
X-71.987 Y-66.108
X-71.322 Y-66.444
X-70.649 Y-66.763
X-69.968 Y-67.065
X-69.279 Y-67.349
X-68.583 Y-67.616
X-67.881 Y-67.864
X-67.172 Y-68.094
X-66.458 Y-68.307
X-65.739 Y-68.5
X-65.014 Y-68.676
X-64.286 Y-68.832
X-63.554 Y-68.969
X-62.818 Y-69.087
X-62.08 Y-69.186
X-61.339 Y-69.267
X-60.596 Y-69.328
X-59.852 Y-69.37
X-59.108 Y-69.393
X-58.363 Y-69.397
X-57.618 Y-69.382
X-56.874 Y-69.348
X-56.13 Y-69.294
X-55.389 Y-69.221
X-54.65 Y-69.129
X-53.913 Y-69.018
X-53.179 Y-68.888
X-52.449 Y-68.739
X-51.723 Y-68.571
X-51.002 Y-68.385
X-50.285 Y-68.181
X-49.574 Y-67.958
X-48.869 Y-67.718
X-48.17 Y-67.459
X-47.478 Y-67.183
X-46.794 Y-66.889
X-46.117 Y-66.577
X-45.449 Y-66.248
X-44.789 Y-65.902
X-44.138 Y-65.539
X-43.497 Y-65.16
X-42.865 Y-64.765
X-42.243 Y-64.354
X-41.633 Y-63.927
X-41.033 Y-63.485
X-40.445 Y-63.028
X-39.868 Y-62.556
X-39.304 Y-62.069
X-38.753 Y-61.568
X-38.215 Y-61.053
X-37.69 Y-60.524
X-37.178 Y-59.982
X-36.68 Y-59.428
X-36.197 Y-58.861
X-35.727 Y-58.283
X-35.273 Y-57.692
X-34.833 Y-57.091
X-34.409 Y-56.478
X-34.001 Y-55.855
X-33.608 Y-55.222
X-33.232 Y-54.579
X-32.872 Y-53.926
X-32.529 Y-53.265
X-32.203 Y-52.595
X-31.893 Y-51.917
X-31.601 Y-51.232
X-31.325 Y-50.54
X-31.068 Y-49.841
X-30.828 Y-49.135
X-30.606 Y-48.424
X-30.402 Y-47.707
X-30.217 Y-46.986
X-30.05 Y-46.259
X-29.902 Y-45.529
X-29.772 Y-44.796
X-29.661 Y-44.059
X-29.568 Y-43.32
X-29.494 Y-42.578
X-29.438 Y-41.835
X-29.401 Y-41.091
X-29.383 Y-40.346
X-29.384 Y-39.601
X-29.403 Y-38.857
X-29.442 Y-38.112
X-29.5 Y-37.37
X-29.576 Y-36.628
X-29.672 Y-35.89
X-29.785 Y-35.153
X-29.918 Y-34.42
X-30.068 Y-33.69
X-30.237 Y-32.965
X-30.425 Y-32.244
X-30.63 Y-31.527
X-30.854 Y-30.817
X-31.096 Y-30.112
X-31.356 Y-29.414
X-31.634 Y-28.723
X-31.929 Y-28.039
X-32.242 Y-27.362
X-32.571 Y-26.694
X-32.917 Y-26.034
X-33.28 Y-25.383
X-33.659 Y-24.742
X-34.054 Y-24.11
X-34.465 Y-23.488
X-34.891 Y-22.878
X-35.333 Y-22.278
X-35.791 Y-21.69
X-36.263 Y-21.113
X-36.749 Y-20.549
X-37.25 Y-19.997
X-37.764 Y-19.458
X-38.292 Y-18.932
X-38.832 Y-18.419
X-39.386 Y-17.92
X-39.952 Y-17.436
X-40.53 Y-16.966
X-41.12 Y-16.511
X-41.721 Y-16.071
X-42.333 Y-15.646
X-42.956 Y-15.238
X-43.59 Y-14.845
X-44.232 Y-14.468
X-44.884 Y-14.107
X-45.545 Y-13.763
X-46.214 Y-13.436
X-46.892 Y-13.125
X-47.576 Y-12.832
X-48.268 Y-12.556
X-48.967 Y-12.297
X-49.672 Y-12.057
X-50.383 Y-11.834
X-51.1 Y-11.63
X-51.821 Y-11.443
X-52.547 Y-11.274
X-53.277 Y-11.124
X-54.01 Y-10.992
X-54.746 Y-10.878
X-55.485 Y-10.783
X-56.226 Y-10.707
X-56.969 Y-10.649
X-57.713 Y-10.61
X-58.458 Y-10.59
X-59.203 Y-10.589
X-59.948 Y-10.607
X-60.692 Y-10.644
X-61.435 Y-10.699
X-62.177 Y-10.772
X-62.916 Y-10.864
X-63.653 Y-10.974
X-64.387 Y-11.103
X-65.117 Y-11.25
X-65.844 Y-11.416
X-66.566 Y-11.599
X-67.283 Y-11.801
X-67.995 Y-12.021
X-68.701 Y-12.259
X-69.401 Y-12.514
X-70.094 Y-12.786
X-70.781 Y-13.076
X-71.46 Y-13.383
X-72.131 Y-13.706
X-72.794 Y-14.046
X-73.448 Y-14.403
X-74.093 Y-14.775
X-74.729 Y-15.164
X-75.354 Y-15.57
X-75.969 Y-15.99
X-76.573 Y-16.426
X-77.167 Y-16.877
X-77.749 Y-17.342
X-78.319 Y-17.821
X-78.877 Y-18.315
X-79.423 Y-18.822
X-79.956 Y-19.342
X-80.476 Y-19.876
X-80.983 Y-20.422
X-81.476 Y-20.981
X-81.954 Y-21.552
X-82.418 Y-22.135
X-82.868 Y-22.729
X-83.303 Y-23.334
X-83.722 Y-23.95
X-84.126 Y-24.576
X-84.515 Y-25.211
X-84.888 Y-25.856
X-85.245 Y-26.51
X-85.585 Y-27.173
X-85.908 Y-27.844
X-86.215 Y-28.524
X-86.504 Y-29.21
X-86.776 Y-29.904
X-87.031 Y-30.604
X-87.268 Y-31.31
X-87.488 Y-32.022
X-87.69 Y-32.739
X-87.874 Y-33.461
X-88.041 Y-34.187
X-88.19 Y-34.917
X-88.32 Y-35.651
X-88.433 Y-36.387
X-88.526 Y-37.127
X-88.602 Y-37.868
X-88.659 Y-38.611
X-88.697 Y-39.355
X-88.717 Y-40.1
X-88.719 Y-40.845
X-88.702 Y-41.59
X-88.668 Y-42.334
X-88.614 Y-43.077
X-88.543 Y-43.819
X-88.453 Y-44.558
X-88.345 Y-45.295
X-88.218 Y-46.03
X-88.072 Y-46.76
X-87.909 Y-47.487
X-87.727 Y-48.21
X-87.528 Y-48.928
X-87.311 Y-49.64
X-87.077 Y-50.348
X-86.825 Y-51.049
X-86.556 Y-51.744
X-86.27 Y-52.432
X-85.967 Y-53.113
X-85.648 Y-53.786
X-85.311 Y-54.45
X-84.959 Y-55.107
X-84.59 Y-55.754
X-84.205 Y-56.392
X-83.804 Y-57.02
X-83.389 Y-57.638
X-82.958 Y-58.246
X-82.512 Y-58.843
X-82.052 Y-59.429
X-81.578 Y-60.004
X-81.089 Y-60.567
X-80.587 Y-61.117
X-80.071 Y-61.654
X-79.541 Y-62.179
X-78.999 Y-62.689
X-78.444 Y-63.187
X-77.877 Y-63.67
X-77.299 Y-64.14
X-76.709 Y-64.595
X-76.108 Y-65.035
X-75.496 Y-65.46
X-74.874 Y-65.871
X-74.242 Y-66.266
X-73.601 Y-66.645
X-72.95 Y-67.007
X-72.291 Y-67.354
X-71.623 Y-67.684
X-70.947 Y-67.998
X-70.263 Y-68.294
X-69.573 Y-68.574
X-68.876 Y-68.837
X-68.172 Y-69.083
X-67.463 Y-69.311
X-66.748 Y-69.522
X-66.029 Y-69.715
X-65.305 Y-69.89
X-64.576 Y-70.047
X-63.844 Y-70.186
X-63.109 Y-70.306
X-62.371 Y-70.408
X-61.631 Y-70.492
X-60.888 Y-70.558
X-60.145 Y-70.605
X-59.4 Y-70.634
X-58.655 Y-70.645
X-57.91 Y-70.638
X-57.166 Y-70.612
X-56.422 Y-70.568
X-55.68 Y-70.505
X-54.939 Y-70.424
X-54.201 Y-70.325
X-53.465 Y-70.207
X-52.732 Y-70.071
X-52.003 Y-69.918
X-51.278 Y-69.746
X-50.557 Y-69.557
X-49.842 Y-69.351
X-49.131 Y-69.127
X-48.426 Y-68.886
X-47.727 Y-68.627
X-47.035 Y-68.351
X-46.35 Y-68.058
X-45.673 Y-67.748
X-45.003 Y-67.422
X-44.341 Y-67.079
X-43.689 Y-66.72
X-43.045 Y-66.345
X-42.41 Y-65.955
X-41.785 Y-65.549
X-41.17 Y-65.129
X-40.565 Y-64.693
X-39.972 Y-64.243
X-39.389 Y-63.779
X-38.818 Y-63.3
X-38.259 Y-62.807
X-37.712 Y-62.301
X-37.178 Y-61.782
X-36.657 Y-61.25
X-36.148 Y-60.705
X-35.653 Y-60.149
X-35.171 Y-59.58
X-34.703 Y-59
X-34.249 Y-58.409
X-33.81 Y-57.808
X-33.386 Y-57.195
X-32.977 Y-56.573
X-32.583 Y-55.94
X-32.205 Y-55.298
X-31.842 Y-54.647
X-31.496 Y-53.988
X-31.165 Y-53.32
X-30.851 Y-52.644
X-30.553 Y-51.962
X-30.271 Y-51.272
X-30.006 Y-50.575
X-29.758 Y-49.873
X-29.528 Y-49.164
X-29.314 Y-48.45
X-29.119 Y-47.732
X-28.94 Y-47.008
X-28.78 Y-46.281
X-28.637 Y-45.549
X-28.511 Y-44.815
X-28.404 Y-44.078
X-28.314 Y-43.338
X-28.242 Y-42.596
X-28.188 Y-41.853
X-28.152 Y-41.109
X-28.134 Y-40.364
Y-39.619
X-28.153 Y-38.874
X-28.19 Y-38.13
X-28.245 Y-37.387
X-28.318 Y-36.646
X-28.409 Y-35.906
X-28.518 Y-35.169
X-28.645 Y-34.435
X-28.789 Y-33.704
X-28.951 Y-32.977
X-29.131 Y-32.254
X-29.328 Y-31.535
X-29.542 Y-30.822
X-29.774 Y-30.114
X-30.024 Y-29.412
X-30.29 Y-28.716
X-30.574 Y-28.027
X-30.874 Y-27.345
X-31.19 Y-26.67
X-31.522 Y-26.004
X-31.871 Y-25.345
X-32.235 Y-24.695
X-32.615 Y-24.054
X-33.011 Y-23.423
X-33.421 Y-22.801
X-33.847 Y-22.19
X-34.288 Y-21.589
X-34.744 Y-21
X-35.214 Y-20.421
X-35.697 Y-19.855
X-36.194 Y-19.3
X-36.705 Y-18.757
X-37.228 Y-18.227
X-37.764 Y-17.709
X-38.313 Y-17.205
X-38.873 Y-16.714
X-39.445 Y-16.237
X-40.029 Y-15.774
X-40.624 Y-15.325
X-41.23 Y-14.891
X-41.846 Y-14.472
X-42.472 Y-14.068
X-43.107 Y-13.679
X-43.752 Y-13.306
X-44.405 Y-12.948
X-45.067 Y-12.606
X-45.737 Y-12.28
X-46.415 Y-11.97
X-47.1 Y-11.677
X-47.792 Y-11.4
X-48.49 Y-11.141
X-49.195 Y-10.899
X-49.905 Y-10.674
X-50.621 Y-10.466
X-51.341 Y-10.276
X-52.066 Y-10.103
X-52.794 Y-9.947
X-53.526 Y-9.809
X-54.262 Y-9.688
X-55 Y-9.585
X-55.74 Y-9.5
X-56.482 Y-9.433
X-57.225 Y-9.384
X-57.97 Y-9.353
X-58.715 Y-9.34
X-59.46 Y-9.346
X-60.204 Y-9.369
X-60.948 Y-9.41
X-61.691 Y-9.468
X-62.432 Y-9.545
X-63.171 Y-9.639
X-63.908 Y-9.751
X-64.642 Y-9.88
X-65.372 Y-10.027
X-66.099 Y-10.192
X-66.821 Y-10.374
X-67.539 Y-10.575
X-68.251 Y-10.792
X-68.959 Y-11.026
X-69.66 Y-11.278
X-70.355 Y-11.546
X-71.044 Y-11.83
X-71.725 Y-12.131
X-72.4 Y-12.448
X-73.066 Y-12.781
X-73.725 Y-13.13
X-74.374 Y-13.494
X-75.015 Y-13.874
X-75.646 Y-14.27
X-76.268 Y-14.681
X-76.88 Y-15.106
X-77.481 Y-15.546
X-78.072 Y-16
X-78.652 Y-16.468
X-79.22 Y-16.95
X-79.777 Y-17.445
X-80.322 Y-17.953
X-80.855 Y-18.474
X-81.375 Y-19.007
X-81.882 Y-19.553
X-82.376 Y-20.111
X-82.856 Y-20.681
X-83.322 Y-21.262
X-83.774 Y-21.854
X-84.212 Y-22.457
X-84.636 Y-23.07
X-85.045 Y-23.692
X-85.439 Y-24.325
X-85.818 Y-24.966
X-86.181 Y-25.617
X-86.529 Y-26.275
X-86.861 Y-26.942
X-87.177 Y-27.617
X-87.477 Y-28.299
X-87.76 Y-28.989
X-88.026 Y-29.684
X-88.276 Y-30.386
X-88.509 Y-31.094
X-88.726 Y-31.807
X-88.925 Y-32.525
X-89.108 Y-33.247
X-89.273 Y-33.974
X-89.421 Y-34.704
X-89.552 Y-35.437
X-89.665 Y-36.174
X-89.76 Y-36.913
X-89.837 Y-37.654
X-89.896 Y-38.396
X-89.938 Y-39.14
X-89.962 Y-39.885
X-89.969 Y-40.63
X-89.958 Y-41.375
X-89.929 Y-42.12
X-89.883 Y-42.863
X-89.819 Y-43.606
X-89.738 Y-44.346
X-89.639 Y-45.085
X-89.522 Y-45.82
X-89.388 Y-46.553
X-89.236 Y-47.283
X-89.067 Y-48.008
X-88.88 Y-48.73
X-88.677 Y-49.446
X-88.456 Y-50.158
X-88.219 Y-50.864
X-87.965 Y-51.565
X-87.695 Y-52.259
X-87.409 Y-52.947
X-87.106 Y-53.628
X-86.787 Y-54.301
X-86.452 Y-54.966
X-86.1 Y-55.624
X-85.734 Y-56.272
X-85.352 Y-56.912
X-84.955 Y-57.542
X-84.543 Y-58.163
X-84.116 Y-58.774
X-83.676 Y-59.375
X-83.221 Y-59.965
X-82.753 Y-60.545
X-82.271 Y-61.113
X-81.775 Y-61.669
X-81.266 Y-62.214
X-80.745 Y-62.746
X-80.211 Y-63.265
X-79.664 Y-63.772
X-79.106 Y-64.265
X-78.536 Y-64.745
X-77.955 Y-65.212
X-77.364 Y-65.664
X-76.761 Y-66.103
X-76.149 Y-66.527
X-75.526 Y-66.937
X-74.895 Y-67.331
X-74.253 Y-67.711
X-73.603 Y-68.075
X-72.945 Y-68.423
X-72.278 Y-68.755
X-71.603 Y-69.072
X-70.921 Y-69.372
X-70.233 Y-69.656
X-69.537 Y-69.924
X-68.836 Y-70.176
X-68.129 Y-70.41
X-67.416 Y-70.628
X-66.699 Y-70.83
X-65.977 Y-71.014
X-65.251 Y-71.181
X-64.521 Y-71.33
X-63.788 Y-71.462
X-63.051 Y-71.576
X-62.313 Y-71.673
X-61.572 Y-71.752
X-60.829 Y-71.814
X-60.086 Y-71.858
X-59.341 Y-71.885
X-58.596 Y-71.895
X-57.851 Y-71.886
X-57.106 Y-71.86
X-56.363 Y-71.817
X-55.62 Y-71.755
X-54.879 Y-71.676
X-54.141 Y-71.578
X-53.404 Y-71.464
X-52.671 Y-71.332
X-51.941 Y-71.183
X-51.215 Y-71.017
X-50.493 Y-70.833
X-49.775 Y-70.633
X-49.062 Y-70.416
X-48.355 Y-70.183
X-47.653 Y-69.933
X-46.957 Y-69.666
X-46.268 Y-69.383
X-45.586 Y-69.083
X-44.911 Y-68.767
X-44.244 Y-68.436
X-43.584 Y-68.089
X-42.933 Y-67.727
X-42.291 Y-67.349
X-41.658 Y-66.957
X-41.034 Y-66.55
X-40.419 Y-66.128
X-39.815 Y-65.693
X-39.221 Y-65.243
X-38.638 Y-64.779
X-38.066 Y-64.301
X-37.506 Y-63.81
X-36.957 Y-63.306
X-36.42 Y-62.79
X-35.896 Y-62.26
X-35.383 Y-61.719
X-34.884 Y-61.166
X-34.397 Y-60.602
X-33.924 Y-60.027
X-33.464 Y-59.441
X-33.018 Y-58.844
X-32.586 Y-58.237
X-32.169 Y-57.62
X-31.766 Y-56.993
X-31.377 Y-56.357
X-31.004 Y-55.712
X-30.646 Y-55.059
X-30.303 Y-54.397
X-29.976 Y-53.728
X-29.664 Y-53.051
X-29.368 Y-52.368
X-29.088 Y-51.677
X-28.824 Y-50.981
X-28.576 Y-50.278
X-28.345 Y-49.57
X-28.13 Y-48.856
X-27.933 Y-48.138
X-27.752 Y-47.415
X-27.589 Y-46.688
X-27.442 Y-45.958
X-27.312 Y-45.224
X-27.199 Y-44.487
X-27.104 Y-43.748
X-27.025 Y-43.008
X-26.964 Y-42.265
X-26.92 Y-41.521
X-26.893 Y-40.777
X-26.883 Y-40.032
X-26.892 Y-39.287
X-26.917 Y-38.542
X-26.961 Y-37.798
X-27.021 Y-37.056
X-27.099 Y-36.315
X-27.194 Y-35.576
X-27.306 Y-34.839
X-27.435 Y-34.105
X-27.582 Y-33.375
X-27.745 Y-32.648
X-27.925 Y-31.925
X-28.122 Y-31.206
X-28.335 Y-30.492
X-28.566 Y-29.784
X-28.814 Y-29.081
X-29.078 Y-28.385
X-29.358 Y-27.694
X-29.654 Y-27.011
X-29.966 Y-26.334
X-30.294 Y-25.665
X-30.637 Y-25.003
X-30.995 Y-24.35
X-31.368 Y-23.705
X-31.756 Y-23.069
X-32.159 Y-22.443
X-32.577 Y-21.826
X-33.009 Y-21.219
X-33.456 Y-20.622
X-33.916 Y-20.036
X-34.389 Y-19.461
X-34.876 Y-18.897
X-35.376 Y-18.345
X-35.889 Y-17.804
X-36.414 Y-17.275
X-36.951 Y-16.759
X-37.5 Y-16.255
X-38.06 Y-15.764
X-38.632 Y-15.287
X-39.215 Y-14.823
X-39.809 Y-14.373
X-40.413 Y-13.937
X-41.028 Y-13.516
X-41.652 Y-13.108
X-42.285 Y-12.716
X-42.927 Y-12.338
X-43.578 Y-11.975
X-44.237 Y-11.627
X-44.904 Y-11.295
X-45.578 Y-10.978
X-46.259 Y-10.676
X-46.948 Y-10.391
X-47.642 Y-10.122
X-48.343 Y-9.87
X-49.05 Y-9.633
X-49.762 Y-9.414
X-50.479 Y-9.21
X-51.2 Y-9.024
X-51.925 Y-8.854
X-52.655 Y-8.701
X-53.387 Y-8.565
X-54.122 Y-8.445
X-54.861 Y-8.343
X-55.601 Y-8.258
X-56.343 Y-8.19
X-57.086 Y-8.14
X-57.83 Y-8.107
X-58.575 Y-8.092
X-59.32 Y-8.094
X-60.065 Y-8.113
X-60.809 Y-8.149
X-61.552 Y-8.202
X-62.294 Y-8.273
X-63.034 Y-8.36
X-63.772 Y-8.465
X-64.507 Y-8.586
X-65.239 Y-8.724
X-65.968 Y-8.88
X-66.693 Y-9.052
X-67.413 Y-9.241
X-68.129 Y-9.447
X-68.84 Y-9.67
X-69.546 Y-9.909
X-70.246 Y-10.163
X-70.94 Y-10.434
X-71.628 Y-10.721
X-72.309 Y-11.023
X-72.983 Y-11.341
X-73.649 Y-11.675
X-74.308 Y-12.023
X-74.958 Y-12.387
X-75.599 Y-12.766
X-76.232 Y-13.16
X-76.855 Y-13.569
X-77.468 Y-13.991
X-78.072 Y-14.428
X-78.665 Y-14.878
X-79.249 Y-15.342
X-79.821 Y-15.819
X-80.382 Y-16.309
X-80.932 Y-16.811
X-81.471 Y-17.326
X-81.997 Y-17.854
X-82.511 Y-18.393
X-83.013 Y-18.944
X-83.501 Y-19.506
X-83.977 Y-20.08
X-84.439 Y-20.664
X-84.888 Y-21.259
X-85.323 Y-21.864
X-85.744 Y-22.479
X-86.151 Y-23.103
X-86.543 Y-23.736
X-86.921 Y-24.378
X-87.285 Y-25.029
X-87.633 Y-25.687
X-87.966 Y-26.354
X-88.283 Y-27.028
X-88.584 Y-27.71
X-88.87 Y-28.398
X-89.139 Y-29.092
X-89.393 Y-29.793
X-89.631 Y-30.499
X-89.852 Y-31.21
X-90.058 Y-31.927
X-90.247 Y-32.647
X-90.419 Y-33.372
X-90.575 Y-34.101
X-90.715 Y-34.833
X-90.837 Y-35.568
X-90.942 Y-36.305
X-91.031 Y-37.045
X-91.102 Y-37.787
X-91.156 Y-38.53
X-91.194 Y-39.274
X-91.214 Y-40.019
X-91.218 Y-40.764
X-91.204 Y-41.509
X-91.174 Y-42.253
X-91.127 Y-42.997
X-91.063 Y-43.739
X-90.982 Y-44.48
X-90.883 Y-45.218
X-90.768 Y-45.954
X-90.635 Y-46.687
X-90.486 Y-47.417
X-90.32 Y-48.144
X-90.137 Y-48.866
X-89.938 Y-49.584
X-89.723 Y-50.297
X-89.492 Y-51.005
X-89.244 Y-51.708
X-88.981 Y-52.405
X-88.702 Y-53.096
X-88.407 Y-53.78
X-88.097 Y-54.458
X-87.771 Y-55.128
X-87.429 Y-55.79
X-87.073 Y-56.444
X-86.702 Y-57.09
X-86.316 Y-57.728
X-85.916 Y-58.356
X-85.501 Y-58.975
X-85.073 Y-59.585
X-84.631 Y-60.184
X-84.175 Y-60.774
X-83.707 Y-61.353
X-83.225 Y-61.921
X-82.73 Y-62.478
X-82.222 Y-63.024
X-81.702 Y-63.557
X-81.169 Y-64.078
X-80.625 Y-64.587
X-80.069 Y-65.083
X-79.503 Y-65.567
X-78.925 Y-66.038
X-78.337 Y-66.495
X-77.739 Y-66.939
X-77.13 Y-67.369
X-76.512 Y-67.786
X-75.885 Y-68.188
X-75.249 Y-68.575
X-74.604 Y-68.948
X-73.95 Y-69.306
X-73.289 Y-69.649
X-72.62 Y-69.976
X-71.943 Y-70.289
X-71.26 Y-70.585
X-70.57 Y-70.867
X-69.874 Y-71.132
X-69.172 Y-71.382
X-68.464 Y-71.616
X-67.752 Y-71.833
X-67.034 Y-72.035
X-66.312 Y-72.219
X-65.587 Y-72.387
X-64.857 Y-72.538
X-64.124 Y-72.673
X-63.388 Y-72.79
X-62.65 Y-72.891
X-61.91 Y-72.974
X-61.168 Y-73.042
X-60.424 Y-73.092
X-59.68 Y-73.125
X-58.935 Y-73.142
X-58.19 Y-73.141
X-57.445 Y-73.124
X-56.701 Y-73.09
X-55.958 Y-73.038
X-55.216 Y-72.969
X-54.476 Y-72.884
X-53.738 Y-72.781
X-53.002 Y-72.662
X-52.27 Y-72.526
X-51.54 Y-72.374
X-50.815 Y-72.205
X-50.093 Y-72.02
X-49.376 Y-71.819
X-48.663 Y-71.602
X-47.955 Y-71.368
X-47.253 Y-71.119
X-46.557 Y-70.853
X-45.868 Y-70.571
X-45.184 Y-70.274
X-44.508 Y-69.961
X-43.839 Y-69.632
X-43.178 Y-69.289
X-42.525 Y-68.931
X-41.879 Y-68.559
X-41.243 Y-68.172
X-40.615 Y-67.771
X-39.996 Y-67.356
X-39.387 Y-66.927
X-38.788 Y-66.484
X-38.198 Y-66.028
X-37.62 Y-65.558
X-37.052 Y-65.076
X-36.495 Y-64.581
X-35.95 Y-64.073
X-35.416 Y-63.554
X-34.894 Y-63.022
X-34.384 Y-62.479
X-33.886 Y-61.925
X-33.401 Y-61.359
X-32.928 Y-60.784
X-32.468 Y-60.197
X-32.022 Y-59.601
X-31.589 Y-58.994
X-31.17 Y-58.378
X-30.766 Y-57.752
X-30.375 Y-57.118
X-29.999 Y-56.474
X-29.638 Y-55.823
X-29.291 Y-55.164
X-28.959 Y-54.497
X-28.641 Y-53.823
X-28.339 Y-53.141
X-28.052 Y-52.454
X-27.781 Y-51.76
X-27.525 Y-51.06
X-27.285 Y-50.355
X-27.061 Y-49.644
X-26.853 Y-48.929
X-26.661 Y-48.209
X-26.486 Y-47.485
X-26.327 Y-46.757
X-26.184 Y-46.026
X-26.057 Y-45.292
X-25.947 Y-44.555
X-25.853 Y-43.816
X-25.776 Y-43.075
X-25.715 Y-42.332
X-25.67 Y-41.588
X-25.643 Y-40.844
X-25.633 Y-40.099
X-25.639 Y-39.354
X-25.663 Y-38.609
X-25.703 Y-37.865
X-25.76 Y-37.122
X-25.834 Y-36.381
X-25.924 Y-35.641
X-26.03 Y-34.904
X-26.153 Y-34.169
X-26.293 Y-33.437
X-26.449 Y-32.708
X-26.621 Y-31.983
X-26.809 Y-31.263
X-27.013 Y-30.546
X-27.234 Y-29.835
X-27.471 Y-29.128
X-27.724 Y-28.427
X-27.992 Y-27.732
X-28.277 Y-27.043
X-28.576 Y-26.361
X-28.891 Y-25.686
X-29.22 Y-25.018
X-29.565 Y-24.357
X-29.924 Y-23.704
X-30.297 Y-23.059
X-30.685 Y-22.423
X-31.087 Y-21.796
X-31.504 Y-21.179
X-31.935 Y-20.57
X-32.379 Y-19.972
X-32.836 Y-19.384
X-33.307 Y-18.807
X-33.79 Y-18.24
X-34.286 Y-17.684
X-34.795 Y-17.139
X-35.315 Y-16.606
X-35.847 Y-16.084
X-36.391 Y-15.575
X-36.945 Y-15.077
X-37.511 Y-14.593
X-38.088 Y-14.121
X-38.675 Y-13.663
X-39.273 Y-13.217
X-39.88 Y-12.786
X-40.497 Y-12.368
X-41.123 Y-11.964
X-41.758 Y-11.574
X-42.402 Y-11.199
X-43.053 Y-10.837
X-43.713 Y-10.491
X-44.38 Y-10.159
X-45.054 Y-9.842
X-45.735 Y-9.54
X-46.423 Y-9.254
X-47.117 Y-8.983
X-47.817 Y-8.729
X-48.523 Y-8.49
X-49.234 Y-8.267
X-49.95 Y-8.059
X-50.67 Y-7.868
X-51.394 Y-7.693
X-52.122 Y-7.534
X-52.853 Y-7.391
X-53.587 Y-7.264
X-54.324 Y-7.154
X-55.063 Y-7.06
X-55.804 Y-6.983
X-56.547 Y-6.922
X-57.291 Y-6.879
X-58.035 Y-6.852
X-58.78 Y-6.841
X-59.525 Y-6.847
X-60.27 Y-6.87
X-61.014 Y-6.909
X-61.757 Y-6.965
X-62.499 Y-7.037
X-63.238 Y-7.126
X-63.976 Y-7.231
X-64.711 Y-7.352
X-65.443 Y-7.489
X-66.172 Y-7.644
X-66.898 Y-7.814
X-67.619 Y-8.001
X-68.336 Y-8.204
X-69.048 Y-8.423
X-69.755 Y-8.658
X-70.457 Y-8.908
X-71.153 Y-9.174
X-71.843 Y-9.455
X-72.527 Y-9.751
X-73.204 Y-10.062
X-73.874 Y-10.388
X-74.536 Y-10.728
X-75.191 Y-11.084
X-75.838 Y-11.454
X-76.476 Y-11.838
X-77.105 Y-12.237
X-77.726 Y-12.65
X-78.337 Y-13.076
X-78.939 Y-13.515
X-79.531 Y-13.968
X-80.112 Y-14.433
X-80.684 Y-14.911
X-81.245 Y-15.402
X-81.794 Y-15.905
X-82.333 Y-16.419
X-82.86 Y-16.946
X-83.375 Y-17.485
X-83.878 Y-18.034
X-84.368 Y-18.595
X-84.846 Y-19.167
X-85.311 Y-19.749
X-85.763 Y-20.341
X-86.202 Y-20.943
X-86.628 Y-21.555
X-87.04 Y-22.175
X-87.439 Y-22.805
X-87.823 Y-23.443
X-88.194 Y-24.089
X-88.55 Y-24.744
X-88.891 Y-25.406
X-89.217 Y-26.076
X-89.529 Y-26.753
X-89.825 Y-27.436
X-90.106 Y-28.126
X-90.372 Y-28.822
X-90.623 Y-29.524
X-90.858 Y-30.231
X-91.077 Y-30.943
X-91.281 Y-31.66
X-91.469 Y-32.381
X-91.642 Y-33.106
X-91.798 Y-33.834
X-91.938 Y-34.566
X-92.062 Y-35.301
X-92.169 Y-36.038
X-92.26 Y-36.777
X-92.334 Y-37.519
X-92.392 Y-38.261
X-92.434 Y-39.005
X-92.459 Y-39.75
X-92.468 Y-40.495
X-92.461 Y-41.24
X-92.438 Y-41.985
X-92.398 Y-42.729
X-92.342 Y-43.472
X-92.27 Y-44.213
X-92.181 Y-44.953
X-92.076 Y-45.691
X-91.954 Y-46.426
X-91.816 Y-47.158
X-91.662 Y-47.887
X-91.492 Y-48.612
X-91.306 Y-49.334
X-91.104 Y-50.051
X-90.887 Y-50.764
X-90.654 Y-51.471
X-90.406 Y-52.174
X-90.142 Y-52.871
X-89.864 Y-53.562
X-89.569 Y-54.246
X-89.26 Y-54.924
X-88.936 Y-55.595
X-88.597 Y-56.258
X-88.243 Y-56.914
X-87.875 Y-57.562
X-87.493 Y-58.201
X-87.097 Y-58.832
X-86.687 Y-59.455
X-86.264 Y-60.068
X-85.827 Y-60.672
X-85.377 Y-61.266
X-84.915 Y-61.85
X-84.44 Y-62.424
X-83.952 Y-62.987
X-83.452 Y-63.539
X-82.939 Y-64.08
X-82.415 Y-64.609
X-81.879 Y-65.127
X-81.332 Y-65.633
X-80.774 Y-66.127
X-80.206 Y-66.608
X-79.627 Y-67.077
X-79.038 Y-67.533
X-78.439 Y-67.976
X-77.83 Y-68.406
X-77.212 Y-68.823
X-76.586 Y-69.226
X-75.95 Y-69.614
X-75.306 Y-69.988
X-74.653 Y-70.348
X-73.993 Y-70.694
X-73.326 Y-71.025
X-72.651 Y-71.341
X-71.969 Y-71.642
X-71.282 Y-71.928
X-70.588 Y-72.2
X-69.888 Y-72.456
X-69.183 Y-72.697
X-68.473 Y-72.922
X-67.758 Y-73.132
X-67.038 Y-73.325
X-66.315 Y-73.503
X-65.588 Y-73.665
X-64.857 Y-73.81
X-64.123 Y-73.94
X-63.387 Y-74.053
X-62.648 Y-74.15
X-61.907 Y-74.231
X-61.165 Y-74.296
X-60.422 Y-74.344
X-59.677 Y-74.377
X-58.932 Y-74.393
X-58.187
X-57.442 Y-74.376
X-56.698 Y-74.343
X-55.955 Y-74.293
X-55.213 Y-74.226
X-54.472 Y-74.144
X-53.734 Y-74.045
X-52.998 Y-73.93
X-52.264 Y-73.799
X-51.534 Y-73.652
X-50.807 Y-73.489
X-50.083 Y-73.31
X-49.364 Y-73.116
X-48.649 Y-72.906
X-47.939 Y-72.681
X-47.234 Y-72.44
X-46.534 Y-72.184
X-45.841 Y-71.912
X-45.153 Y-71.625
X-44.472 Y-71.323
X-43.798 Y-71.006
X-43.13 Y-70.674
X-42.47 Y-70.329
X-41.818 Y-69.969
X-41.174 Y-69.594
X-40.538 Y-69.206
X-39.91 Y-68.805
X-39.291 Y-68.39
X-38.682 Y-67.961
X-38.082 Y-67.519
X-37.492 Y-67.064
X-36.912 Y-66.597
X-36.343 Y-66.116
X-35.784 Y-65.624
X-35.236 Y-65.119
X-34.699 Y-64.602
X-34.173 Y-64.075
X-33.658 Y-63.536
X-33.156 Y-62.986
X-32.665 Y-62.425
X-32.187 Y-61.854
X-31.72 Y-61.273
X-31.267 Y-60.681
X-30.827 Y-60.08
X-30.399 Y-59.47
X-29.986 Y-58.85
X-29.585 Y-58.222
X-29.199 Y-57.585
X-28.826 Y-56.94
X-28.467 Y-56.287
X-28.123 Y-55.626
X-27.793 Y-54.958
X-27.477 Y-54.284
X-27.175 Y-53.602
X-26.889 Y-52.914
X-26.617 Y-52.221
X-26.36 Y-51.521
X-26.119 Y-50.816
X-25.893 Y-50.106
X-25.683 Y-49.391
X-25.489 Y-48.672
X-25.31 Y-47.949
X-25.146 Y-47.222
X-24.999 Y-46.492
X-24.867 Y-45.758
X-24.751 Y-45.022
X-24.65 Y-44.284
X-24.566 Y-43.544
X-24.497 Y-42.802
X-24.444 Y-42.059
X-24.408 Y-41.315
X-24.388 Y-40.57
X-24.384 Y-39.825
X-24.396 Y-39.08
X-24.424 Y-38.335
X-24.469 Y-37.592
X-24.529 Y-36.849
X-24.606 Y-36.108
X-24.698 Y-35.369
X-24.807 Y-34.632
X-24.931 Y-33.897
X-25.071 Y-33.165
X-25.227 Y-32.437
X-25.398 Y-31.711
X-25.586 Y-30.99
X-25.789 Y-30.274
X-26.008 Y-29.561
X-26.242 Y-28.854
X-26.492 Y-28.152
X-26.757 Y-27.456
X-27.037 Y-26.765
X-27.331 Y-26.081
X-27.641 Y-25.403
X-27.965 Y-24.732
X-28.303 Y-24.068
X-28.655 Y-23.412
X-29.022 Y-22.763
X-29.402 Y-22.122
X-29.797 Y-21.49
X-30.205 Y-20.867
X-30.626 Y-20.253
X-31.061 Y-19.648
X-31.509 Y-19.052
X-31.97 Y-18.467
X-32.443 Y-17.891
X-32.928 Y-17.326
X-33.426 Y-16.771
X-33.935 Y-16.228
X-34.456 Y-15.695
X-34.988 Y-15.174
X-35.532 Y-14.664
X-36.086 Y-14.166
X-36.651 Y-13.681
X-37.227 Y-13.208
X-37.813 Y-12.747
X-38.409 Y-12.3
X-39.014 Y-11.865
X-39.628 Y-11.444
X-40.252 Y-11.036
X-40.884 Y-10.642
X-41.524 Y-10.261
X-42.173 Y-9.894
X-42.829 Y-9.541
X-43.492 Y-9.202
X-44.163 Y-8.877
X-44.84 Y-8.567
X-45.525 Y-8.272
X-46.215 Y-7.992
X-46.911 Y-7.726
X-47.613 Y-7.476
X-48.32 Y-7.242
X-49.032 Y-7.022
X-49.749 Y-6.818
X-50.469 Y-6.629
X-51.194 Y-6.456
X-51.922 Y-6.298
X-52.653 Y-6.155
X-53.388 Y-6.029
X-54.124 Y-5.918
X-54.863 Y-5.823
X-55.604 Y-5.745
X-56.347 Y-5.682
X-57.09 Y-5.636
X-57.835 Y-5.606
X-58.58 Y-5.591
X-59.325 Y-5.593
X-60.07 Y-5.611
X-60.814 Y-5.645
X-61.557 Y-5.694
X-62.3 Y-5.76
X-63.04 Y-5.841
X-63.779 Y-5.938
X-64.515 Y-6.051
X-65.249 Y-6.179
X-65.98 Y-6.324
X-66.708 Y-6.484
X-67.432 Y-6.66
X-68.152 Y-6.851
X-68.868 Y-7.058
X-69.579 Y-7.28
X-70.285 Y-7.518
X-70.986 Y-7.77
X-71.682 Y-8.037
X-72.371 Y-8.319
X-73.055 Y-8.616
X-73.732 Y-8.927
X-74.402 Y-9.252
X-75.065 Y-9.592
X-75.721 Y-9.946
X-76.368 Y-10.315
X-77.008 Y-10.697
X-77.639 Y-11.093
X-78.262 Y-11.502
X-78.875 Y-11.924
X-79.48 Y-12.359
X-80.075 Y-12.808
X-80.661 Y-13.268
X-81.237 Y-13.741
X-81.802 Y-14.226
X-82.358 Y-14.723
X-82.902 Y-15.231
X-83.436 Y-15.751
X-83.958 Y-16.283
X-84.468 Y-16.825
X-84.967 Y-17.379
X-85.454 Y-17.943
X-85.929 Y-18.517
X-86.392 Y-19.101
X-86.841 Y-19.695
X-87.279 Y-20.298
X-87.703 Y-20.911
X-88.114 Y-21.532
X-88.513 Y-22.162
X-88.897 Y-22.8
X-89.268 Y-23.446
X-89.625 Y-24.1
X-89.968 Y-24.761
X-90.296 Y-25.43
X-90.61 Y-26.106
X-90.909 Y-26.788
X-91.194 Y-27.477
X-91.464 Y-28.171
X-91.72 Y-28.871
X-91.96 Y-29.576
X-92.185 Y-30.286
X-92.396 Y-31.001
X-92.591 Y-31.72
X-92.771 Y-32.443
X-92.936 Y-33.17
X-93.085 Y-33.9
X-93.219 Y-34.633
X-93.336 Y-35.368
X-93.438 Y-36.106
X-93.525 Y-36.846
X-93.595 Y-37.588
X-93.65 Y-38.331
X-93.689 Y-39.075
X-93.712 Y-39.82
X-93.72 Y-40.565
X-93.712 Y-41.31
X-93.688 Y-42.055
X-93.648 Y-42.799
X-93.593 Y-43.542
X-93.521 Y-44.283
X-93.434 Y-45.023
X-93.331 Y-45.761
X-93.212 Y-46.497
X-93.077 Y-47.229
X-92.927 Y-47.959
X-92.761 Y-48.686
X-92.58 Y-49.408
X-92.384 Y-50.127
X-92.173 Y-50.842
X-91.946 Y-51.551
X-91.705 Y-52.256
X-91.449 Y-52.956
X-91.178 Y-53.65
X-90.893 Y-54.338
X-90.592 Y-55.02
X-90.278 Y-55.696
X-89.949 Y-56.364
X-89.605 Y-57.025
X-89.248 Y-57.679
X-88.877 Y-58.325
X-88.492 Y-58.963
X-88.095 Y-59.593
X-87.683 Y-60.215
X-87.259 Y-60.827
X-86.822 Y-61.431
X-86.373 Y-62.025
X-85.911 Y-62.609
X-85.436 Y-63.184
X-84.95 Y-63.748
X-84.451 Y-64.302
X-83.941 Y-64.844
X-83.419 Y-65.376
X-82.886 Y-65.897
X-82.342 Y-66.406
X-81.787 Y-66.903
X-81.222 Y-67.389
X-80.647 Y-67.863
X-80.062 Y-68.324
X-79.467 Y-68.773
X-78.864 Y-69.21
X-78.251 Y-69.633
X-77.629 Y-70.044
X-76.998 Y-70.441
X-76.36 Y-70.824
X-75.713 Y-71.194
X-75.058 Y-71.55
X-74.396 Y-71.891
X-73.727 Y-72.219
X-73.051 Y-72.533
X-72.369 Y-72.832
X-71.68 Y-73.117
X-70.986 Y-73.387
X-70.286 Y-73.643
X-69.581 Y-73.884
X-68.871 Y-74.109
X-68.156 Y-74.32
X-67.437 Y-74.515
X-66.714 Y-74.695
X-65.988 Y-74.859
X-65.257 Y-75.008
X-64.524 Y-75.141
X-63.789 Y-75.259
X-63.051 Y-75.361
X-62.311 Y-75.447
X-61.569 Y-75.518
X-60.826 Y-75.573
X-60.082 Y-75.613
X-59.337 Y-75.637
X-58.592 Y-75.645
X-57.847 Y-75.637
X-57.102 Y-75.614
X-56.358 Y-75.575
X-55.615 Y-75.519
X-54.874 Y-75.448
X-54.134 Y-75.362
X-53.396 Y-75.259
X-52.66 Y-75.141
X-51.927 Y-75.008
X-51.197 Y-74.859
X-50.47 Y-74.695
X-49.747 Y-74.516
X-49.028 Y-74.322
X-48.313 Y-74.113
X-47.602 Y-73.888
X-46.897 Y-73.649
X-46.197 Y-73.394
X-45.502 Y-73.124
X-44.813 Y-72.84
X-44.131 Y-72.542
X-43.454 Y-72.229
X-42.785 Y-71.902
X-42.123 Y-71.561
X-41.467 Y-71.206
X-40.82 Y-70.837
X-40.18 Y-70.456
X-39.548 Y-70.06
X-38.925 Y-69.652
X-38.31 Y-69.231
X-37.705 Y-68.797
X-37.109 Y-68.35
X-36.522 Y-67.891
X-35.945 Y-67.419
X-35.378 Y-66.936
X-34.822 Y-66.44
X-34.276 Y-65.933
X-33.741 Y-65.415
X-33.216 Y-64.886
X-32.703 Y-64.346
X-32.201 Y-63.795
X-31.71 Y-63.235
X-31.231 Y-62.664
X-30.765 Y-62.083
X-30.31 Y-61.493
X-29.868 Y-60.893
X-29.439 Y-60.283
X-29.023 Y-59.665
X-28.62 Y-59.039
X-28.23 Y-58.404
X-27.854 Y-57.761
X-27.491 Y-57.11
X-27.141 Y-56.453
X-26.805 Y-55.787
X-26.483 Y-55.116
X-26.175 Y-54.437
X-25.881 Y-53.753
X-25.601 Y-53.062
X-25.336 Y-52.366
X-25.086 Y-51.664
X-24.85 Y-50.957
X-24.629 Y-50.246
X-24.423 Y-49.53
X-24.233 Y-48.809
X-24.057 Y-48.085
X-23.896 Y-47.358
X-23.751 Y-46.627
X-23.62 Y-45.893
X-23.505 Y-45.157
X-23.405 Y-44.419
X-23.321 Y-43.679
X-23.251 Y-42.937
X-23.198 Y-42.194
X-23.16 Y-41.45
X-23.138 Y-40.705
X-23.131 Y-39.96
X-23.141 Y-39.215
X-23.165 Y-38.47
X-23.206 Y-37.726
X-23.261 Y-36.983
X-23.333 Y-36.242
X-23.419 Y-35.502
X-23.521 Y-34.764
X-23.639 Y-34.028
X-23.771 Y-33.295
X-23.919 Y-32.564
X-24.082 Y-31.837
X-24.26 Y-31.114
X-24.453 Y-30.394
X-24.662 Y-29.679
X-24.885 Y-28.968
X-25.124 Y-28.262
X-25.377 Y-27.562
X-25.645 Y-26.866
X-25.927 Y-26.177
X-26.223 Y-25.493
X-26.534 Y-24.816
X-26.858 Y-24.145
X-27.197 Y-23.482
X-27.549 Y-22.825
X-27.915 Y-22.176
X-28.294 Y-21.535
X-28.687 Y-20.902
X-29.093 Y-20.277
X-29.513 Y-19.661
X-29.945 Y-19.054
X-30.389 Y-18.456
X-30.846 Y-17.868
X-31.316 Y-17.289
X-31.797 Y-16.721
X-32.29 Y-16.162
X-32.794 Y-15.613
X-33.31 Y-15.076
X-33.836 Y-14.549
X-34.374 Y-14.033
X-34.922 Y-13.528
X-35.481 Y-13.035
X-36.05 Y-12.554
X-36.629 Y-12.085
X-37.217 Y-11.628
X-37.815 Y-11.184
X-38.423 Y-10.752
X-39.039 Y-10.333
X-39.663 Y-9.927
X-40.296 Y-9.534
X-40.937 Y-9.154
X-41.586 Y-8.788
X-42.242 Y-8.434
X-42.905 Y-8.095
X-43.575 Y-7.77
X-44.252 Y-7.458
X-44.936 Y-7.161
X-45.625 Y-6.879
X-46.32 Y-6.611
X-47.021 Y-6.357
X-47.727 Y-6.118
X-48.437 Y-5.894
X-49.152 Y-5.685
X-49.871 Y-5.49
X-50.595 Y-5.311
X-51.321 Y-5.146
X-51.494 Y-5.111
X-51.543 Y-5.102
X-51.593 Y-5.097
X-51.642 Y-5.095
X-64.938
X-65.682 Y-5.133
X-66.423 Y-5.213
X-67.157 Y-5.343
X-67.884 Y-5.504
X-68.606 Y-5.689
X-69.322 Y-5.894
X-70.034 Y-6.115
X-70.74 Y-6.352
X-71.441 Y-6.604
X-72.137 Y-6.871
X-72.827 Y-7.152
X-73.511 Y-7.448
X-74.188 Y-7.758
X-74.859 Y-8.081
X-75.524 Y-8.419
X-76.181 Y-8.771
X-76.83 Y-9.136
X-77.472 Y-9.514
X-78.105 Y-9.906
X-78.731 Y-10.311
X-79.348 Y-10.728
X-79.956 Y-11.159
X-80.556 Y-11.601
X-81.146 Y-12.056
X-81.727 Y-12.522
X-82.298 Y-13.001
X-82.859 Y-13.491
X-83.411 Y-13.992
X-83.951 Y-14.505
X-84.481 Y-15.028
X-85 Y-15.563
X-85.508 Y-16.108
X-86.005 Y-16.664
X-86.489 Y-17.229
X-86.963 Y-17.805
X-87.424 Y-18.39
X-87.873 Y-18.984
X-88.31 Y-19.588
X-88.735 Y-20.2
X-89.147 Y-20.821
X-89.545 Y-21.45
X-89.931 Y-22.088
X-90.304 Y-22.733
X-90.663 Y-23.386
X-91.008 Y-24.046
X-91.34 Y-24.713
X-91.658 Y-25.387
X-91.961 Y-26.067
X-92.251 Y-26.754
X-92.527 Y-27.446
X-92.788 Y-28.144
X-93.035 Y-28.847
X-93.268 Y-29.554
X-93.486 Y-30.267
X-93.689 Y-30.984
X-93.878 Y-31.704
X-94.053 Y-32.429
X-94.212 Y-33.156
X-94.356 Y-33.887
X-94.485 Y-34.621
X-94.599 Y-35.358
X-94.698 Y-36.096
X-94.782 Y-36.836
X-94.85 Y-37.578
X-94.904 Y-38.321
X-94.942 Y-39.066
X-94.965 Y-39.81
X-94.972 Y-40.555
X-94.965 Y-41.3
X-94.942 Y-42.045
X-94.904 Y-42.789
X-94.85 Y-43.532
X-94.781 Y-44.274
X-94.697 Y-45.014
X-94.597 Y-45.753
X-94.482 Y-46.489
X-94.353 Y-47.223
X-94.208 Y-47.953
X-94.048 Y-48.681
X-93.873 Y-49.405
X-93.683 Y-50.126
X-93.479 Y-50.842
X-93.26 Y-51.555
X-93.027 Y-52.262
X-92.78 Y-52.965
X-92.518 Y-53.663
X-92.242 Y-54.355
X-91.952 Y-55.041
X-91.648 Y-55.721
X-91.329 Y-56.395
X-90.997 Y-57.062
X-90.652 Y-57.722
X-90.293 Y-58.375
X-89.921 Y-59.02
X-89.535 Y-59.658
X-89.137 Y-60.287
X-88.726 Y-60.909
X-88.302 Y-61.522
X-87.866 Y-62.126
X-87.418 Y-62.721
X-86.957 Y-63.307
X-86.485 Y-63.883
X-86 Y-64.449
X-85.504 Y-65.005
X-84.997 Y-65.55
X-84.478 Y-66.085
X-83.949 Y-66.61
X-83.409 Y-67.123
X-82.859 Y-67.625
X-82.298 Y-68.116
X-81.728 Y-68.596
X-81.148 Y-69.063
X-80.559 Y-69.519
X-79.96 Y-69.963
X-79.353 Y-70.394
X-78.737 Y-70.813
X-78.112 Y-71.219
X-77.479 Y-71.613
X-76.838 Y-71.993
X-76.19 Y-72.36
X-75.534 Y-72.713
X-74.871 Y-73.053
X-74.201 Y-73.38
X-73.525 Y-73.692
X-72.843 Y-73.991
X-72.154 Y-74.276
X-71.46 Y-74.547
X-70.761 Y-74.804
X-70.056 Y-75.046
X-69.346 Y-75.273
X-68.632 Y-75.486
X-67.914 Y-75.684
X-67.192 Y-75.867
X-67.114 Y-75.885
X-67.059 Y-75.896
X-67.003 Y-75.902
X-66.947 Y-75.905
X-51.561
X-50.817 Y-75.867
X-50.076 Y-75.791
X-49.343 Y-75.654
X-48.619 Y-75.481
X-47.901 Y-75.282
X-47.189 Y-75.063
X-46.482 Y-74.827
X-45.781 Y-74.574
X-45.086 Y-74.306
X-44.396 Y-74.024
X-43.713 Y-73.727
X-43.036 Y-73.416
X-42.365 Y-73.091
X-41.701 Y-72.753
X-41.044 Y-72.402
X-40.395 Y-72.037
X-39.752 Y-71.66
X-39.118 Y-71.269
X-38.491 Y-70.866
X-37.873 Y-70.45
X-37.263 Y-70.022
X-36.662 Y-69.581
X-36.071 Y-69.129
X-35.488 Y-68.664
X-34.916 Y-68.188
X-34.352 Y-67.7
X-33.799 Y-67.2
X-33.256 Y-66.69
X-32.724 Y-66.169
X-32.202 Y-65.637
X-31.691 Y-65.095
X-31.19 Y-64.543
X-30.701 Y-63.981
X-30.224 Y-63.41
X-29.758 Y-62.828
X-29.303 Y-62.238
X-28.861 Y-61.638
X-28.432 Y-61.029
X-28.015 Y-60.412
X-27.61 Y-59.786
X-27.219 Y-59.152
X-26.84 Y-58.51
X-26.474 Y-57.861
X-26.121 Y-57.205
X-25.782 Y-56.542
X-25.456 Y-55.872
X-25.143 Y-55.196
X-24.844 Y-54.513
X-24.558 Y-53.825
X-24.287 Y-53.131
X-24.029 Y-52.432
X-23.786 Y-51.728
X-23.557 Y-51.019
X-23.343 Y-50.305
X-23.143 Y-49.588
X-22.957 Y-48.866
X-22.786 Y-48.141
X-22.63 Y-47.412
X-22.488 Y-46.681
X-22.361 Y-45.947
X-22.248 Y-45.21
X-22.15 Y-44.472
X-22.067 Y-43.731
X-21.999 Y-42.989
X-21.946 Y-42.246
X-21.909 Y-41.502
X-21.886 Y-40.757
X-21.879 Y-40.012
X-21.886 Y-39.267
X-21.909 Y-38.523
X-21.947 Y-37.779
X-22 Y-37.035
X-22.068 Y-36.293
X-22.151 Y-35.553
X-22.249 Y-34.814
X-22.361 Y-34.078
X-22.488 Y-33.344
X-22.63 Y-32.612
X-22.787 Y-31.884
X-22.958 Y-31.159
X-23.144 Y-30.437
X-23.345 Y-29.72
X-23.56 Y-29.006
X-23.789 Y-28.298
X-24.033 Y-27.594
X-24.291 Y-26.895
X-24.563 Y-26.201
X-24.849 Y-25.513
X-25.149 Y-24.831
X-25.462 Y-24.155
X-25.789 Y-23.485
X-26.129 Y-22.822
X-26.482 Y-22.166
X-26.849 Y-21.518
X-27.229 Y-20.877
X-27.621 Y-20.243
X-28.027 Y-19.618
X-28.445 Y-19.002
X-28.876 Y-18.394
X-29.319 Y-17.795
X-29.774 Y-17.205
X-30.241 Y-16.624
X-30.719 Y-16.053
X-31.209 Y-15.492
X-31.71 Y-14.94
X-32.222 Y-14.399
X-32.745 Y-13.868
X-33.278 Y-13.347
X-33.821 Y-12.838
X-34.375 Y-12.339
X-34.939 Y-11.852
X-35.513 Y-11.377
X-36.096 Y-10.913
X-36.688 Y-10.461
X-37.289 Y-10.021
X-37.899 Y-9.593
X-38.518 Y-9.178
X-39.144 Y-8.775
X-39.779 Y-8.384
X-40.421 Y-8.007
X-41.071 Y-7.642
X-41.728 Y-7.29
X-42.392 Y-6.952
X-43.062 Y-6.627
X-43.739 Y-6.316
X-44.422 Y-6.018
X-45.111 Y-5.735
X-45.806 Y-5.466
X-46.506 Y-5.211
X-46.726 Y-5.135
X-46.804 Y-5.113
X-46.885 Y-5.1
X-46.966 Y-5.095
X-51.642
G3 X-51.763 Y-5.124 I0.011 J-0.317
G1 X-51.827 Y-5.153 Z-4.554
X-51.888 Y-5.181 Z-4.531
X-51.943 Y-5.206 Z-4.493
X-51.989 Y-5.227 Z-4.442
X-52.023 Y-5.243 Z-4.382
X-52.045 Y-5.252 Z-4.315
X-52.052 Y-5.256 Z-4.245
G0 Z5.08
X-51.277 Y-75.681
Z-3.927
G1 Z-4.245 F5080
X-51.285 Y-75.684 Z-4.315
X-51.307 Y-75.691 Z-4.382
X-51.343 Y-75.703 Z-4.442
X-51.391 Y-75.719 Z-4.493
X-51.448 Y-75.738 Z-4.531
X-51.512 Y-75.759 Z-4.554
X-51.579 Y-75.781 Z-4.562
G3 X-51.561 Y-75.905 I0.02 J-0.06
G1 X-47.158
X-46.626 Y-75.878
X-46.13 Y-75.813
X-45.462 Y-75.67
X-44.748 Y-75.456
X-44.047 Y-75.202
X-43.357 Y-74.922
X-42.675 Y-74.621
X-42.001 Y-74.304
X-41.335 Y-73.971
X-40.675 Y-73.625
X-40.022 Y-73.266
X-39.377 Y-72.893
X-38.739 Y-72.508
X-38.109 Y-72.111
X-37.486 Y-71.701
X-36.872 Y-71.279
X-36.266 Y-70.846
X-35.669 Y-70.4
X-35.081 Y-69.943
X-34.502 Y-69.474
X-33.932 Y-68.994
X-33.372 Y-68.503
X-32.821 Y-68.001
X-32.28 Y-67.489
X-31.749 Y-66.966
X-31.229 Y-66.433
X-30.719 Y-65.89
X-30.219 Y-65.337
X-29.731 Y-64.774
X-29.253 Y-64.202
X-28.787 Y-63.621
X-28.332 Y-63.031
X-27.889 Y-62.432
X-27.458 Y-61.824
X-27.039 Y-61.208
X-26.633 Y-60.584
X-26.239 Y-59.951
X-25.966 Y-59.495
X-25.924 Y-59.413
X-25.892 Y-59.328
X-25.872 Y-59.239
X-25.821 Y-58.938
X-25.791 Y-58.769
X-25.69 Y-58.261
X-25.649 Y-58.092
X-25.597 Y-57.923
X-25.532 Y-57.754
X-25.509 Y-57.704
X-25.484 Y-57.655
X-25.227 Y-57.246
X-24.888 Y-56.739
X-24.807 Y-56.629
X-24.76 Y-56.57
X-24.483 Y-56.214
X-24.131 Y-55.678
X-23.773 Y-55.025
X-23.456 Y-54.35
X-23.168 Y-53.663
X-22.9 Y-52.968
X-22.65 Y-52.266
X-22.416 Y-51.559
X-22.197 Y-50.847
X-21.993 Y-50.13
X-21.803 Y-49.41
X-21.626 Y-48.686
X-21.464 Y-47.959
X-21.317 Y-47.228
X-21.183 Y-46.495
X-21.064 Y-45.76
X-20.958 Y-45.022
X-20.868 Y-44.283
X-20.791 Y-43.542
X-20.729 Y-42.799
X-20.682 Y-42.056
X-20.649 Y-41.311
X-20.631 Y-40.566
X-20.627 Y-39.821
X-20.638 Y-39.076
X-20.664 Y-38.332
X-20.705 Y-37.588
X-20.759 Y-36.845
X-20.829 Y-36.103
X-20.912 Y-35.363
X-21.01 Y-34.624
X-21.122 Y-33.887
X-21.249 Y-33.153
X-21.39 Y-32.422
X-21.545 Y-31.693
X-21.715 Y-30.967
X-21.899 Y-30.245
X-22.097 Y-29.527
X-22.309 Y-28.813
X-22.534 Y-28.103
X-22.774 Y-27.397
X-23.028 Y-26.697
X-23.295 Y-26.001
X-23.47 Y-25.571
X-23.538 Y-25.441
X-23.631 Y-25.327
X-23.744 Y-25.234
X-24.129 Y-24.975
X-24.299 Y-24.86
X-24.427 Y-24.769
X-24.637 Y-24.572
X-24.76 Y-24.43
X-24.807 Y-24.371
X-24.888 Y-24.261
X-25.227 Y-23.754
X-25.484 Y-23.345
X-25.509 Y-23.296
X-25.532 Y-23.246
X-25.597 Y-23.077
X-25.649 Y-22.908
X-25.69 Y-22.739
X-25.791 Y-22.231
X-25.849 Y-21.893
X-25.878 Y-21.724
X-25.88 Y-21.696
X-25.899 Y-21.544
X-25.974 Y-21.21
X-26.107 Y-20.782
X-26.336 Y-20.213
X-26.668 Y-19.546
X-27.044 Y-18.903
X-27.448 Y-18.277
X-27.871 Y-17.663
X-28.309 Y-17.061
X-28.762 Y-16.469
X-29.227 Y-15.887
X-29.703 Y-15.314
X-30.191 Y-14.751
X-30.69 Y-14.198
X-31.2 Y-13.655
X-31.72 Y-13.121
X-32.251 Y-12.598
X-32.791 Y-12.085
X-33.342 Y-11.583
X-33.902 Y-11.092
X-34.471 Y-10.611
X-35.05 Y-10.142
X-35.638 Y-9.685
X-36.235 Y-9.239
X-36.84 Y-8.804
X-37.454 Y-8.382
X-38.076 Y-7.971
X-38.705 Y-7.573
X-39.342 Y-7.187
X-39.987 Y-6.813
X-40.639 Y-6.451
X-41.297 Y-6.103
X-41.962 Y-5.767
X-42.634 Y-5.445
X-43.252 Y-5.162
X-43.351 Y-5.125
X-43.454 Y-5.103
X-43.559 Y-5.095
X-46.966
G3 X-47.086 Y-5.124 I0.011 J-0.317
G1 X-47.151 Y-5.153 Z-4.554
X-47.212 Y-5.181 Z-4.531
X-47.267 Y-5.206 Z-4.493
X-47.312 Y-5.227 Z-4.442
X-47.347 Y-5.243 Z-4.382
X-47.368 Y-5.252 Z-4.315
X-47.375 Y-5.256 Z-4.245
G0 Z5.08
X-26.124 Y-21.43
Z-3.927
G1 Z-4.245 F5080
X-26.121 Y-21.437 Z-4.315
X-26.112 Y-21.459 Z-4.382
X-26.097 Y-21.493 Z-4.442
X-26.078 Y-21.54 Z-4.493
X-26.055 Y-21.595 Z-4.531
X-26.029 Y-21.657 Z-4.554
X-26.002 Y-21.723 Z-4.562
G3 X-25.88 Y-21.696 I0.058 J0.024
G1 X-25.891 Y-21.555
X-25.89 Y-21.386
X-25.874 Y-21.216
X-25.845 Y-21.047
X-25.779 Y-20.709
X-25.745 Y-20.54
X-25.709 Y-20.308
X-25.697 Y-20.145
X-25.698 Y-19.947
X-25.72 Y-19.702
X-25.766 Y-19.427
X-25.853 Y-19.084
X-25.995 Y-18.667
X-26.23 Y-18.124
X-26.58 Y-17.466
X-26.976 Y-16.835
X-27.401 Y-16.223
X-27.847 Y-15.626
X-28.309 Y-15.041
X-28.784 Y-14.467
X-29.271 Y-13.903
X-29.769 Y-13.349
X-30.278 Y-12.805
X-30.797 Y-12.271
X-31.327 Y-11.747
X-31.866 Y-11.233
X-32.416 Y-10.73
X-32.974 Y-10.237
X-33.542 Y-9.754
X-34.119 Y-9.283
X-34.704 Y-8.822
X-35.299 Y-8.373
X-35.901 Y-7.934
X-36.512 Y-7.508
X-37.131 Y-7.092
X-37.757 Y-6.689
X-38.391 Y-6.297
X-39.032 Y-5.917
X-39.679 Y-5.549
X-40.334 Y-5.193
X-40.362 Y-5.179
X-40.471 Y-5.133
X-40.586 Y-5.105
X-40.704 Y-5.095
X-43.559
G3 X-43.68 Y-5.124 I0.011 J-0.317
G1 X-43.744 Y-5.153 Z-4.554
X-43.805 Y-5.181 Z-4.531
X-43.86 Y-5.206 Z-4.493
X-43.906 Y-5.227 Z-4.442
X-43.94 Y-5.243 Z-4.382
X-43.962 Y-5.252 Z-4.315
X-43.969 Y-5.256 Z-4.245
G0 Z5.08
X-25.906 Y-20.217
Z-3.927
G1 Z-4.245 F5080
X-25.905 Y-20.225 Z-4.315
X-25.902 Y-20.248 Z-4.382
X-25.898 Y-20.286 Z-4.442
X-25.892 Y-20.335 Z-4.493
X-25.885 Y-20.395 Z-4.531
X-25.877 Y-20.462 Z-4.554
X-25.869 Y-20.532 Z-4.562
G3 X-25.745 Y-20.54 I0.063 J0.007
G1 X-25.653 Y-20.097
X-25.633 Y-20.032
X-25.578 Y-19.863
X-25.484 Y-19.654
X-25.441 Y-19.583
X-25.368 Y-19.449
X-25.313 Y-19.307
X-25.273 Y-19.16
X-25.244 Y-18.992
X-25.227 Y-18.816
X-25.224 Y-18.607
X-25.242 Y-18.348
X-25.284 Y-18.066
X-25.361 Y-17.732
X-25.489 Y-17.328
X-25.695 Y-16.825
X-26.012 Y-16.199
X-26.401 Y-15.563
X-26.825 Y-14.951
X-27.274 Y-14.356
X-27.741 Y-13.775
X-28.222 Y-13.207
X-28.716 Y-12.649
X-29.221 Y-12.101
X-29.737 Y-11.563
X-30.263 Y-11.036
X-30.798 Y-10.518
X-31.344 Y-10.01
X-31.898 Y-9.513
X-32.462 Y-9.025
X-33.034 Y-8.548
X-33.616 Y-8.082
X-34.205 Y-7.627
X-34.803 Y-7.182
X-35.409 Y-6.748
X-36.022 Y-6.325
X-36.643 Y-5.914
X-37.272 Y-5.514
X-37.777 Y-5.204
X-37.899 Y-5.145
X-38.029 Y-5.108
X-38.164 Y-5.095
X-40.704
G3 X-40.824 Y-5.124 I0.011 J-0.317
G1 X-40.889 Y-5.153 Z-4.554
X-40.95 Y-5.181 Z-4.531
X-41.004 Y-5.206 Z-4.493
X-41.05 Y-5.227 Z-4.442
X-41.085 Y-5.243 Z-4.382
X-41.106 Y-5.252 Z-4.315
X-41.113 Y-5.256 Z-4.245
G0 Z5.08
X-25.485 Y-19.225
Z-3.927
G1 Z-4.245 F5080
X-25.486 Y-19.232 Z-4.315
X-25.492 Y-19.255 Z-4.382
X-25.5 Y-19.292 Z-4.442
X-25.511 Y-19.341 Z-4.493
