%
(1)
(wood-post-contour-drill0)
(T3  D=1.587 CR=0 TAPER=118deg - ZMIN=-9 - drill)
(T5  D=3.175 CR=0 - ZMIN=-10.5 - flat end mill)
G90
G17
G21
G28 G91 Z0
G90

(2D Contour5 2)
M9
T5 M6
S16000 M3
G54
M9
G0 X-183.426 Y-15.461
Z10.16
Z-1.65
G1 Z-10.183 F762
X-183.418 Y-15.462 Z-10.253
X-183.395 Y-15.463 Z-10.32
X-183.357 Y-15.464 Z-10.38
X-183.307 Y-15.466 Z-10.431
X-183.246 Y-15.469 Z-10.469
X-183.179 Y-15.472 Z-10.492
X-183.109 Y-15.475 Z-10.5
X-182.792 Y-15.488 F1524
G3 X-182.461 Y-15.184 I0.013 J0.317
G2 X-180.875 Y-13.663 I1.586 J-0.066
G1 X-178.962
Y-4.588
X-206.288
Y-13.663
X-204.375
G2 X-202.788 Y-15.25 I0 J-1.587
G1 Y-37.162
X-182.462
Y-15.25
G2 X-182.461 Y-15.184 I1.587 J0
G3 X-182.765 Y-14.853 I-0.317 J0.013
G1 X-183.082 Y-14.84
X-183.153 Y-14.837 Z-10.492
X-183.22 Y-14.834 Z-10.469
X-183.28 Y-14.832 Z-10.431
X-183.33 Y-14.83 Z-10.38
X-183.368 Y-14.828 Z-10.32
X-183.392 Y-14.827 Z-10.253
X-183.4 Z-10.183
G0 Z10.16
M5
G28 G91 Z0
G90

(Drill4)
M9
T3 M6
S16000 M3
G54
M9
G0 X-211.5 Y-59.5
Z15.24
Z5.08
Z2
G1 Z-0.397 F762
G0 Z5.08
Z1.603
G1 Z-0.794 F762
G0 Z5.08
Z1.206
G1 Z-1.191 F762
G0 Z5.08
Z0.809
G1 Z-1.587 F762
G0 Z5.08
Z0.413
G1 Z-1.984 F762
G0 Z5.08
Z0.016
G1 Z-2.381 F762
G0 Z5.08
Z-0.381
G1 Z-2.778 F762
G0 Z5.08
Z-0.778
G1 Z-3.175 F762
G0 Z5.08
Z-1.175
G1 Z-3.572 F762
G0 Z5.08
Z-1.572
G1 Z-3.969 F762
G0 Z5.08
Z-1.969
G1 Z-4.366 F762
G0 Z5.08
Z-2.366
G1 Z-4.762 F762
G0 Z5.08
Z-2.762
G1 Z-5.159 F762
G0 Z5.08
Z-3.159
G1 Z-5.556 F762
G0 Z5.08
Z-3.556
G1 Z-5.953 F762
G0 Z5.08
Z-3.953
G1 Z-6.35 F762
G0 Z5.08
Z-4.35
G1 Z-6.747 F762
G0 Z5.08
Z-4.747
G1 Z-7.144 F762
G0 Z5.08
Z-5.144
G1 Z-7.541 F762
G0 Z5.08
Z-5.541
G1 Z-7.937 F762
G0 Z5.08
Z-5.937
G1 Z-8.334 F762
G0 Z5.08
Z-6.334
G1 Z-8.731 F762
G0 Z5.08
Z-6.731
G1 Z-9 F762
G0 Z5.08
Y-21.5
Z2
G1 Z-0.397 F762
G0 Z5.08
Z1.603
G1 Z-0.794 F762
G0 Z5.08
Z1.206
G1 Z-1.191 F762
G0 Z5.08
Z0.809
G1 Z-1.587 F762
G0 Z5.08
Z0.413
G1 Z-1.984 F762
G0 Z5.08
Z0.016
G1 Z-2.381 F762
G0 Z5.08
Z-0.381
G1 Z-2.778 F762
G0 Z5.08
Z-0.778
G1 Z-3.175 F762
G0 Z5.08
Z-1.175
G1 Z-3.572 F762
G0 Z5.08
Z-1.572
G1 Z-3.969 F762
G0 Z5.08
Z-1.969
G1 Z-4.366 F762
G0 Z5.08
Z-2.366
G1 Z-4.762 F762
G0 Z5.08
Z-2.762
G1 Z-5.159 F762
G0 Z5.08
Z-3.159
G1 Z-5.556 F762
G0 Z5.08
Z-3.556
G1 Z-5.953 F762
G0 Z5.08
Z-3.953
G1 Z-6.35 F762
G0 Z5.08
Z-4.35
G1 Z-6.747 F762
G0 Z5.08
Z-4.747
G1 Z-7.144 F762
G0 Z5.08
Z-5.144
G1 Z-7.541 F762
G0 Z5.08
Z-5.541
G1 Z-7.937 F762
G0 Z5.08
Z-5.937
G1 Z-8.334 F762
G0 Z5.08
Z-6.334
G1 Z-8.731 F762
G0 Z5.08
Z-6.731
G1 Z-9 F762
G0 Z5.08
X-116.5 Y-40.5
Z2
G1 Z-0.397 F762
G0 Z5.08
Z1.603
G1 Z-0.794 F762
G0 Z5.08
Z1.206
G1 Z-1.191 F762
G0 Z5.08
Z0.809
G1 Z-1.587 F762
G0 Z5.08
Z0.413
G1 Z-1.984 F762
G0 Z5.08
Z0.016
G1 Z-2.381 F762
G0 Z5.08
Z-0.381
G1 Z-2.778 F762
G0 Z5.08
Z-0.778
G1 Z-3.175 F762
G0 Z5.08
Z-1.175
G1 Z-3.572 F762
G0 Z5.08
Z-1.572
G1 Z-3.969 F762
G0 Z5.08
Z-1.969
G1 Z-4.366 F762
G0 Z5.08
Z-2.366
G1 Z-4.762 F762
G0 Z5.08
Z-2.762
G1 Z-5.159 F762
G0 Z5.08
Z-3.159
G1 Z-5.556 F762
G0 Z5.08
Z-3.556
G1 Z-5.953 F762
G0 Z5.08
Z-3.953
G1 Z-6.35 F762
G0 Z5.08
Z-4.35
G1 Z-6.747 F762
G0 Z5.08
Z-4.747
G1 Z-7.144 F762
G0 Z5.08
Z-5.144
G1 Z-7.541 F762
G0 Z5.08
Z-5.541
G1 Z-7.937 F762
G0 Z5.08
Z-5.937
G1 Z-8.334 F762
G0 Z5.08
Z-6.334
G1 Z-8.731 F762
G0 Z5.08
Z-6.731
G1 Z-9 F762
G0 Z5.08
X-21.5 Y-59.5
Z2
G1 Z-0.397 F762
G0 Z5.08
Z1.603
G1 Z-0.794 F762
G0 Z5.08
Z1.206
G1 Z-1.191 F762
G0 Z5.08
Z0.809
G1 Z-1.587 F762
G0 Z5.08
Z0.413
G1 Z-1.984 F762
G0 Z5.08
Z0.016
G1 Z-2.381 F762
G0 Z5.08
Z-0.381
G1 Z-2.778 F762
G0 Z5.08
Z-0.778
G1 Z-3.175 F762
G0 Z5.08
Z-1.175
G1 Z-3.572 F762
G0 Z5.08
Z-1.572
G1 Z-3.969 F762
G0 Z5.08
Z-1.969
G1 Z-4.366 F762
G0 Z5.08
Z-2.366
G1 Z-4.762 F762
G0 Z5.08
Z-2.762
G1 Z-5.159 F762
G0 Z5.08
Z-3.159
G1 Z-5.556 F762
G0 Z5.08
Z-3.556
G1 Z-5.953 F762
G0 Z5.08
Z-3.953
G1 Z-6.35 F762
G0 Z5.08
Z-4.35
G1 Z-6.747 F762
G0 Z5.08
Z-4.747
G1 Z-7.144 F762
G0 Z5.08
Z-5.144
G1 Z-7.541 F762
G0 Z5.08
Z-5.541
G1 Z-7.937 F762
G0 Z5.08
Z-5.937
G1 Z-8.334 F762
G0 Z5.08
Z-6.334
G1 Z-8.731 F762
G0 Z5.08
Z-6.731
G1 Z-9 F762
G0 Z5.08
Y-21.5
Z2
G1 Z-0.397 F762
G0 Z5.08
Z1.603
G1 Z-0.794 F762
G0 Z5.08
Z1.206
G1 Z-1.191 F762
G0 Z5.08
Z0.809
G1 Z-1.587 F762
G0 Z5.08
Z0.413
G1 Z-1.984 F762
G0 Z5.08
Z0.016
G1 Z-2.381 F762
G0 Z5.08
Z-0.381
G1 Z-2.778 F762
G0 Z5.08
Z-0.778
G1 Z-3.175 F762
G0 Z5.08
Z-1.175
G1 Z-3.572 F762
G0 Z5.08
Z-1.572
G1 Z-3.969 F762
G0 Z5.08
Z-1.969
G1 Z-4.366 F762
G0 Z5.08
Z-2.366
G1 Z-4.762 F762
G0 Z5.08
Z-2.762
G1 Z-5.159 F762
G0 Z5.08
Z-3.159
G1 Z-5.556 F762
G0 Z5.08
Z-3.556
G1 Z-5.953 F762
G0 Z5.08
Z-3.953
G1 Z-6.35 F762
G0 Z5.08
Z-4.35
G1 Z-6.747 F762
G0 Z5.08
Z-4.747
G1 Z-7.144 F762
G0 Z5.08
Z-5.144
G1 Z-7.541 F762
G0 Z5.08
Z-5.541
G1 Z-7.937 F762
G0 Z5.08
Z-5.937
G1 Z-8.334 F762
G0 Z5.08
Z-6.334
G1 Z-8.731 F762
G0 Z5.08
Z-6.731
G1 Z-9 F762
G0 Z5.08
Z15.24
M9
G28 G91 Z0
G28 X0 Y0
M30
%
