%
(1)
(wood-post-contour0)
(T5  D=3.175 CR=0 - ZMIN=-9 - flat end mill)
G90
G17
G21
G28 G91 Z0
G90

(2D Contour5 3)
M9
T5 M6
S16000 M3
G54
M9
G0 X-116.817 Y-35.342
Z15.24
Z5.08
G1 Z4.175 F1524
Z-2.683 F762
G19 G2 Y-35.66 Z-3 J-0.318 K0
G1 Y-35.978 F1524
G17 G3 X-116.5 Y-36.295 I0.317 J0
G2 Y-44.705 I0 J-4.205
Y-36.295 I0 J4.205
X-116.257 Y-36.461 I0 J-0.261
G3 X-116.025 Y-36.642 I0.267 J0.104
G2 X-116.5 Y-44.388 I-0.475 J-3.858 F762
X-120.314 Y-41.252 I0 J3.888
X-120.387 Y-40.5 I3.814 J0.751
X-116.025 Y-36.642 I3.887 J0
G3 X-115.671 Y-36.365 I0.039 J0.315 F1524
G1 X-115.632 Y-36.05
X-115.624 Y-35.98 Z-2.992
X-115.615 Y-35.913 Z-2.969
X-115.608 Y-35.854 Z-2.931
X-115.602 Y-35.804 Z-2.88
X-115.597 Y-35.766 Z-2.82
X-115.594 Y-35.743 Z-2.753
X-115.593 Y-35.735 Z-2.683
G0 Z5.08
X-116.817 Y-35.342
G1 Z1.175 F1524
Z-5.683 F762
G19 G2 Y-35.66 Z-6 J-0.318 K0
G1 Y-35.978 F1524
G17 G3 X-116.5 Y-36.295 I0.317 J0
G2 Y-44.705 I0 J-4.205
Y-36.295 I0 J4.205
X-116.257 Y-36.461 I0 J-0.261
G3 X-116.025 Y-36.642 I0.267 J0.104
G2 X-116.5 Y-44.388 I-0.475 J-3.858 F762
X-120.314 Y-41.252 I0 J3.888
X-120.387 Y-40.5 I3.814 J0.751
X-116.025 Y-36.642 I3.887 J0
G3 X-115.671 Y-36.365 I0.039 J0.315 F1524
G1 X-115.632 Y-36.05
X-115.624 Y-35.98 Z-5.992
X-115.615 Y-35.913 Z-5.969
X-115.608 Y-35.854 Z-5.931
X-115.602 Y-35.804 Z-5.88
X-115.597 Y-35.766 Z-5.82
X-115.594 Y-35.743 Z-5.753
X-115.593 Y-35.735 Z-5.683
G0 Z5.08
X-116.817 Y-35.342
G1 Z-1.825 F1524
Z-8.683 F762
G19 G2 Y-35.66 Z-9 J-0.318 K0
G1 Y-35.978 F1524
G17 G3 X-116.5 Y-36.295 I0.317 J0
G2 Y-44.705 I0 J-4.205
Y-36.295 I0 J4.205
X-116.257 Y-36.461 I0 J-0.261
G3 X-116.025 Y-36.642 I0.267 J0.104
G2 X-116.5 Y-44.388 I-0.475 J-3.858 F762
X-120.314 Y-41.252 I0 J3.888
X-120.387 Y-40.5 I3.814 J0.751
X-116.025 Y-36.642 I3.887 J0
G3 X-115.671 Y-36.365 I0.039 J0.315 F1524
G1 X-115.632 Y-36.05
X-115.624 Y-35.98 Z-8.992
X-115.615 Y-35.913 Z-8.969
X-115.608 Y-35.854 Z-8.931
X-115.602 Y-35.804 Z-8.88
X-115.597 Y-35.766 Z-8.82
X-115.594 Y-35.743 Z-8.753
X-115.593 Y-35.735 Z-8.683
G0 Z5.08
X-26.139 Y-23.777
G1 Z4.175 F1524
Z-2.683 F762
X-26.131 Y-23.774 Z-2.753
X-26.11 Y-23.765 Z-2.82
X-26.075 Y-23.75 Z-2.88
X-26.028 Y-23.731 Z-2.931
X-25.973 Y-23.708 Z-2.969
X-25.911 Y-23.682 Z-2.992
X-25.846 Y-23.655 Z-3
X-25.553 Y-23.532 F1524
G3 X-25.382 Y-23.117 I-0.122 J0.293
G2 X-17.618 Y-19.883 I3.882 J1.617
X-25.382 Y-23.117 I-3.882 J-1.617
X-25.322 Y-22.829 I0.241 J0.1
G3 X-25.244 Y-22.545 I-0.199 J0.207
G2 X-21.5 Y-17.612 I3.744 J1.045 F762
X-18.022 Y-19.763 I0 J-3.888
X-17.612 Y-21.5 I-3.478 J-1.736
X-25.244 Y-22.545 I-3.888 J0
G3 X-25.635 Y-22.325 I-0.306 J-0.085 F1524
G1 X-25.941 Y-22.41
X-26.009 Y-22.429 Z-2.992
X-26.074 Y-22.447 Z-2.969
X-26.132 Y-22.464 Z-2.931
X-26.18 Y-22.477 Z-2.88
X-26.217 Y-22.487 Z-2.82
X-26.239 Y-22.494 Z-2.753
X-26.247 Y-22.496 Z-2.683
G0 Z5.08
X-21.309 Y-26.664
G1 Z1.175 F1524
Z-5.683 F762
Y-26.656 Z-5.753
X-21.308 Y-26.632 Z-5.82
X-21.307 Y-26.594 Z-5.88
X-21.306 Y-26.544 Z-5.931
X-21.305 Y-26.484 Z-5.969
X-21.303 Y-26.417 Z-5.992
X-21.301 Y-26.346 Z-6
X-21.294 Y-26.029 F1524
G3 X-21.603 Y-25.704 I-0.317 J0.008
G2 X-21.397 Y-17.296 I0.103 J4.204
X-21.603 Y-25.704 I-0.103 J-4.204
X-21.842 Y-25.532 I0.006 J0.261
G3 X-22.07 Y-25.346 I-0.27 J-0.097
G2 X-21.5 Y-17.612 I0.57 J3.846 F762
X-18.022 Y-19.763 I0 J-3.888
X-17.612 Y-21.5 I-3.478 J-1.736
X-22.07 Y-25.346 I-3.888 J0
G3 X-22.43 Y-25.613 I-0.047 J-0.314 F1524
G1 X-22.477 Y-25.927
X-22.487 Y-25.997 Z-5.992
X-22.497 Y-26.063 Z-5.969
X-22.506 Y-26.123 Z-5.931
X-22.513 Y-26.173 Z-5.88
X-22.519 Y-26.21 Z-5.82
X-22.522 Y-26.233 Z-5.753
X-22.523 Y-26.241 Z-5.683
G0 Z5.08
X-21.309 Y-26.664
G1 Z-1.825 F1524
Z-8.683 F762
Y-26.656 Z-8.753
X-21.308 Y-26.632 Z-8.82
X-21.307 Y-26.594 Z-8.88
X-21.306 Y-26.544 Z-8.931
X-21.305 Y-26.484 Z-8.969
X-21.303 Y-26.417 Z-8.992
X-21.301 Y-26.346 Z-9
X-21.294 Y-26.029 F1524
G3 X-21.603 Y-25.704 I-0.317 J0.008
G2 X-21.397 Y-17.296 I0.103 J4.204
X-21.603 Y-25.704 I-0.103 J-4.204
X-21.842 Y-25.532 I0.006 J0.261
G3 X-22.07 Y-25.346 I-0.27 J-0.097
G2 X-21.5 Y-17.612 I0.57 J3.846 F762
X-18.022 Y-19.763 I0 J-3.888
X-17.612 Y-21.5 I-3.478 J-1.736
X-22.07 Y-25.346 I-3.888 J0
G3 X-22.43 Y-25.613 I-0.047 J-0.314 F1524
G1 X-22.477 Y-25.927
X-22.487 Y-25.997 Z-8.992
X-22.497 Y-26.063 Z-8.969
X-22.506 Y-26.123 Z-8.931
X-22.513 Y-26.173 Z-8.88
X-22.519 Y-26.21 Z-8.82
X-22.522 Y-26.233 Z-8.753
X-22.523 Y-26.241 Z-8.683
G0 Z5.08
X-21.776 Y-54.34
G1 Z4.175 F1524
Z-2.683 F762
Y-54.348 Z-2.753
Y-54.371 Z-2.82
Y-54.409 Z-2.88
X-21.777 Y-54.459 Z-2.931
Y-54.52 Z-2.969
X-21.778 Y-54.587 Z-2.992
Y-54.657 Z-3
X-21.781 Y-54.975 F1524
G3 X-21.466 Y-55.295 I0.317 J-0.003
G2 X-17.295 Y-59.5 I-0.034 J-4.205
X-25.705 I-4.205 J0
X-21.5 Y-55.295 I4.205 J0
X-21.466 I0.017 J-4.205
X-21.223 Y-55.463 I-0.001 J-0.261
G3 X-20.992 Y-55.646 I0.269 J0.102
G2 X-17.612 Y-59.5 I-0.508 J-3.854 F762
X-18.022 Y-61.237 I-3.888 J0
X-21.5 Y-63.388 I-3.478 J1.737
X-25.379 Y-59.246 I0 J3.888
X-20.992 Y-55.646 I3.879 J-0.254
G3 X-20.636 Y-55.373 I0.041 J0.315 F1524
G1 X-20.594 Y-55.058
X-20.585 Y-54.988 Z-2.992
X-20.576 Y-54.921 Z-2.969
X-20.569 Y-54.861 Z-2.931
X-20.562 Y-54.812 Z-2.88
X-20.557 Y-54.774 Z-2.82
X-20.554 Y-54.751 Z-2.753
X-20.553 Y-54.743 Z-2.683
G0 Z5.08
X-21.776 Y-54.34
G1 Z1.175 F1524
Z-5.683 F762
Y-54.348 Z-5.753
Y-54.371 Z-5.82
Y-54.409 Z-5.88
X-21.777 Y-54.459 Z-5.931
Y-54.52 Z-5.969
X-21.778 Y-54.587 Z-5.992
Y-54.657 Z-6
X-21.781 Y-54.975 F1524
G3 X-21.466 Y-55.295 I0.317 J-0.003
G2 X-17.295 Y-59.5 I-0.034 J-4.205
X-25.705 I-4.205 J0
X-21.5 Y-55.295 I4.205 J0
X-21.466 I0.017 J-4.205
X-21.223 Y-55.463 I-0.001 J-0.261
G3 X-20.992 Y-55.646 I0.269 J0.102
G2 X-17.612 Y-59.5 I-0.508 J-3.854 F762
X-18.022 Y-61.237 I-3.888 J0
X-21.5 Y-63.388 I-3.478 J1.737
X-25.379 Y-59.246 I0 J3.888
X-20.992 Y-55.646 I3.879 J-0.254
G3 X-20.636 Y-55.373 I0.041 J0.315 F1524
G1 X-20.594 Y-55.058
X-20.585 Y-54.988 Z-5.992
X-20.576 Y-54.921 Z-5.969
X-20.569 Y-54.861 Z-5.931
X-20.562 Y-54.812 Z-5.88
X-20.557 Y-54.774 Z-5.82
X-20.554 Y-54.751 Z-5.753
X-20.553 Y-54.743 Z-5.683
G0 Z5.08
X-21.776 Y-54.34
G1 Z-1.825 F1524
Z-8.683 F762
Y-54.348 Z-8.753
Y-54.371 Z-8.82
Y-54.409 Z-8.88
X-21.777 Y-54.459 Z-8.931
Y-54.52 Z-8.969
X-21.778 Y-54.587 Z-8.992
Y-54.657 Z-9
X-21.781 Y-54.975 F1524
G3 X-21.466 Y-55.295 I0.317 J-0.003
G2 X-17.295 Y-59.5 I-0.034 J-4.205
X-25.705 I-4.205 J0
X-21.5 Y-55.295 I4.205 J0
X-21.466 I0.017 J-4.205
X-21.223 Y-55.463 I-0.001 J-0.261
G3 X-20.992 Y-55.646 I0.269 J0.102
G2 X-17.612 Y-59.5 I-0.508 J-3.854 F762
X-18.022 Y-61.237 I-3.888 J0
X-21.5 Y-63.388 I-3.478 J1.737
X-25.379 Y-59.246 I0 J3.888
X-20.992 Y-55.646 I3.879 J-0.254
G3 X-20.636 Y-55.373 I0.041 J0.315 F1524
G1 X-20.594 Y-55.058
X-20.585 Y-54.988 Z-8.992
X-20.576 Y-54.921 Z-8.969
X-20.569 Y-54.861 Z-8.931
X-20.562 Y-54.812 Z-8.88
X-20.557 Y-54.774 Z-8.82
X-20.554 Y-54.751 Z-8.753
X-20.553 Y-54.743 Z-8.683
G0 Z5.08
X-206.861 Y-57.223
G1 Z4.175 F1524
Z-2.683 F762
X-206.868 Y-57.226 Z-2.753
X-206.89 Y-57.235 Z-2.82
X-206.925 Y-57.25 Z-2.88
X-206.971 Y-57.269 Z-2.931
X-207.027 Y-57.292 Z-2.969
X-207.089 Y-57.318 Z-2.992
X-207.154 Y-57.345 Z-3
X-207.447 Y-57.468 F1524
G3 X-207.618 Y-57.883 I0.122 J-0.293
G2 X-207.374 Y-58.686 I-3.882 J-1.617
X-207.295 Y-59.5 I-4.126 J-0.813
X-215.705 I-4.205 J0
X-211.5 Y-55.295 I4.205 J0
X-207.618 Y-57.883 I0 J-4.205
X-207.678 Y-58.171 I-0.241 J-0.1
G3 X-207.756 Y-58.455 I0.199 J-0.207
G2 X-207.613 Y-59.5 I-3.744 J-1.045 F762
X-215.387 I-3.887 J0
X-211.5 Y-55.612 I3.887 J0
X-211.466 I0.017 J-3.888
X-207.756 Y-58.455 I-0.034 J-3.887
G3 X-207.364 Y-58.675 I0.306 J0.085 F1524
G1 X-207.059 Y-58.59
X-206.991 Y-58.571 Z-2.992
X-206.926 Y-58.553 Z-2.969
X-206.868 Y-58.537 Z-2.931
X-206.82 Y-58.523 Z-2.88
X-206.783 Y-58.513 Z-2.82
X-206.76 Y-58.507 Z-2.753
X-206.753 Y-58.505 Z-2.683
G0 Z5.08
X-211.691 Y-54.336
G1 Z1.175 F1524
Z-5.683 F762
Y-54.344 Z-5.753
X-211.692 Y-54.368 Z-5.82
X-211.693 Y-54.406 Z-5.88
X-211.694 Y-54.456 Z-5.931
X-211.695 Y-54.516 Z-5.969
X-211.697 Y-54.583 Z-5.992
X-211.699 Y-54.654 Z-6
X-211.706 Y-54.971 F1524
G3 X-211.397 Y-55.296 I0.317 J-0.008
G2 X-207.374 Y-58.686 I-0.103 J-4.204
X-207.295 Y-59.5 I-4.126 J-0.813
X-215.705 I-4.205 J0
X-211.5 Y-55.295 I4.205 J0
X-211.397 Y-55.296 I0 J-4.205
X-211.158 Y-55.468 I-0.006 J-0.26
G3 X-210.931 Y-55.654 I0.27 J0.097
G2 X-207.613 Y-59.5 I-0.569 J-3.846 F762
X-215.387 I-3.887 J0
X-211.5 Y-55.612 I3.887 J0
X-211.466 I0.017 J-3.888
X-210.931 Y-55.654 I-0.034 J-3.887
G3 X-210.57 Y-55.387 I0.047 J0.314 F1524
G1 X-210.523 Y-55.073
X-210.513 Y-55.003 Z-5.992
X-210.503 Y-54.936 Z-5.969
X-210.495 Y-54.877 Z-5.931
X-210.487 Y-54.827 Z-5.88
X-210.482 Y-54.79 Z-5.82
X-210.478 Y-54.766 Z-5.753
X-210.477 Y-54.759 Z-5.683
G0 Z5.08
X-211.691 Y-54.336
G1 Z-1.825 F1524
Z-8.683 F762
Y-54.344 Z-8.753
X-211.692 Y-54.368 Z-8.82
X-211.693 Y-54.406 Z-8.88
X-211.694 Y-54.456 Z-8.931
X-211.695 Y-54.516 Z-8.969
X-211.697 Y-54.583 Z-8.992
X-211.699 Y-54.654 Z-9
X-211.706 Y-54.971 F1524
G3 X-211.397 Y-55.296 I0.317 J-0.008
G2 X-207.374 Y-58.686 I-0.103 J-4.204
X-207.295 Y-59.5 I-4.126 J-0.813
X-215.705 I-4.205 J0
X-211.5 Y-55.295 I4.205 J0
X-211.397 Y-55.296 I0 J-4.205
X-211.158 Y-55.468 I-0.006 J-0.26
G3 X-210.931 Y-55.654 I0.27 J0.097
G2 X-207.613 Y-59.5 I-0.569 J-3.846 F762
X-215.387 I-3.887 J0
X-211.5 Y-55.612 I3.887 J0
X-211.466 I0.017 J-3.888
X-210.931 Y-55.654 I-0.034 J-3.887
G3 X-210.57 Y-55.387 I0.047 J0.314 F1524
G1 X-210.523 Y-55.073
X-210.513 Y-55.003 Z-8.992
X-210.503 Y-54.936 Z-8.969
X-210.495 Y-54.877 Z-8.931
X-210.487 Y-54.827 Z-8.88
X-210.482 Y-54.79 Z-8.82
X-210.478 Y-54.766 Z-8.753
X-210.477 Y-54.759 Z-8.683
G0 Z5.08
X-211.145 Y-26.656
G1 Z4.175 F1524
Z-2.683 F762
Y-26.648 Z-2.753
Y-26.625 Z-2.82
Y-26.587 Z-2.88
Y-26.537 Z-2.931
Y-26.476 Z-2.969
X-211.146 Y-26.409 Z-2.992
Y-26.339 Z-3
X-211.147 Y-26.021 F1524
G3 X-211.466 Y-25.705 I-0.318 J-0.001
G2 X-211.5 I-0.017 J4.205
Y-17.295 I0 J4.205
X-207.295 Y-21.5 I0 J-4.205
X-211.466 Y-25.705 I-4.205 J0
X-211.71 Y-25.541 I-0.002 J0.261
G3 X-211.944 Y-25.362 I-0.267 J-0.106
G2 X-211.056 Y-17.638 I0.444 J3.862 F762
X-207.613 Y-21.5 I-0.444 J-3.862
X-207.686 Y-22.252 I-3.888 J-0.001
X-211.5 Y-25.388 I-3.814 J0.752
X-211.944 Y-25.362 I0 J3.888
G3 X-212.296 Y-25.641 I-0.036 J-0.315 F1524
G1 X-212.332 Y-25.957
X-212.34 Y-26.027 Z-2.992
X-212.348 Y-26.094 Z-2.969
X-212.355 Y-26.153 Z-2.931
X-212.36 Y-26.203 Z-2.88
X-212.365 Y-26.241 Z-2.82
X-212.367 Y-26.264 Z-2.753
X-212.368 Y-26.272 Z-2.683
G0 Z5.08
X-211.309 Y-26.664
G1 Z1.175 F1524
Z-5.683 F762
Y-26.656 Z-5.753
X-211.308 Y-26.632 Z-5.82
X-211.307 Y-26.594 Z-5.88
X-211.306 Y-26.544 Z-5.931
X-211.305 Y-26.484 Z-5.969
X-211.303 Y-26.417 Z-5.992
X-211.301 Y-26.346 Z-6
X-211.294 Y-26.029 F1524
G3 X-211.603 Y-25.704 I-0.317 J0.008
G2 X-211.397 Y-17.296 I0.103 J4.204
X-207.295 Y-21.5 I-0.103 J-4.204
X-211.466 Y-25.705 I-4.205 J0
X-211.5 I-0.017 J4.205
X-211.603 Y-25.704 I0 J4.205
X-211.842 Y-25.532 I0.006 J0.261
G3 X-212.07 Y-25.346 I-0.27 J-0.097
G2 X-210.93 Y-17.654 I0.57 J3.846 F762
X-207.613 Y-21.5 I-0.57 J-3.846
X-207.686 Y-22.252 I-3.888 J-0.001
X-211.5 Y-25.388 I-3.814 J0.752
X-212.07 Y-25.346 I0 J3.888
G3 X-212.43 Y-25.613 I-0.047 J-0.314 F1524
G1 X-212.477 Y-25.927
X-212.487 Y-25.997 Z-5.992
X-212.497 Y-26.063 Z-5.969
X-212.506 Y-26.123 Z-5.931
X-212.513 Y-26.173 Z-5.88
X-212.519 Y-26.21 Z-5.82
X-212.522 Y-26.233 Z-5.753
X-212.523 Y-26.241 Z-5.683
G0 Z5.08
X-211.309 Y-26.664
G1 Z-1.825 F1524
Z-8.683 F762
Y-26.656 Z-8.753
X-211.308 Y-26.632 Z-8.82
X-211.307 Y-26.594 Z-8.88
X-211.306 Y-26.544 Z-8.931
X-211.305 Y-26.484 Z-8.969
X-211.303 Y-26.417 Z-8.992
X-211.301 Y-26.346 Z-9
X-211.294 Y-26.029 F1524
G3 X-211.603 Y-25.704 I-0.317 J0.008
G2 X-211.397 Y-17.296 I0.103 J4.204
X-207.295 Y-21.5 I-0.103 J-4.204
X-211.466 Y-25.705 I-4.205 J0
X-211.5 I-0.017 J4.205
X-211.603 Y-25.704 I0 J4.205
X-211.842 Y-25.532 I0.006 J0.261
G3 X-212.07 Y-25.346 I-0.27 J-0.097
G2 X-210.93 Y-17.654 I0.57 J3.846 F762
X-207.613 Y-21.5 I-0.57 J-3.846
X-207.686 Y-22.252 I-3.888 J-0.001
X-211.5 Y-25.388 I-3.814 J0.752
X-212.07 Y-25.346 I0 J3.888
G3 X-212.43 Y-25.613 I-0.047 J-0.314 F1524
G1 X-212.477 Y-25.927
X-212.487 Y-25.997 Z-8.992
X-212.497 Y-26.063 Z-8.969
X-212.506 Y-26.123 Z-8.931
X-212.513 Y-26.173 Z-8.88
X-212.519 Y-26.21 Z-8.82
X-212.522 Y-26.233 Z-8.753
X-212.523 Y-26.241 Z-8.683
G0 Z15.24
M9
G28 G91 Z0
G28 X0 Y0
M30
%
