%
(1001)
(wood-bottom0)
(T5  D=3.175 CR=0 - ZMIN=-11 - flat end mill)
G90
G17
G21
G28 G91 Z0
G90

(Drill5)
M9
T5 M6
S16000 M3
G54
M7
G0 X-173.5 Y-67.5
Z15.24
Z5.08
G1 Z-6 F304.8
G0 Z5.08
Z15.24

(2D Pocket12)
M7
X-192.02 Y-86.026
Z15.24
Z5.08
G1 Z-1.883 F762
G19 G3 Y-85.708 Z-2.2 J0.317 K0
G1 Y-82.475
Y-80.094
G17 G3 X-192.344 Y-79.77 I-0.324 J0
G1 X-192.91
G3 X-193.23 Y-80.09 I0 J-0.32
G1 Y-82.483
G3 X-193.026 Y-82.686 I0.203 J0
G1 X-190.983 Y-82.678
G3 X-190.781 Y-82.474 I-0.001 J0.203
G1 Y-78.855
G3 X-191.105 Y-78.531 I-0.324 J0
G1 X-194.149
G3 X-194.469 Y-78.851 I0 J-0.32
G1 Y-82.484
G3 X-194.266 Y-82.687 I0.203 J0
G1 X-188.541 Y-82.686
G3 X-188.337 Y-82.483 I0 J0.203
G1 Y-76.088
X-196.913
Y-81
Y-82.484
G3 X-196.738 Y-82.685 I0.203 J0
G1 X-192.252 Y-83.324
G3 X-192.02 Y-83.123 I0.029 J0.201
G19 G2 Y-82.805 Z-2.517 J0 K-0.317
G1 Z-4.082
G3 Y-82.488 Z-4.4 J0.317 K0
G1 Y-82.475
Y-80.094
G17 G3 X-192.344 Y-79.77 I-0.324 J0
G1 X-192.91
G3 X-193.23 Y-80.09 I0 J-0.32
G1 Y-82.483
G3 X-193.026 Y-82.686 I0.203 J0
G1 X-190.983 Y-82.678
G3 X-190.781 Y-82.474 I-0.001 J0.203
G1 Y-78.855
G3 X-191.105 Y-78.531 I-0.324 J0
G1 X-194.149
G3 X-194.469 Y-78.851 I0 J-0.32
G1 Y-82.484
G3 X-194.266 Y-82.687 I0.203 J0
G1 X-188.541 Y-82.686
G3 X-188.337 Y-82.483 I0 J0.203
G1 Y-76.088
X-196.913
Y-81
Y-82.484
G3 X-196.738 Y-82.685 I0.203 J0
G1 X-192.252 Y-83.324
G3 X-192.02 Y-83.123 I0.029 J0.201
G19 G2 Y-82.805 Z-4.718 J0 K-0.318
G1 Z-6.282
G3 Y-82.488 Z-6.6 J0.317 K0
G1 Y-82.475
Y-80.094
G17 G3 X-192.344 Y-79.77 I-0.324 J0
G1 X-192.91
G3 X-193.23 Y-80.09 I0 J-0.32
G1 Y-82.483
G3 X-193.026 Y-82.686 I0.203 J0
G1 X-190.983 Y-82.678
G3 X-190.781 Y-82.474 I-0.001 J0.203
G1 Y-78.855
G3 X-191.105 Y-78.531 I-0.324 J0
G1 X-194.149
G3 X-194.469 Y-78.851 I0 J-0.32
G1 Y-82.484
G3 X-194.266 Y-82.687 I0.203 J0
G1 X-188.541 Y-82.686
G3 X-188.337 Y-82.483 I0 J0.203
G1 Y-76.088
X-196.913
Y-81
Y-82.484
G3 X-196.738 Y-82.685 I0.203 J0
G1 X-192.252 Y-83.324
G3 X-192.02 Y-83.123 I0.029 J0.201
G19 G2 Y-82.805 Z-6.918 J0 K-0.318
G1 Z-8.483
G3 Y-82.488 Z-8.8 J0.317 K0
G1 Y-82.475
Y-80.094
G17 G3 X-192.344 Y-79.77 I-0.324 J0
G1 X-192.91
G3 X-193.23 Y-80.09 I0 J-0.32
G1 Y-82.483
G3 X-193.026 Y-82.686 I0.203 J0
G1 X-190.983 Y-82.678
G3 X-190.781 Y-82.474 I-0.001 J0.203
G1 Y-78.855
G3 X-191.105 Y-78.531 I-0.324 J0
G1 X-194.149
G3 X-194.469 Y-78.851 I0 J-0.32
G1 Y-82.484
G3 X-194.266 Y-82.687 I0.203 J0
G1 X-188.541 Y-82.686
G3 X-188.337 Y-82.483 I0 J0.203
G1 Y-76.088
X-196.913
Y-81
Y-82.484
G3 X-196.738 Y-82.685 I0.203 J0
G1 X-192.252 Y-83.324
G3 X-192.02 Y-83.123 I0.029 J0.201
G19 G2 Y-82.805 Z-9.118 J0 K-0.318
G1 Z-10.682
G3 Y-82.488 Z-11 J0.317 K0
G1 Y-82.475
Y-80.094
G17 G3 X-192.344 Y-79.77 I-0.324 J0
G1 X-192.91
G3 X-193.23 Y-80.09 I0 J-0.32
G1 Y-82.483
G3 X-193.026 Y-82.686 I0.203 J0
G1 X-190.983 Y-82.678
G3 X-190.781 Y-82.474 I-0.001 J0.203
G1 Y-78.855
G3 X-191.105 Y-78.531 I-0.324 J0
G1 X-194.149
G3 X-194.469 Y-78.851 I0 J-0.32
G1 Y-82.484
G3 X-194.266 Y-82.687 I0.203 J0
G1 X-188.541 Y-82.686
G3 X-188.337 Y-82.483 I0 J0.203
G1 Y-76.088
X-196.913
Y-81
Y-82.484
G3 X-196.909 Y-82.534 I0.318 J0
G1 X-196.66 Y-84.102
X-196.649 Y-84.172 Z-10.992
X-196.639 Y-84.238 Z-10.969
X-196.629 Y-84.297 Z-10.931
X-196.621 Y-84.347 Z-10.88
X-196.615 Y-84.384 Z-10.82
X-196.612 Y-84.408 Z-10.753
X-196.611 Y-84.416 Z-10.682
G0 Z15.24
M9
G28 G91 Z0
G28 X0 Y0
M30
%
