%
(1001)
(planck-wood-top-rev3)
(T5  D=3.175 CR=0 - ZMIN=-9.992 - flat end mill)
G90
G17
G21
G28 G91 Z0
G90

(2D Adaptive7)
M9
T5 M6
S16000 M3
G54
M7
G0 X-116.529 Y-42.008
Z15.24
Z5.08
Z2.858
G1 Z2.54 F3048
G3 X-116.471 Y-38.992 Z2.375 I0.029 J1.508 F762
X-116.529 Y-42.008 Z2.209 I-0.029 J-1.508
X-116.471 Y-38.992 Z2.044 I0.029 J1.508
X-116.529 Y-42.008 Z1.878 I-0.029 J-1.508
X-116.471 Y-38.992 Z1.713 I0.029 J1.508
X-116.529 Y-42.008 Z1.547 I-0.029 J-1.508
X-116.471 Y-38.992 Z1.382 I0.029 J1.508
X-116.529 Y-42.008 Z1.216 I-0.029 J-1.508
X-116.471 Y-38.992 Z1.051 I0.029 J1.508
X-116.529 Y-42.008 Z0.885 I-0.029 J-1.508
X-116.471 Y-38.992 Z0.72 I0.029 J1.508
X-116.529 Y-42.008 Z0.555 I-0.029 J-1.508
X-116.471 Y-38.992 Z0.389 I0.029 J1.508
X-116.529 Y-42.008 Z0.224 I-0.029 J-1.508
X-116.471 Y-38.992 Z0.058 I0.029 J1.508
X-116.529 Y-42.008 Z-0.107 I-0.029 J-1.508
X-116.471 Y-38.992 Z-0.273 I0.029 J1.508
X-116.529 Y-42.008 Z-0.438 I-0.029 J-1.508
X-116.471 Y-38.992 Z-0.604 I0.029 J1.508
X-116.529 Y-42.008 Z-0.769 I-0.029 J-1.508
X-116.471 Y-38.992 Z-0.934 I0.029 J1.508
X-116.529 Y-42.008 Z-1.1 I-0.029 J-1.508
X-116.471 Y-38.992 Z-1.265 I0.029 J1.508
X-116.529 Y-42.008 Z-1.431 I-0.029 J-1.508
X-116.471 Y-38.992 Z-1.596 I0.029 J1.508
X-116.529 Y-42.008 Z-1.762 I-0.029 J-1.508
X-116.471 Y-38.992 Z-1.927 I0.029 J1.508
X-116.529 Y-42.008 Z-2.093 I-0.029 J-1.508
X-116.471 Y-38.992 Z-2.258 I0.029 J1.508
X-116.529 Y-42.008 Z-2.424 I-0.029 J-1.508
X-116.471 Y-38.992 Z-2.589 I0.029 J1.508
X-116.529 Y-42.008 Z-2.754 I-0.029 J-1.508
X-116.471 Y-38.992 Z-2.92 I0.029 J1.508
X-116.529 Y-42.008 Z-3.085 I-0.029 J-1.508
X-116.471 Y-38.992 Z-3.251 I0.029 J1.508
X-116.529 Y-42.008 Z-3.416 I-0.029 J-1.508
X-114.992 Y-40.5 Z-3.5 I0.029 J1.508
X-118.008 I-1.508 J0
X-114.992 I1.508 J0
G1 X-114.972 Y-39.755 F5080
X-114.951 Y-39.665
X-114.937 Y-39.513
X-114.951 Y-39.361
X-114.989 Y-39.213
X-115.047 Y-39.072
X-115.121 Y-38.939
X-115.21 Y-38.816
X-115.312 Y-38.702
X-115.424 Y-38.599
X-115.545 Y-38.507
X-115.674 Y-38.425
X-115.81 Y-38.356
X-115.951 Y-38.298
X-116.099 Y-38.25
X-116.255 Y-38.213
X-116.416 Y-38.189
X-116.582 Y-38.177
X-116.752 Y-38.179
X-116.923 Y-38.194
X-117.095 Y-38.224
X-117.266 Y-38.268
X-117.435 Y-38.326
X-117.6 Y-38.398
X-117.761 Y-38.484
X-117.915 Y-38.583
X-118.062 Y-38.695
X-118.2 Y-38.82
X-118.328 Y-38.956
X-118.445 Y-39.102
X-118.551 Y-39.258
X-118.645 Y-39.422
X-118.725 Y-39.594
X-118.791 Y-39.772
X-118.843 Y-39.956
X-118.88 Y-40.143
X-118.902 Y-40.334
X-118.908 Y-40.525
X-118.899 Y-40.717
X-118.875 Y-40.908
X-118.836 Y-41.096
X-118.781 Y-41.281
X-118.712 Y-41.461
X-118.628 Y-41.635
X-118.531 Y-41.802
X-118.42 Y-41.961
X-118.298 Y-42.11
X-118.163 Y-42.249
X-118.018 Y-42.377
X-117.863 Y-42.492
X-117.699 Y-42.595
X-117.527 Y-42.685
X-117.348 Y-42.76
X-117.165 Y-42.821
X-116.976 Y-42.867
X-116.785 Y-42.898
X-116.592 Y-42.913
X-116.398 Y-42.912
X-116.205 Y-42.896
X-116.013 Y-42.865
X-115.825 Y-42.819
X-115.641 Y-42.757
X-115.463 Y-42.681
X-115.291 Y-42.591
X-115.128 Y-42.487
X-114.973 Y-42.37
X-114.827 Y-42.242
X-114.693 Y-42.102
X-114.57 Y-41.952
X-114.46 Y-41.792
X-114.355 Y-41.611
X-114.242 Y-41.373
X-114.091 Y-40.976
X-113.997 Y-40.656
X-113.942 Y-40.385
X-113.911 Y-40.135
X-113.901 Y-39.899
X-113.909 Y-39.677
X-113.934 Y-39.465
X-113.975 Y-39.26
X-114.033 Y-39.06
X-114.106 Y-38.864
X-114.195 Y-38.675
X-114.299 Y-38.494
X-114.417 Y-38.321
X-114.55 Y-38.157
X-114.698 Y-38.002
X-114.859 Y-37.858
X-115.034 Y-37.725
X-115.221 Y-37.605
X-115.42 Y-37.5
X-115.631 Y-37.409
X-115.851 Y-37.334
X-116.079 Y-37.276
X-116.315 Y-37.236
X-116.556 Y-37.215
X-116.8 Y-37.214
X-117.047 Y-37.232
X-117.294 Y-37.27
X-117.539 Y-37.329
X-117.781 Y-37.408
X-118.017 Y-37.506
X-118.246 Y-37.624
X-118.466 Y-37.761
X-118.676 Y-37.917
X-118.874 Y-38.089
X-119.059 Y-38.278
X-119.228 Y-38.482
X-119.381 Y-38.699
X-119.517 Y-38.93
X-119.634 Y-39.171
X-119.732 Y-39.421
X-119.81 Y-39.68
X-119.867 Y-39.944
X-119.902 Y-40.213
X-119.916 Y-40.484
X-119.908 Y-40.756
X-119.878 Y-41.026
X-119.826 Y-41.294
X-119.753 Y-41.557
X-119.659 Y-41.814
X-119.545 Y-42.062
X-119.411 Y-42.301
X-119.258 Y-42.528
X-119.087 Y-42.743
X-118.9 Y-42.943
X-118.696 Y-43.128
X-118.479 Y-43.295
X-118.249 Y-43.445
X-118.007 Y-43.576
X-117.756 Y-43.687
X-117.497 Y-43.778
X-117.231 Y-43.847
X-116.96 Y-43.895
X-116.686 Y-43.921
X-116.411 Y-43.926
X-116.137 Y-43.907
X-115.865 Y-43.867
X-115.596 Y-43.806
X-115.334 Y-43.723
X-115.079 Y-43.619
X-114.834 Y-43.495
X-114.599 Y-43.351
X-114.376 Y-43.19
X-114.165 Y-43.009
X-113.959 Y-42.802
X-113.745 Y-42.548
X-113.547 Y-42.271
X-113.365 Y-41.968
X-113.206 Y-41.649
X-113.076 Y-41.324
X-112.975 Y-40.998
X-112.903 Y-40.674
X-112.858 Y-40.355
X-112.84 Y-40.039
X-112.847 Y-39.728
X-112.878 Y-39.422
X-112.933 Y-39.122
X-113.011 Y-38.83
X-113.113 Y-38.546
X-113.236 Y-38.273
X-113.381 Y-38.01
X-113.546 Y-37.759
X-113.732 Y-37.522
X-113.937 Y-37.299
X-114.161 Y-37.092
X-114.402 Y-36.903
X-114.66 Y-36.732
X-114.933 Y-36.581
X-115.22 Y-36.451
X-115.519 Y-36.344
X-115.828 Y-36.261
X-116.146 Y-36.202
X-116.47 Y-36.168
X-116.797 Y-36.161
X-117.127 Y-36.18
X-117.457 Y-36.225
X-117.784 Y-36.298
X-118.106 Y-36.397
X-118.422 Y-36.523
X-118.727 Y-36.674
X-119.022 Y-36.85
X-119.302 Y-37.05
X-119.567 Y-37.274
X-119.815 Y-37.519
X-120.042 Y-37.784
X-120.249 Y-38.067
X-120.433 Y-38.367
X-120.592 Y-38.682
X-120.726 Y-39.01
X-120.834 Y-39.349
X-120.915 Y-39.695
X-120.967 Y-40.048
X-120.991 Y-40.404
X-120.986 Y-40.762
X-120.953 Y-41.119
X-120.891 Y-41.472
X-120.8 Y-41.82
X-120.682 Y-42.159
X-120.537 Y-42.488
X-120.366 Y-42.805
X-120.17 Y-43.107
X-119.95 Y-43.393
X-119.708 Y-43.66
X-119.445 Y-43.908
X-119.163 Y-44.133
X-118.863 Y-44.335
X-118.549 Y-44.512
X-118.221 Y-44.664
X-117.881 Y-44.788
X-117.533 Y-44.886
X-117.178 Y-44.955
X-116.819 Y-44.995
X-116.457 Y-45.006
X-116.096 Y-44.988
X-115.737 Y-44.941
X-115.383 Y-44.866
X-115.037 Y-44.762
X-114.699 Y-44.631
X-114.373 Y-44.473
X-114.057 Y-44.288
X-113.747 Y-44.07
X-113.446 Y-43.821
X-113.157 Y-43.539
X-112.885 Y-43.228
X-112.635 Y-42.891
X-112.412 Y-42.533
X-112.218 Y-42.158
X-112.056 Y-41.771
X-111.927 Y-41.376
X-111.83 Y-40.975
X-111.767 Y-40.571
X-111.736 Y-40.167
X-111.738 Y-39.766
X-111.772 Y-39.369
X-111.838 Y-38.978
X-111.934 Y-38.596
X-112.06 Y-38.224
X-112.215 Y-37.864
X-112.398 Y-37.517
X-112.609 Y-37.187
X-112.846 Y-36.874
X-113.108 Y-36.58
X-113.394 Y-36.307
X-113.702 Y-36.056
X-114.031 Y-35.83
X-114.379 Y-35.63
X-114.744 Y-35.458
X-115.125 Y-35.314
X-115.518 Y-35.201
X-115.921 Y-35.12
X-116.332 Y-35.07
X-116.748 Y-35.054
X-117.166 Y-35.071
X-117.584 Y-35.122
X-117.999 Y-35.207
X-118.408 Y-35.325
X-118.807 Y-35.477
X-119.196 Y-35.661
X-119.57 Y-35.877
X-119.927 Y-36.123
X-120.264 Y-36.398
X-120.579 Y-36.7
X-120.87 Y-37.027
X-121.135 Y-37.379
X-121.372 Y-37.751
X-121.578 Y-38.142
X-121.752 Y-38.549
X-121.894 Y-38.97
X-122.002 Y-39.402
X-122.075 Y-39.842
X-122.112 Y-40.288
X-122.113 Y-40.735
X-122.079 Y-41.182
X-122.008 Y-41.625
X-121.903 Y-42.061
X-121.762 Y-42.488
X-121.588 Y-42.903
X-121.38 Y-43.302
X-121.141 Y-43.684
X-120.872 Y-44.046
X-120.575 Y-44.385
X-120.251 Y-44.699
X-119.903 Y-44.986
X-119.533 Y-45.245
X-119.143 Y-45.473
X-118.736 Y-45.669
X-118.315 Y-45.832
X-117.882 Y-45.961
X-117.439 Y-46.054
X-116.991 Y-46.112
X-116.539 Y-46.134
X-116.087 Y-46.119
X-115.638 Y-46.068
X-115.194 Y-45.981
X-114.758 Y-45.858
X-114.33 Y-45.7
X-113.912 Y-45.506
X-113.506 Y-45.276
X-113.114 Y-45.011
X-112.737 Y-44.709
X-112.379 Y-44.371
X-112.044 Y-44.001
X-111.738 Y-43.601
X-111.463 Y-43.176
X-111.223 Y-42.73
X-111.02 Y-42.267
X-110.855 Y-41.79
X-110.73 Y-41.304
X-110.644 Y-40.813
X-110.599 Y-40.318
X-110.593 Y-39.825
X-110.627 Y-39.335
X-110.7 Y-38.851
X-110.811 Y-38.376
X-110.959 Y-37.913
X-111.143 Y-37.465
X-111.363 Y-37.032
X-111.617 Y-36.619
X-111.904 Y-36.227
X-112.221 Y-35.859
X-112.569 Y-35.516
X-112.944 Y-35.201
X-113.344 Y-34.916
X-113.768 Y-34.664
X-114.213 Y-34.445
X-114.676 Y-34.261
X-115.154 Y-34.115
X-115.645 Y-34.007
X-116.146 Y-33.938
X-116.653 Y-33.91
X-117.163 Y-33.922
X-117.673 Y-33.976
X-118.179 Y-34.071
X-118.677 Y-34.207
X-119.166 Y-34.383
X-119.641 Y-34.598
X-120.098 Y-34.852
X-120.535 Y-35.143
X-120.949 Y-35.469
X-121.337 Y-35.828
X-121.695 Y-36.219
X-122.022 Y-36.638
X-122.315 Y-37.083
X-122.572 Y-37.551
X-122.791 Y-38.04
X-122.97 Y-38.545
X-123.109 Y-39.064
X-123.205 Y-39.594
X-123.259 Y-40.13
X-123.27 Y-40.67
X-123.237 Y-41.209
X-123.161 Y-41.745
X-123.042 Y-42.273
X-122.881 Y-42.79
X-122.679 Y-43.294
X-122.437 Y-43.779
X-122.156 Y-44.244
X-121.839 Y-44.686
X-121.488 Y-45.1
X-121.104 Y-45.485
X-120.69 Y-45.839
X-120.249 Y-46.158
X-119.784 Y-46.44
X-119.298 Y-46.685
X-118.793 Y-46.89
X-118.273 Y-47.053
X-117.742 Y-47.174
X-117.203 Y-47.253
X-116.659 Y-47.288
X-116.114 Y-47.279
X-115.571 Y-47.226
X-115.033 Y-47.13
X-114.503 Y-46.99
X-113.982 Y-46.807
X-113.473 Y-46.581
X-112.979 Y-46.312
X-112.501 Y-46
X-112.045 Y-45.647
X-111.614 Y-45.254
X-111.213 Y-44.824
X-110.845 Y-44.36
X-110.514 Y-43.866
X-110.223 Y-43.346
X-109.975 Y-42.804
X-109.771 Y-42.245
X-109.613 Y-41.673
X-109.502 Y-41.092
X-109.439 Y-40.506
X-109.422 Y-39.918
X-109.453 Y-39.334
X-109.53 Y-38.755
X-109.653 Y-38.186
X-109.821 Y-37.63
X-110.033 Y-37.09
X-110.288 Y-36.568
X-110.583 Y-36.069
X-110.918 Y-35.595
X-111.291 Y-35.149
X-111.698 Y-34.733
X-112.139 Y-34.35
X-112.611 Y-34.002
X-113.111 Y-33.693
X-113.635 Y-33.424
X-114.182 Y-33.197
X-114.747 Y-33.014
X-115.328 Y-32.876
X-115.92 Y-32.785
X-116.52 Y-32.742
X-117.123 Y-32.747
X-117.727 Y-32.8
X-118.327 Y-32.902
X-118.919 Y-33.053
X-119.499 Y-33.251
X-120.063 Y-33.496
X-120.607 Y-33.787
X-121.128 Y-34.121
X-121.621 Y-34.497
X-122.085 Y-34.913
X-122.514 Y-35.365
X-122.907 Y-35.852
X-123.26 Y-36.37
X-123.571 Y-36.916
X-123.838 Y-37.486
X-124.059 Y-38.076
X-124.232 Y-38.684
X-124.355 Y-39.304
X-124.429 Y-39.933
X-124.452 Y-40.567
X-124.424 Y-41.201
X-124.345 Y-41.832
X-124.216 Y-42.454
X-124.037 Y-43.065
X-123.809 Y-43.66
X-123.534 Y-44.235
X-123.214 Y-44.786
X-122.85 Y-45.311
X-122.445 Y-45.804
X-122.002 Y-46.264
X-121.523 Y-46.687
X-121.011 Y-47.07
X-120.471 Y-47.411
X-119.904 Y-47.707
X-119.315 Y-47.957
X-118.709 Y-48.159
X-118.087 Y-48.312
X-117.456 Y-48.415
X-116.818 Y-48.466
X-116.177
X-115.538 Y-48.415
X-114.903 Y-48.312
X-114.276 Y-48.158
X-113.659 Y-47.952
X-113.057 Y-47.697
X-112.472 Y-47.391
X-111.909 Y-47.036
X-111.372 Y-46.634
X-110.865 Y-46.187
X-110.392 Y-45.697
X-109.959 Y-45.168
X-109.567 Y-44.604
X-109.221 Y-44.008
X-108.923 Y-43.386
X-108.677 Y-42.743
X-108.483 Y-42.083
X-108.343 Y-41.41
X-108.258 Y-40.73
X-108.228 Y-40.048
X-108.252 Y-39.366
X-108.331 Y-38.691
X-108.464 Y-38.025
X-108.649 Y-37.373
X-108.886 Y-36.739
X-109.173 Y-36.126
X-109.508 Y-35.538
X-109.889 Y-34.979
X-110.315 Y-34.451
X-110.782 Y-33.959
X-111.288 Y-33.504
X-111.831 Y-33.091
X-112.406 Y-32.722
X-113.011 Y-32.399
X-113.641 Y-32.125
X-114.294 Y-31.901
X-114.965 Y-31.731
X-115.649 Y-31.614
X-116.343 Y-31.552
X-117.042 Y-31.546
X-117.742 Y-31.597
X-118.438 Y-31.704
X-119.125 Y-31.866
X-119.798 Y-32.085
X-120.455 Y-32.357
X-121.089 Y-32.682
X-121.696 Y-33.058
X-122.273 Y-33.483
X-122.816 Y-33.953
X-123.32 Y-34.467
X-123.782 Y-35.021
X-124.199 Y-35.611
X-124.568 Y-36.234
X-124.886 Y-36.886
X-125.151 Y-37.562
X-125.362 Y-38.259
X-125.516 Y-38.971
X-125.613 Y-39.694
X-125.651 Y-40.423
X-125.631 Y-41.154
X-125.552 Y-41.881
X-125.415 Y-42.6
X-125.22 Y-43.307
X-124.97 Y-43.996
X-124.664 Y-44.663
X-124.306 Y-45.303
X-123.897 Y-45.914
X-123.441 Y-46.489
X-122.939 Y-47.027
X-122.396 Y-47.522
X-121.815 Y-47.973
X-121.199 Y-48.375
X-120.553 Y-48.727
X-119.881 Y-49.026
X-119.186 Y-49.27
X-118.474 Y-49.457
X-117.75 Y-49.587
X-117.017 Y-49.658
X-116.279 Y-49.67
X-115.543 Y-49.623
X-114.81 Y-49.517
X-114.086 Y-49.352
X-113.375 Y-49.128
X-112.684 Y-48.848
X-112.018 Y-48.514
X-111.381 Y-48.129
X-110.775 Y-47.695
X-110.206 Y-47.215
X-109.675 Y-46.692
X-109.186 Y-46.13
X-108.741 Y-45.532
X-108.343 Y-44.902
X-107.994 Y-44.244
X-107.697 Y-43.561
X-107.452 Y-42.857
X-107.261 Y-42.137
X-107.126 Y-41.404
X-107.047 Y-40.663
X-107.024 Y-39.918
X-107.06 Y-39.174
X-107.152 Y-38.435
X-107.301 Y-37.705
X-107.506 Y-36.989
X-107.766 Y-36.29
X-108.079 Y-35.615
X-108.444 Y-34.965
X-108.859 Y-34.346
X-109.32 Y-33.761
X-109.825 Y-33.213
X-110.37 Y-32.705
X-110.953 Y-32.241
X-111.57 Y-31.823
X-112.217 Y-31.453
X-112.89 Y-31.134
X-113.585 Y-30.867
X-114.299 Y-30.653
X-115.027 Y-30.494
X-115.765 Y-30.39
X-116.508 Y-30.342
X-117.253 Y-30.35
X-117.996 Y-30.413
X-118.731 Y-30.531
X-119.456 Y-30.705
X-120.165 Y-30.933
X-120.855 Y-31.213
X-121.523 Y-31.545
X-122.164 Y-31.924
X-122.776 Y-32.349
X-123.355 Y-32.818
X-123.898 Y-33.328
X-124.403 Y-33.876
X-124.867 Y-34.459
X-125.287 Y-35.074
X-125.662 Y-35.718
X-125.988 Y-36.388
X-126.263 Y-37.081
X-126.486 Y-37.792
X-126.657 Y-38.517
X-126.776 Y-39.252
X-126.842 Y-39.994
X-126.854 Y-40.739
X-126.814 Y-41.483
X-126.72 Y-42.222
X-126.574 Y-42.953
X-126.374 Y-43.671
X-126.121 Y-44.372
X-125.818 Y-45.052
X-125.467 Y-45.71
X-125.07 Y-46.34
X-124.629 Y-46.941
X-124.147 Y-47.509
X-123.625 Y-48.041
X-123.068 Y-48.534
X-122.476 Y-48.987
X-121.851 Y-49.394
X-121.199 Y-49.754
X-120.523 Y-50.066
X-119.826 Y-50.33
X-119.112 Y-50.543
X-118.385 Y-50.705
X-117.648 Y-50.814
X-116.905 Y-50.872
X-116.16 Y-50.877
X-115.416 Y-50.827
X-114.679 Y-50.722
X-113.951 Y-50.564
X-113.235 Y-50.355
X-112.537 Y-50.097
X-111.857 Y-49.791
X-111.201 Y-49.438
X-110.571 Y-49.041
X-109.969 Y-48.601
X-109.4 Y-48.12
X-108.867 Y-47.6
X-108.371 Y-47.044
X-107.914 Y-46.456
X-107.497 Y-45.838
X-107.123 Y-45.194
X-106.792 Y-44.526
X-106.507 Y-43.838
X-106.268 Y-43.132
X-106.08 Y-42.411
X-105.942 Y-41.679
X-105.854 Y-40.939
X-105.817 Y-40.195
X-105.83 Y-39.45
X-105.894 Y-38.708
X-106.007 Y-37.971
X-106.17 Y-37.244
X-106.381 Y-36.53
X-106.644 Y-35.832
X-106.955 Y-35.155
X-107.312 Y-34.502
X-107.714 Y-33.874
X-108.157 Y-33.275
X-108.639 Y-32.707
X-109.159 Y-32.173
X-109.714 Y-31.676
X-110.3 Y-31.217
X-110.918 Y-30.801
X-111.564 Y-30.428
X-112.233 Y-30.101
X-112.923 Y-29.82
X-113.63 Y-29.585
X-114.351 Y-29.398
X-115.083 Y-29.259
X-115.823 Y-29.169
X-116.567 Y-29.128
X-117.312 Y-29.138
X-118.054 Y-29.199
X-118.791 Y-29.31
X-119.519 Y-29.47
X-120.234 Y-29.678
X-120.934 Y-29.933
X-121.616 Y-30.233
X-122.277 Y-30.578
X-122.914 Y-30.964
X-123.524 Y-31.392
X-124.103 Y-31.86
X-124.651 Y-32.366
X-125.164 Y-32.906
X-125.642 Y-33.477
X-126.082 Y-34.079
X-126.482 Y-34.707
X-126.841 Y-35.36
X-127.156 Y-36.035
X-127.426 Y-36.729
X-127.649 Y-37.44
X-127.824 Y-38.165
X-127.952 Y-38.899
X-128.033 Y-39.639
X-128.067 Y-40.384
X-128.053 Y-41.128
X-127.992 Y-41.871
X-127.884 Y-42.608
X-127.73 Y-43.337
X-127.526 Y-44.054
X-127.275 Y-44.755
X-126.979 Y-45.439
X-126.638 Y-46.102
X-126.257 Y-46.742
X-125.836 Y-47.356
X-125.376 Y-47.943
X-124.881 Y-48.5
X-124.352 Y-49.024
X-123.79 Y-49.514
X-123.197 Y-49.964
X-122.575 Y-50.374
X-121.927 Y-50.743
X-121.257 Y-51.069
X-120.568 Y-51.351
X-119.862 Y-51.59
X-119.143 Y-51.784
X-118.413 Y-51.932
X-117.674 Y-52.034
X-116.931 Y-52.088
X-116.186 Y-52.093
X-115.443 Y-52.048
X-114.703 Y-51.955
X-113.972 Y-51.815
X-113.25 Y-51.629
X-112.542 Y-51.398
X-111.849 Y-51.124
X-111.175 Y-50.807
X-110.521 Y-50.45
X-109.891 Y-50.051
X-109.289 Y-49.613
X-108.716 Y-49.137
X-108.173 Y-48.626
X-107.663 Y-48.083
X-107.188 Y-47.509
X-106.747 Y-46.908
X-106.344 Y-46.282
X-105.978 Y-45.633
X-105.652 Y-44.963
X-105.368 Y-44.274
X-105.129 Y-43.569
X-104.934 Y-42.849
X-104.783 Y-42.12
X-104.678 Y-41.382
X-104.618 Y-40.64
X-104.602 Y-39.895
X-104.631 Y-39.15
X-104.705 Y-38.409
X-104.824 Y-37.673
X-104.988 Y-36.946
X-105.199 Y-36.232
X-105.455 Y-35.532
X-105.754 Y-34.85
X-106.094 Y-34.187
X-106.475 Y-33.547
X-106.894 Y-32.93
X-107.349 Y-32.341
X-107.84 Y-31.78
X-108.363 Y-31.249
X-108.918 Y-30.753
X-109.504 Y-30.292
X-110.118 Y-29.87
X-110.756 Y-29.486
X-111.417 Y-29.142
X-112.098 Y-28.838
X-112.795 Y-28.576
X-113.507 Y-28.356
X-114.23 Y-28.178
X-114.963 Y-28.044
X-115.703 Y-27.955
X-116.447 Y-27.912
X-117.192 Y-27.916
X-117.935 Y-27.964
X-118.675 Y-28.058
X-119.407 Y-28.195
X-120.13 Y-28.376
X-120.84 Y-28.599
X-121.537 Y-28.864
X-122.216 Y-29.169
X-122.877 Y-29.515
X-123.514 Y-29.9
X-124.127 Y-30.324
X-124.714 Y-30.783
X-125.272 Y-31.277
X-125.801 Y-31.802
X-126.298 Y-32.357
X-126.762 Y-32.939
X-127.192 Y-33.548
X-127.586 Y-34.18
X-127.942 Y-34.835
X-128.258 Y-35.51
X-128.531 Y-36.202
X-128.763 Y-36.911
X-128.952 Y-37.631
X-129.099 Y-38.362
X-129.204 Y-39.099
X-129.266 Y-39.842
X-129.286 Y-40.587
X-129.263 Y-41.331
X-129.198 Y-42.074
X-129.089 Y-42.811
X-128.935 Y-43.54
X-128.738 Y-44.258
X-128.498 Y-44.964
X-128.217 Y-45.654
X-127.897 Y-46.326
X-127.538 Y-46.979
X-127.143 Y-47.611
X-126.713 Y-48.219
X-126.249 Y-48.802
X-125.752 Y-49.357
X-125.223 Y-49.882
X-124.663 Y-50.374
X-124.075 Y-50.831
X-123.461 Y-51.253
X-122.823 Y-51.639
X-122.165 Y-51.987
X-121.487 Y-52.296
X-120.792 Y-52.566
X-120.084 Y-52.797
X-119.363 Y-52.986
X-118.633 Y-53.134
X-117.895 Y-53.238
X-117.153 Y-53.298
X-116.408 Y-53.313
X-115.663 Y-53.285
X-114.922 Y-53.214
X-114.185 Y-53.1
X-113.457 Y-52.945
X-112.738 Y-52.748
X-112.031 Y-52.511
X-111.34 Y-52.235
X-110.665 Y-51.919
X-110.01 Y-51.565
X-109.376 Y-51.173
X-108.766 Y-50.745
X-108.181 Y-50.283
X-107.623 Y-49.789
X-107.094 Y-49.265
X-106.595 Y-48.712
X-106.126 Y-48.132
X-105.69 Y-47.528
X-105.288 Y-46.901
X-104.922 Y-46.252
X-104.592 Y-45.584
X-104.301 Y-44.898
X-104.049 Y-44.197
X-103.837 Y-43.483
X-103.665 Y-42.758
X-103.533 Y-42.025
X-103.442 Y-41.285
X-103.391 Y-40.542
X-103.38 Y-39.797
X-103.411 Y-39.052
X-103.484 Y-38.311
X-103.599 Y-37.575
X-103.756 Y-36.846
X-103.954 Y-36.128
X-104.192 Y-35.422
X-104.47 Y-34.731
X-104.786 Y-34.056
X-105.139 Y-33.4
X-105.527 Y-32.764
X-105.95 Y-32.15
X-106.406 Y-31.562
X-106.895 Y-31
X-107.415 Y-30.466
X-107.965 Y-29.963
X-108.542 Y-29.492
X-109.145 Y-29.054
X-109.771 Y-28.65
X-110.419 Y-28.282
X-111.085 Y-27.949
X-111.769 Y-27.653
X-112.468 Y-27.395
X-113.18 Y-27.176
X-113.904 Y-26.997
X-114.636 Y-26.859
X-115.374 Y-26.761
X-116.117 Y-26.705
X-116.862 Y-26.69
X-117.607 Y-26.715
X-118.349 Y-26.782
X-119.086 Y-26.889
X-119.817 Y-27.035
X-120.538 Y-27.22
X-121.249 Y-27.445
X-121.946 Y-27.709
X-122.627 Y-28.01
X-123.291 Y-28.349
X-123.935 Y-28.723
X-124.558 Y-29.132
X-125.157 Y-29.574
X-125.732 Y-30.048
X-126.281 Y-30.552
X-126.803 Y-31.084
X-127.296 Y-31.642
X-127.759 Y-32.226
X-128.189 Y-32.834
X-128.586 Y-33.465
X-128.947 Y-34.117
X-129.273 Y-34.787
X-129.561 Y-35.474
X-129.812 Y-36.175
X-130.025 Y-36.889
X-130.199 Y-37.614
X-130.336 Y-38.346
X-130.433 Y-39.085
X-130.492 Y-39.828
X-130.512 Y-40.572
X-130.491 Y-41.317
X-130.431 Y-42.06
X-130.33 Y-42.798
X-130.19 Y-43.53
X-130.01 Y-44.253
X-129.792 Y-44.965
X-129.536 Y-45.665
X-129.244 Y-46.35
X-128.915 Y-47.019
X-128.553 Y-47.67
X-128.157 Y-48.301
X-127.727 Y-48.91
X-127.266 Y-49.495
X-126.774 Y-50.055
X-126.253 Y-50.587
X-125.704 Y-51.091
X-125.129 Y-51.565
X-124.529 Y-52.007
X-123.907 Y-52.416
X-123.264 Y-52.793
X-122.602 Y-53.135
X-121.923 Y-53.442
X-121.229 Y-53.712
X-120.521 Y-53.945
X-119.802 Y-54.14
X-119.073 Y-54.296
X-118.338 Y-54.414
X-117.597 Y-54.492
X-116.853 Y-54.53
X-116.108 Y-54.529
X-115.364 Y-54.488
X-114.623 Y-54.409
X-113.887 Y-54.291
X-113.159 Y-54.134
X-112.44 Y-53.939
X-111.732 Y-53.706
X-111.037 Y-53.436
X-110.358 Y-53.131
X-109.695 Y-52.79
X-109.052 Y-52.415
X-108.428 Y-52.007
X-107.827 Y-51.567
X-107.249 Y-51.097
X-106.696 Y-50.597
X-106.169 Y-50.071
X-105.669 Y-49.518
X-105.199 Y-48.94
X-104.759 Y-48.338
X-104.351 Y-47.716
X-103.974 Y-47.073
X-103.631 Y-46.411
X-103.322 Y-45.733
X-103.048 Y-45.04
X-102.81 Y-44.335
X-102.607 Y-43.617
X-102.442 Y-42.891
X-102.313 Y-42.157
X-102.221 Y-41.418
X-102.168 Y-40.675
X-102.153 Y-39.93
X-102.176 Y-39.185
X-102.237 Y-38.442
X-102.336 Y-37.704
X-102.473 Y-36.972
X-102.648 Y-36.247
X-102.859 Y-35.533
X-103.107 Y-34.83
X-103.391 Y-34.141
X-103.709 Y-33.467
X-104.062 Y-32.811
X-104.448 Y-32.174
X-104.866 Y-31.558
X-105.316 Y-30.963
X-105.795 Y-30.393
X-106.303 Y-29.848
X-106.839 Y-29.33
X-107.4 Y-28.84
X-107.985 Y-28.379
X-108.594 Y-27.949
X-109.223 Y-27.55
X-109.871 Y-27.183
X-110.538 Y-26.85
X-111.221 Y-26.552
X-111.918 Y-26.289
X-112.627 Y-26.061
X-113.347 Y-25.869
X-114.076 Y-25.714
X-114.811 Y-25.596
X-115.552 Y-25.516
X-116.296 Y-25.473
X-117.041 Y-25.467
X-117.785 Y-25.498
X-118.527 Y-25.567
X-119.265 Y-25.674
X-119.996 Y-25.817
X-120.719 Y-25.997
X-121.432 Y-26.214
X-122.133 Y-26.466
X-122.821 Y-26.752
X-123.493 Y-27.073
X-124.149 Y-27.426
X-124.786 Y-27.812
X-125.404 Y-28.229
X-126 Y-28.676
X-126.573 Y-29.152
X-127.122 Y-29.656
X-127.646 Y-30.186
X-128.142 Y-30.741
X-128.611 Y-31.321
X-129.05 Y-31.922
X-129.459 Y-32.545
X-129.837 Y-33.187
X-130.183 Y-33.847
X-130.495 Y-34.524
X-130.773 Y-35.215
X-131.018 Y-35.919
X-131.227 Y-36.634
X-131.401 Y-37.358
X-131.539 Y-38.09
X-131.641 Y-38.829
X-131.706 Y-39.571
X-131.736 Y-40.315
X-131.729 Y-41.06
X-131.685 Y-41.804
X-131.605 Y-42.545
X-131.489 Y-43.281
X-131.337 Y-44.01
X-131.149 Y-44.731
X-130.926 Y-45.442
X-130.669 Y-46.141
X-130.377 Y-46.827
X-130.051 Y-47.497
X-129.694 Y-48.151
X-129.305 Y-48.786
X-128.885 Y-49.402
X-128.436 Y-49.997
X-127.959 Y-50.569
X-127.455 Y-51.117
X-126.924 Y-51.64
X-126.368 Y-52.136
X-125.789 Y-52.605
X-125.188 Y-53.045
X-124.565 Y-53.454
X-123.923 Y-53.832
X-123.263 Y-54.178
X-122.587 Y-54.492
X-121.897 Y-54.772
X-121.194 Y-55.018
X-120.48 Y-55.23
X-119.756 Y-55.408
X-119.025 Y-55.549
X-118.287 Y-55.655
X-117.545 Y-55.725
X-116.801 Y-55.759
X-116.056 Y-55.757
X-115.312 Y-55.717
X-114.571 Y-55.641
X-113.834 Y-55.528
X-113.104 Y-55.381
X-112.382 Y-55.198
X-111.669 Y-54.98
X-110.968 Y-54.729
X-110.279 Y-54.444
X-109.605 Y-54.127
X-108.947 Y-53.777
X-108.306 Y-53.397
X-107.685 Y-52.986
X-107.083 Y-52.546
X-106.504 Y-52.078
X-105.948 Y-51.582
X-105.416 Y-51.06
X-104.91 Y-50.514
X-104.429 Y-49.944
X-103.976 Y-49.353
X-103.551 Y-48.741
X-103.155 Y-48.11
X-102.789 Y-47.461
X-102.453 Y-46.796
X-102.15 Y-46.115
X-101.878 Y-45.422
X-101.64 Y-44.716
X-101.436 Y-43.999
X-101.265 Y-43.274
X-101.129 Y-42.541
X-101.028 Y-41.803
X-100.961 Y-41.061
X-100.929 Y-40.317
X-100.933 Y-39.572
X-100.97 Y-38.827
X-101.043 Y-38.086
X-101.151 Y-37.349
X-101.293 Y-36.617
X-101.47 Y-35.894
X-101.681 Y-35.179
X-101.927 Y-34.476
X-102.206 Y-33.785
X-102.517 Y-33.108
X-102.86 Y-32.446
X-103.234 Y-31.802
X-103.638 Y-31.176
X-104.07 Y-30.569
X-104.531 Y-29.984
X-105.019 Y-29.421
X-105.533 Y-28.881
X-106.071 Y-28.366
X-106.634 Y-27.877
X-107.219 Y-27.416
X-107.825 Y-26.984
X-108.452 Y-26.58
X-109.096 Y-26.206
X-109.758 Y-25.863
X-110.434 Y-25.551
X-111.125 Y-25.272
X-111.828 Y-25.024
X-112.541 Y-24.809
X-113.264 Y-24.628
X-113.994 Y-24.481
X-114.73 Y-24.367
X-115.471 Y-24.288
X-116.215 Y-24.244
X-116.96 Y-24.236
X-117.705 Y-24.262
X-118.447 Y-24.322
X-119.186 Y-24.418
X-119.92 Y-24.547
X-120.647 Y-24.71
X-121.366 Y-24.907
X-122.074 Y-25.136
X-122.772 Y-25.398
X-123.457 Y-25.691
X-124.128 Y-26.016
X-124.783 Y-26.371
X-125.42 Y-26.756
X-126.039 Y-27.171
X-126.638 Y-27.614
X-127.216 Y-28.084
X-127.773 Y-28.58
X-128.306 Y-29.1
X-128.815 Y-29.644
X-129.298 Y-30.211
X-129.756 Y-30.799
X-130.186 Y-31.407
X-130.588 Y-32.035
X-130.962 Y-32.679
X-131.305 Y-33.341
X-131.617 Y-34.017
X-131.898 Y-34.707
X-132.146 Y-35.41
X-132.362 Y-36.123
X-132.546 Y-36.845
X-132.696 Y-37.575
X-132.814 Y-38.31
X-132.898 Y-39.051
X-132.949 Y-39.794
X-132.966 Y-40.539
X-132.95 Y-41.284
X-132.9 Y-42.027
X-132.817 Y-42.768
X-132.7 Y-43.503
X-132.549 Y-44.233
X-132.365 Y-44.955
X-132.148 Y-45.668
X-131.898 Y-46.37
X-131.617 Y-47.06
X-131.306 Y-47.736
X-130.963 Y-48.398
X-130.592 Y-49.044
X-130.192 Y-49.673
X-129.765 Y-50.283
X-129.31 Y-50.873
X-128.83 Y-51.443
X-128.324 Y-51.99
X-127.793 Y-52.513
X-127.239 Y-53.011
X-126.663 Y-53.484
X-126.066 Y-53.93
X-125.45 Y-54.348
X-124.815 Y-54.737
X-124.163 Y-55.098
X-123.495 Y-55.429
X-122.814 Y-55.73
X-122.119 Y-56
X-121.413 Y-56.239
X-120.698 Y-56.446
X-119.973 Y-56.621
X-119.242 Y-56.762
X-118.505 Y-56.87
X-117.763 Y-56.943
X-117.019 Y-56.984
X-116.274 Y-56.99
X-115.53 Y-56.963
X-114.787 Y-56.902
X-114.048 Y-56.808
X-113.314 Y-56.681
X-112.586 Y-56.521
X-111.866 Y-56.329
X-111.156 Y-56.106
X-110.455 Y-55.851
X-109.767 Y-55.565
X-109.093 Y-55.248
X-108.434 Y-54.901
X-107.79 Y-54.525
X-107.164 Y-54.121
X-106.557 Y-53.69
X-105.97 Y-53.232
X-105.403 Y-52.748
X-104.858 Y-52.24
X-104.335 Y-51.709
X-103.837 Y-51.155
X-103.362 Y-50.58
X-102.914 Y-49.986
X-102.491 Y-49.372
X-102.095 Y-48.741
X-101.728 Y-48.092
X-101.39 Y-47.429
X-101.081 Y-46.751
X-100.802 Y-46.06
X-100.554 Y-45.357
X-100.336 Y-44.645
X-100.15 Y-43.923
X-99.996 Y-43.194
X-99.873 Y-42.459
X-99.782 Y-41.72
X-99.723 Y-40.977
X-99.696 Y-40.233
X-99.702 Y-39.488
X-99.74 Y-38.744
X-99.812 Y-38.002
X-99.916 Y-37.264
X-100.052 Y-36.532
X-100.221 Y-35.806
X-100.421 Y-35.088
X-100.653 Y-34.38
X-100.916 Y-33.683
X-101.21 Y-32.998
X-101.532 Y-32.327
X-101.884 Y-31.67
X-102.264 Y-31.029
X-102.672 Y-30.406
X-103.106 Y-29.8
X-103.567 Y-29.215
X-104.054 Y-28.65
X-104.564 Y-28.108
X-105.099 Y-27.589
X-105.655 Y-27.093
X-106.233 Y-26.623
X-106.83 Y-26.178
X-107.447 Y-25.76
X-108.081 Y-25.369
X-108.732 Y-25.005
X-109.397 Y-24.671
X-110.077 Y-24.365
X-110.769 Y-24.089
X-111.472 Y-23.843
X-112.186 Y-23.628
X-112.908 Y-23.445
X-113.637 Y-23.293
X-114.373 Y-23.173
X-115.112 Y-23.085
X-115.855 Y-23.029
X-116.6 Y-23.005
X-117.345 Y-23.014
X-118.089 Y-23.055
X-118.831 Y-23.127
X-119.568 Y-23.232
X-120.301 Y-23.368
X-121.027 Y-23.535
X-121.745 Y-23.733
X-122.454 Y-23.962
X-123.152 Y-24.222
X-123.839 Y-24.511
X-124.512 Y-24.83
X-125.172 Y-25.177
X-125.815 Y-25.553
X-126.442 Y-25.955
X-127.051 Y-26.384
X-127.642 Y-26.839
X-128.212 Y-27.318
X-128.762 Y-27.82
X-129.29 Y-28.346
X-129.796 Y-28.893
X-130.279 Y-29.461
X-130.736 Y-30.049
X-131.168 Y-30.656
X-131.573 Y-31.281
X-131.951 Y-31.923
X-132.302 Y-32.58
X-132.624 Y-33.252
X-132.918 Y-33.937
X-133.181 Y-34.634
X-133.416 Y-35.341
X-133.62 Y-36.058
X-133.794 Y-36.782
X-133.937 Y-37.513
X-134.049 Y-38.25
X-134.131 Y-38.991
X-134.182 Y-39.734
X-134.2 Y-40.479
X-134.187 Y-41.224
X-134.143 Y-41.967
X-134.067 Y-42.709
X-133.96 Y-43.446
X-133.822 Y-44.178
X-133.653 Y-44.904
X-133.453 Y-45.621
X-133.223 Y-46.33
X-132.963 Y-47.029
X-132.675 Y-47.715
X-132.358 Y-48.39
X-132.013 Y-49.05
X-131.641 Y-49.696
X-131.241 Y-50.325
X-130.816 Y-50.936
X-130.365 Y-51.529
X-129.89 Y-52.103
X-129.39 Y-52.656
X-128.868 Y-53.188
X-128.324 Y-53.697
X-127.759 Y-54.182
X-127.174 Y-54.644
X-126.57 Y-55.08
X-125.948 Y-55.49
X-125.31 Y-55.875
X-124.656 Y-56.232
X-123.988 Y-56.561
X-123.306 Y-56.862
X-122.613 Y-57.134
X-121.908 Y-57.376
X-121.194 Y-57.589
X-120.472 Y-57.772
X-119.742 Y-57.924
X-119.007 Y-58.044
X-118.267 Y-58.134
X-117.525 Y-58.193
X-116.78 Y-58.221
X-116.035 Y-58.217
X-115.291 Y-58.182
X-114.549 Y-58.117
X-113.81 Y-58.02
X-113.076 Y-57.892
X-112.348 Y-57.734
X-111.627 Y-57.545
X-110.915 Y-57.326
X-110.212 Y-57.078
X-109.521 Y-56.801
X-108.841 Y-56.495
X-108.175 Y-56.162
X-107.523 Y-55.801
X-106.887 Y-55.413
X-106.267 Y-54.999
X-105.665 Y-54.561
X-105.081 Y-54.098
X-104.517 Y-53.611
X-103.973 Y-53.102
X-103.45 Y-52.571
X-102.95 Y-52.019
X-102.473 Y-51.446
X-102.02 Y-50.855
X-101.591 Y-50.246
X-101.187 Y-49.62
X-100.809 Y-48.978
X-100.457 Y-48.321
X-100.133 Y-47.65
X-99.836 Y-46.967
X-99.566 Y-46.272
X-99.326 Y-45.567
X-99.114 Y-44.853
X-98.931 Y-44.131
X-98.777 Y-43.402
X-98.654 Y-42.667
X-98.561 Y-41.928
X-98.499 Y-41.185
X-98.466 Y-40.441
X-98.463 Y-39.696
X-98.491 Y-38.951
X-98.55 Y-38.209
X-98.639 Y-37.469
X-98.757 Y-36.733
X-98.906 Y-36.003
X-99.085 Y-35.28
X-99.293 Y-34.564
X-99.53 Y-33.858
X-99.796 Y-33.162
X-100.089 Y-32.477
X-100.412 Y-31.806
X-100.761 Y-31.148
X-101.138 Y-30.505
X-101.54 Y-29.877
X-101.967 Y-29.267
X-102.419 Y-28.675
X-102.895 Y-28.101
X-103.394 Y-27.548
X-103.915 Y-27.015
X-104.457 Y-26.505
X-105.02 Y-26.016
X-105.602 Y-25.551
X-106.203 Y-25.11
X-106.821 Y-24.694
X-107.455 Y-24.303
X-108.105 Y-23.939
X-108.769 Y-23.602
X-109.447 Y-23.292
X-110.136 Y-23.009
X-110.837 Y-22.755
X-111.547 Y-22.529
X-112.265 Y-22.332
X-112.991 Y-22.164
X-113.723 Y-22.026
X-114.46 Y-21.917
X-115.201 Y-21.838
X-115.945 Y-21.789
X-116.689 Y-21.77
X-117.434 Y-21.781
X-118.178 Y-21.822
X-118.92 Y-21.894
X-119.658 Y-21.995
X-120.392 Y-22.126
X-121.119 Y-22.286
X-121.84 Y-22.475
X-122.552 Y-22.694
X-123.255 Y-22.94
X-123.948 Y-23.215
X-124.629 Y-23.517
X-125.298 Y-23.846
X-125.952 Y-24.201
X-126.593 Y-24.582
X-127.217 Y-24.989
X-127.825 Y-25.419
X-128.415 Y-25.874
X-128.987 Y-26.352
X-129.538 Y-26.853
X-130.07 Y-27.375
X-130.581 Y-27.918
X-131.069 Y-28.48
X-131.535 Y-29.061
X-131.978 Y-29.661
X-132.396 Y-30.277
X-132.79 Y-30.91
X-133.158 Y-31.557
X-133.5 Y-32.219
X-133.816 Y-32.894
X-134.105 Y-33.581
X-134.366 Y-34.279
X-134.6 Y-34.986
X-134.805 Y-35.702
X-134.981 Y-36.426
X-135.128 Y-37.157
X-135.247 Y-37.892
X-135.337 Y-38.632
X-135.398 Y-39.374
X-135.429 Y-40.119
X-135.431 Y-40.864
X-135.404 Y-41.609
X-135.347 Y-42.351
X-135.262 Y-43.092
X-135.147 Y-43.828
X-135.003 Y-44.559
X-134.83 Y-45.284
X-134.63 Y-46.001
X-134.4 Y-46.71
X-134.142 Y-47.409
X-133.857 Y-48.097
X-133.545 Y-48.774
X-133.207 Y-49.438
X-132.843 Y-50.088
X-132.454 Y-50.723
X-132.04 Y-51.343
X-131.603 Y-51.946
X-131.142 Y-52.531
X-130.658 Y-53.098
X-130.153 Y-53.645
X-129.626 Y-54.173
X-129.079 Y-54.679
X-128.513 Y-55.163
X-127.928 Y-55.624
X-127.325 Y-56.061
X-126.705 Y-56.474
X-126.069 Y-56.863
X-125.418 Y-57.226
X-124.754 Y-57.564
X-124.077 Y-57.875
X-123.388 Y-58.159
X-122.689 Y-58.416
X-121.98 Y-58.646
X-121.263 Y-58.848
X-120.539 Y-59.021
X-119.808 Y-59.166
X-119.072 Y-59.283
X-118.332 Y-59.37
X-117.589 Y-59.428
X-116.845 Y-59.457
X-116.099 Y-59.455
X-115.355 Y-59.425
X-114.612 Y-59.365
X-113.873 Y-59.277
X-113.137 Y-59.159
X-112.406 Y-59.013
X-111.682 Y-58.839
X-110.965 Y-58.636
X-110.256 Y-58.406
X-109.557 Y-58.149
X-108.868 Y-57.864
X-108.191 Y-57.553
X-107.527 Y-57.217
X-106.876 Y-56.855
X-106.239 Y-56.467
X-105.618 Y-56.055
X-105.014 Y-55.619
X-104.427 Y-55.16
X-103.858 Y-54.679
X-103.308 Y-54.176
X-102.778 Y-53.653
X-102.268 Y-53.11
X-101.779 Y-52.548
X-101.312 Y-51.967
X-100.867 Y-51.369
X-100.446 Y-50.755
X-100.048 Y-50.125
X-99.674 Y-49.481
X-99.325 Y-48.823
X-99.001 Y-48.152
X-98.703 Y-47.468
X-98.432 Y-46.774
X-98.188 Y-46.07
X-97.971 Y-45.358
X-97.781 Y-44.637
X-97.619 Y-43.91
X-97.484 Y-43.177
X-97.378 Y-42.44
X-97.299 Y-41.699
X-97.249 Y-40.956
X-97.227 Y-40.211
X-97.233 Y-39.466
X-97.268 Y-38.722
X-97.331 Y-37.979
X-97.422 Y-37.24
X-97.541 Y-36.504
X-97.689 Y-35.774
X-97.866 Y-35.05
X-98.07 Y-34.334
X-98.301 Y-33.626
X-98.56 Y-32.927
X-98.844 Y-32.238
X-99.156 Y-31.561
X-99.493 Y-30.897
X-99.855 Y-30.246
X-100.241 Y-29.609
X-100.652 Y-28.987
X-101.086 Y-28.381
X-101.543 Y-27.793
X-102.021 Y-27.222
X-102.522 Y-26.67
X-103.043 Y-26.137
X-103.584 Y-25.626
X-104.145 Y-25.135
X-104.725 Y-24.667
X-105.321 Y-24.22
X-105.935 Y-23.797
X-106.563 Y-23.398
X-107.207 Y-23.023
X-107.865 Y-22.672
X-108.535 Y-22.347
X-109.217 Y-22.048
X-109.91 Y-21.774
X-110.613 Y-21.527
X-111.325 Y-21.306
X-112.044 Y-21.113
X-112.771 Y-20.946
X-113.503 Y-20.808
X-114.24 Y-20.698
X-114.98 Y-20.616
X-115.723 Y-20.562
X-116.468 Y-20.536
X-117.213 Y-20.539
X-117.957 Y-20.569
X-118.7 Y-20.628
X-119.44 Y-20.715
X-120.176 Y-20.829
X-120.908 Y-20.971
X-121.633 Y-21.141
X-122.352 Y-21.337
X-123.063 Y-21.56
X-123.765 Y-21.81
X-124.457 Y-22.086
X-125.138 Y-22.388
X-125.807 Y-22.716
X-126.463 Y-23.068
X-127.106 Y-23.445
X-127.734 Y-23.846
X-128.347 Y-24.27
X-128.943 Y-24.717
X-129.523 Y-25.185
X-130.084 Y-25.675
X-130.627 Y-26.185
X-131.15 Y-26.715
X-131.654 Y-27.264
X-132.137 Y-27.832
X-132.599 Y-28.416
X-133.038 Y-29.018
X-133.455 Y-29.635
X-133.849 Y-30.268
X-134.218 Y-30.915
X-134.563 Y-31.576
X-134.883 Y-32.249
X-135.177 Y-32.933
X-135.446 Y-33.628
X-135.689 Y-34.332
X-135.906 Y-35.045
X-136.095 Y-35.765
X-136.259 Y-36.492
X-136.395 Y-37.225
X-136.504 Y-37.962
X-136.586 Y-38.703
X-136.641 Y-39.446
X-136.668 Y-40.19
Y-40.935
X-136.64 Y-41.68
X-136.585 Y-42.423
X-136.501 Y-43.163
X-136.39 Y-43.9
X-136.252 Y-44.632
X-136.087 Y-45.359
X-135.895 Y-46.078
X-135.676 Y-46.791
X-135.432 Y-47.494
X-135.161 Y-48.188
X-134.865 Y-48.872
X-134.544 Y-49.545
X-134.198 Y-50.205
X-133.829 Y-50.852
X-133.436 Y-51.485
X-133.02 Y-52.103
X-132.581 Y-52.705
X-132.121 Y-53.291
X-131.639 Y-53.859
X-131.136 Y-54.409
X-130.613 Y-54.939
X-130.071 Y-55.45
X-129.51 Y-55.941
X-128.932 Y-56.411
X-128.336 Y-56.859
X-127.724 Y-57.284
X-127.097 Y-57.687
X-126.456 Y-58.066
X-125.801 Y-58.422
X-125.134 Y-58.753
X-124.455 Y-59.059
X-123.765 Y-59.341
X-123.065 Y-59.597
X-122.357 Y-59.827
X-121.64 Y-60.03
X-120.916 Y-60.206
X-120.186 Y-60.355
X-119.451 Y-60.478
X-118.712 Y-60.574
X-117.97 Y-60.642
X-117.226 Y-60.682
X-116.481 Y-60.695
X-115.736 Y-60.681
X-114.993 Y-60.639
X-114.251 Y-60.57
X-113.512 Y-60.474
X-112.777 Y-60.351
X-112.047 Y-60.201
X-111.323 Y-60.025
X-110.606 Y-59.822
X-109.897 Y-59.593
X-109.197 Y-59.338
X-108.507 Y-59.057
X-107.828 Y-58.751
X-107.16 Y-58.421
X-106.504 Y-58.067
X-105.862 Y-57.689
X-105.234 Y-57.288
X-104.621 Y-56.864
X-104.024 Y-56.419
X-103.444 Y-55.952
X-102.88 Y-55.465
X-102.334 Y-54.957
X-101.807 Y-54.431
X-101.3 Y-53.885
X-100.812 Y-53.322
X-100.344 Y-52.742
X-99.898 Y-52.145
X-99.474 Y-51.532
X-99.073 Y-50.905
X-98.694 Y-50.264
X-98.337 Y-49.609
X-98.005 Y-48.942
X-97.697 Y-48.264
X-97.414 Y-47.575
X-97.155 Y-46.876
X-96.922 Y-46.168
X-96.714 Y-45.453
X-96.531 Y-44.731
X-96.375 Y-44.002
X-96.245 Y-43.269
X-96.141 Y-42.531
X-96.063 Y-41.79
X-96.012 Y-41.047
X-95.988 Y-40.302
X-95.992 Y-39.557
X-96.021 Y-38.812
X-96.078 Y-38.069
X-96.161 Y-37.329
X-96.271 Y-36.592
X-96.407 Y-35.86
X-96.57 Y-35.132
X-96.758 Y-34.412
X-96.973 Y-33.698
X-97.213 Y-32.993
X-97.479 Y-32.297
X-97.769 Y-31.61
X-98.083 Y-30.935
X-98.422 Y-30.271
X-98.784 Y-29.62
X-99.17 Y-28.983
X-99.579 Y-28.36
X-100.01 Y-27.752
X-100.463 Y-27.161
X-100.936 Y-26.585
X-101.43 Y-26.027
X-101.943 Y-25.488
X-102.476 Y-24.967
X-103.027 Y-24.466
X-103.596 Y-23.984
X-104.182 Y-23.524
X-104.784 Y-23.085
X-105.401 Y-22.667
X-106.033 Y-22.272
X-106.678 Y-21.9
X-107.336 Y-21.551
X-108.007 Y-21.226
X-108.688 Y-20.925
X-109.38 Y-20.649
X-110.082 Y-20.398
X-110.792 Y-20.172
X-111.509 Y-19.971
X-112.234 Y-19.796
X-112.964 Y-19.647
X-113.699 Y-19.524
X-114.437 Y-19.428
X-115.179 Y-19.358
X-115.923 Y-19.314
X-116.668 Y-19.297
X-117.413 Y-19.306
X-118.157 Y-19.341
X-118.899 Y-19.403
X-119.639 Y-19.491
X-120.376 Y-19.605
X-121.107 Y-19.746
X-121.833 Y-19.913
X-122.553 Y-20.105
X-123.266 Y-20.323
X-123.97 Y-20.566
X-124.666 Y-20.833
X-125.351 Y-21.125
X-126.026 Y-21.441
X-126.689 Y-21.781
X-127.339 Y-22.144
X-127.977 Y-22.53
X-128.601 Y-22.937
X-129.21 Y-23.367
X-129.803 Y-23.817
X-130.381 Y-24.288
X-130.941 Y-24.779
X-131.484 Y-25.289
X-132.009 Y-25.818
X-132.514 Y-26.365
X-133 Y-26.93
X-133.466 Y-27.511
X-133.912 Y-28.109
X-134.336 Y-28.721
X-134.738 Y-29.348
X-135.118 Y-29.989
X-135.476 Y-30.643
X-135.81 Y-31.309
X-136.12 Y-31.986
X-136.407 Y-32.673
X-136.67 Y-33.371
X-136.908 Y-34.077
X-137.121 Y-34.791
X-137.31 Y-35.511
X-137.473 Y-36.238
X-137.61 Y-36.971
X-137.721 Y-37.707
X-137.807 Y-38.448
X-137.867 Y-39.19
X-137.901 Y-39.934
X-137.91 Y-40.679
X-137.892 Y-41.424
X-137.848 Y-42.168
X-137.779 Y-42.91
X-137.683 Y-43.649
X-137.562 Y-44.384
X-137.415 Y-45.114
X-137.243 Y-45.839
X-137.046 Y-46.558
X-136.823 Y-47.269
X-136.577 Y-47.972
X-136.306 Y-48.666
X-136.01 Y-49.35
X-135.691 Y-50.023
X-135.348 Y-50.685
X-134.983 Y-51.334
X-134.595 Y-51.971
X-134.186 Y-52.593
X-133.756 Y-53.201
X-133.304 Y-53.794
X-132.832 Y-54.37
X-132.34 Y-54.93
X-131.829 Y-55.472
X-131.3 Y-55.997
X-130.753 Y-56.502
X-130.188 Y-56.989
X-129.607 Y-57.455
X-129.01 Y-57.901
X-128.398 Y-58.325
X-127.772 Y-58.729
X-127.131 Y-59.109
X-126.478 Y-59.467
X-125.812 Y-59.802
X-125.136 Y-60.114
X-124.449 Y-60.403
X-123.752 Y-60.667
X-123.047 Y-60.908
X-122.334 Y-61.123
X-121.613 Y-61.313
X-120.887 Y-61.479
X-120.155 Y-61.619
X-119.419 Y-61.733
X-118.679 Y-61.823
X-117.937 Y-61.886
X-117.193 Y-61.924
X-116.448 Y-61.935
X-115.703 Y-61.921
X-114.959 Y-61.881
X-114.217 Y-61.814
X-113.477 Y-61.722
X-112.742 Y-61.604
X-112.01 Y-61.461
X-111.285 Y-61.293
X-110.565 Y-61.101
X-109.852 Y-60.883
X-109.148 Y-60.641
X-108.452 Y-60.374
X-107.766 Y-60.084
X-107.09 Y-59.771
X-106.425 Y-59.435
X-105.772 Y-59.076
X-105.132 Y-58.695
X-104.505 Y-58.292
X-103.892 Y-57.868
X-103.294 Y-57.423
X-102.713 Y-56.958
X-102.147 Y-56.473
X-101.598 Y-55.969
X-101.067 Y-55.447
X-100.553 Y-54.907
X-100.058 Y-54.35
X-99.583 Y-53.776
X-99.127 Y-53.187
X-98.691 Y-52.583
X-98.276 Y-51.964
X-97.882 Y-51.331
X-97.51 Y-50.686
X-97.159 Y-50.029
X-96.831 Y-49.36
X-96.526 Y-48.68
X-96.244 Y-47.99
X-95.985 Y-47.292
X-95.751 Y-46.584
X-95.541 Y-45.87
X-95.355 Y-45.148
X-95.194 Y-44.421
X-95.057 Y-43.688
X-94.945 Y-42.952
X-94.858 Y-42.212
X-94.796 Y-41.469
X-94.759 Y-40.725
X-94.748 Y-39.98
X-94.762 Y-39.235
X-94.801 Y-38.491
X-94.864 Y-37.749
X-94.953 Y-37.009
X-95.067 Y-36.273
X-95.206 Y-35.541
X-95.37 Y-34.814
X-95.559 Y-34.093
X-95.772 Y-33.379
X-96.01 Y-32.673
X-96.271 Y-31.976
X-96.557 Y-31.287
X-96.865 Y-30.609
X-97.196 Y-29.941
X-97.549 Y-29.286
X-97.925 Y-28.642
X-98.322 Y-28.012
X-98.741 Y-27.395
X-99.18 Y-26.794
X-99.639 Y-26.207
X-100.118 Y-25.636
X-100.616 Y-25.082
X-101.132 Y-24.545
X-101.667 Y-24.025
X-102.218 Y-23.525
X-102.787 Y-23.043
X-103.371 Y-22.581
X-103.972 Y-22.14
X-104.586 Y-21.718
X-105.215 Y-21.318
X-105.856 Y-20.94
X-106.51 Y-20.583
X-107.176 Y-20.248
X-107.853 Y-19.936
X-108.54 Y-19.647
X-109.236 Y-19.382
X-109.94 Y-19.14
X-110.653 Y-18.921
X-111.372 Y-18.727
X-112.097 Y-18.557
X-112.828 Y-18.411
X-113.563 Y-18.29
X-114.302 Y-18.194
X-115.044 Y-18.123
X-115.787 Y-18.078
X-116.532 Y-18.057
X-117.277 Y-18.061
X-118.022 Y-18.091
X-118.765 Y-18.145
X-119.506 Y-18.224
X-120.243 Y-18.328
X-120.977 Y-18.456
X-121.706 Y-18.609
X-122.43 Y-18.787
X-123.147 Y-18.988
X-123.858 Y-19.213
X-124.56 Y-19.462
X-125.254 Y-19.734
X-125.938 Y-20.029
X-126.612 Y-20.347
X-127.275 Y-20.686
X-127.926 Y-21.049
X-128.564 Y-21.433
X-129.19 Y-21.838
X-129.801 Y-22.263
X-130.399 Y-22.709
X-130.981 Y-23.174
X-131.547 Y-23.658
X-132.097 Y-24.16
X-132.631 Y-24.68
X-133.146 Y-25.218
X-133.644 Y-25.773
X-134.122 Y-26.344
X-134.582 Y-26.93
X-135.023 Y-27.531
X-135.443 Y-28.146
X-135.842 Y-28.775
X-136.221 Y-29.417
X-136.578 Y-30.071
X-136.913 Y-30.737
X-137.225 Y-31.413
X-137.515 Y-32.099
X-137.781 Y-32.795
X-138.025 Y-33.499
X-138.245 Y-34.211
X-138.442 Y-34.93
X-138.615 Y-35.654
X-138.764 Y-36.384
X-138.889 Y-37.119
X-138.989 Y-37.857
X-139.066 Y-38.598
X-139.118 Y-39.341
X-139.145 Y-40.086
X-139.149 Y-40.831
X-139.127 Y-41.576
X-139.081 Y-42.319
X-139.011 Y-43.061
X-138.916 Y-43.8
X-138.796 Y-44.536
X-138.652 Y-45.267
X-138.484 Y-45.992
X-138.292 Y-46.712
X-138.077 Y-47.426
X-137.838 Y-48.131
X-137.576 Y-48.829
X-137.291 Y-49.517
X-136.984 Y-50.196
X-136.655 Y-50.864
X-136.303 Y-51.521
X-135.931 Y-52.167
X-135.537 Y-52.799
X-135.124 Y-53.419
X-134.69 Y-54.025
X-134.236 Y-54.616
X-133.764 Y-55.192
X-133.272 Y-55.752
X-132.762 Y-56.295
X-132.234 Y-56.821
X-131.69 Y-57.329
X-131.129 Y-57.819
X-130.552 Y-58.291
X-129.96 Y-58.743
X-129.353 Y-59.176
X-128.732 Y-59.588
X-128.099 Y-59.98
X-127.452 Y-60.35
X-126.794 Y-60.699
X-126.125 Y-61.027
X-125.445 Y-61.332
X-124.756 Y-61.615
X-124.058 Y-61.876
X-123.352 Y-62.113
X-122.638 Y-62.327
X-121.918 Y-62.518
X-121.191 Y-62.684
X-120.46 Y-62.826
X-119.724 Y-62.944
X-118.985 Y-63.038
X-118.243 Y-63.107
X-117.5 Y-63.153
X-116.755 Y-63.174
X-116.01 Y-63.17
X-115.265 Y-63.142
X-114.522 Y-63.089
X-113.781 Y-63.012
X-113.043 Y-62.911
X-112.308 Y-62.786
X-111.578 Y-62.637
X-110.854 Y-62.464
X-110.135 Y-62.268
X-109.423 Y-62.049
X-108.718 Y-61.806
X-108.022 Y-61.541
X-107.335 Y-61.252
X-106.658 Y-60.942
X-105.991 Y-60.609
X-105.336 Y-60.255
X-104.692 Y-59.88
X-104.06 Y-59.485
X-103.442 Y-59.069
X-102.838 Y-58.633
X-102.248 Y-58.178
X-101.673 Y-57.704
X-101.114 Y-57.212
X-100.571 Y-56.702
X-100.044 Y-56.175
X-99.534 Y-55.631
X-99.042 Y-55.072
X-98.569 Y-54.496
X-98.114 Y-53.907
X-97.678 Y-53.302
X-97.262 Y-52.684
X-96.866 Y-52.053
X-96.491 Y-51.409
X-96.136 Y-50.754
X-95.803 Y-50.088
X-95.491 Y-49.411
X-95.201 Y-48.725
X-94.933 Y-48.03
X-94.687 Y-47.326
X-94.464 Y-46.615
X-94.264 Y-45.897
X-94.088 Y-45.174
X-93.934 Y-44.445
X-93.803 Y-43.711
X-93.696 Y-42.974
X-93.613 Y-42.233
X-93.553 Y-41.491
X-93.517 Y-40.747
X-93.505 Y-40.002
X-93.517 Y-39.257
X-93.554 Y-38.512
X-93.614 Y-37.77
X-93.698 Y-37.029
X-93.806 Y-36.292
X-93.937 Y-35.559
X-94.092 Y-34.83
X-94.27 Y-34.107
X-94.472 Y-33.389
X-94.696 Y-32.679
X-94.944 Y-31.976
X-95.213 Y-31.282
X-95.505 Y-30.596
X-95.819 Y-29.92
X-96.154 Y-29.255
X-96.51 Y-28.6
X-96.887 Y-27.958
X-97.285 Y-27.328
X-97.703 Y-26.711
X-98.141 Y-26.108
X-98.598 Y-25.52
X-99.073 Y-24.946
X-99.567 Y-24.388
X-100.079 Y-23.846
X-100.607 Y-23.321
X-101.152 Y-22.813
X-101.713 Y-22.323
X-102.29 Y-21.851
X-102.881 Y-21.398
X-103.487 Y-20.964
X-104.107 Y-20.55
X-104.739 Y-20.156
X-105.383 Y-19.782
X-106.039 Y-19.429
X-106.706 Y-19.096
X-107.383 Y-18.786
X-108.07 Y-18.497
X-108.766 Y-18.23
X-109.47 Y-17.986
X-110.181 Y-17.765
X-110.899 Y-17.566
X-111.623 Y-17.39
X-112.352 Y-17.238
X-113.086 Y-17.108
X-113.824 Y-17.002
X-114.564 Y-16.92
X-115.307 Y-16.861
X-116.051 Y-16.826
X-116.796 Y-16.815
X-117.541 Y-16.827
X-118.285 Y-16.863
X-119.028 Y-16.923
X-119.768 Y-17.005
X-120.506 Y-17.112
X-121.24 Y-17.241
X-121.969 Y-17.394
X-122.693 Y-17.571
X-123.411 Y-17.77
X-124.122 Y-17.992
X-124.826 Y-18.236
X-125.521 Y-18.503
X-126.208 Y-18.791
X-126.886 Y-19.101
X-127.554 Y-19.432
X-128.21 Y-19.784
X-128.855 Y-20.156
X-129.488 Y-20.549
X-130.109 Y-20.962
X-130.716 Y-21.394
X-131.309 Y-21.844
X-131.888 Y-22.313
X-132.452 Y-22.8
X-133.001 Y-23.304
X-133.533 Y-23.826
X-134.049 Y-24.363
X-134.547 Y-24.917
X-135.028 Y-25.487
X-135.49 Y-26.071
X-135.934 Y-26.669
X-136.359 Y-27.281
X-136.764 Y-27.906
X-137.15 Y-28.544
X-137.516 Y-29.193
X-137.861 Y-29.853
X-138.185 Y-30.524
X-138.487 Y-31.205
X-138.768 Y-31.895
X-139.028 Y-32.594
X-139.265 Y-33.3
X-139.481 Y-34.013
X-139.674 Y-34.733
X-139.844 Y-35.458
X-139.992 Y-36.188
X-140.117 Y-36.923
X-140.218 Y-37.661
X-140.297 Y-38.402
X-140.352 Y-39.145
X-140.384 Y-39.889
X-140.392 Y-40.634
X-140.378 Y-41.379
X-140.34 Y-42.123
X-140.279 Y-42.866
X-140.195 Y-43.606
X-140.088 Y-44.343
X-139.957 Y-45.077
X-139.804 Y-45.806
X-139.628 Y-46.53
X-139.43 Y-47.248
X-139.209 Y-47.96
X-138.966 Y-48.664
X-138.702 Y-49.361
X-138.416 Y-50.049
X-138.108 Y-50.727
X-137.779 Y-51.396
X-137.43 Y-52.054
X-137.06 Y-52.701
X-136.67 Y-53.336
X-136.26 Y-53.958
X-135.832 Y-54.568
X-135.385 Y-55.163
X-134.919 Y-55.745
X-134.436 Y-56.312
X-133.935 Y-56.863
X-133.417 Y-57.399
X-132.882 Y-57.918
X-132.332 Y-58.42
X-131.766 Y-58.905
X-131.185 Y-59.372
X-130.59 Y-59.821
X-129.982 Y-60.251
X-129.36 Y-60.662
X-128.726 Y-61.053
X-128.08 Y-61.424
X-127.423 Y-61.774
X-126.755 Y-62.104
X-126.077 Y-62.413
X-125.389 Y-62.701
X-124.694 Y-62.967
X-123.99 Y-63.211
X-123.279 Y-63.434
X-122.561 Y-63.634
X-121.838 Y-63.812
X-121.109 Y-63.967
X-120.376 Y-64.099
X-119.639 Y-64.209
X-118.899 Y-64.295
X-118.156 Y-64.359
X-117.412 Y-64.399
X-116.667 Y-64.417
X-115.922 Y-64.411
X-115.178 Y-64.382
X-114.435 Y-64.33
X-113.693 Y-64.254
X-112.955 Y-64.155
X-112.22 Y-64.033
X-111.489 Y-63.889
X-110.763 Y-63.722
X-110.042 Y-63.533
X-109.328 Y-63.322
X-108.62 Y-63.089
X-107.92 Y-62.833
X-107.228 Y-62.557
X-106.545 Y-62.259
X-105.872 Y-61.94
X-105.209 Y-61.6
X-104.556 Y-61.241
X-103.915 Y-60.861
X-103.286 Y-60.463
X-102.669 Y-60.045
X-102.065 Y-59.608
X-101.475 Y-59.153
X-100.9 Y-58.679
X-100.339 Y-58.189
X-99.794 Y-57.681
X-99.265 Y-57.157
X-98.751 Y-56.617
X-98.255 Y-56.061
X-97.775 Y-55.491
X-97.313 Y-54.907
X-96.869 Y-54.308
X-96.443 Y-53.697
X-96.037 Y-53.073
X-95.649 Y-52.436
X-95.281 Y-51.788
X-94.933 Y-51.13
X-94.605 Y-50.461
X-94.297 Y-49.782
X-94.01 Y-49.095
X-93.744 Y-48.399
X-93.499 Y-47.695
X-93.276 Y-46.984
X-93.075 Y-46.267
X-92.896 Y-45.543
X-92.739 Y-44.815
X-92.605 Y-44.082
X-92.492 Y-43.346
X-92.402 Y-42.606
X-92.334 Y-41.864
X-92.289 Y-41.121
X-92.266 Y-40.376
X-92.267 Y-39.631
X-92.29 Y-38.886
X-92.335 Y-38.142
X-92.404 Y-37.4
X-92.494 Y-36.661
X-92.608 Y-35.925
X-92.743 Y-35.192
X-92.901 Y-34.464
X-93.081 Y-33.741
X-93.283 Y-33.024
X-93.507 Y-32.313
X-93.753 Y-31.61
X-94.02 Y-30.914
X-94.309 Y-30.227
X-94.618 Y-29.55
X-94.948 Y-28.881
X-95.298 Y-28.224
X-95.668 Y-27.577
X-96.057 Y-26.942
X-96.466 Y-26.319
X-96.893 Y-25.708
X-97.339 Y-25.112
X-97.803 Y-24.529
X-98.284 Y-23.96
X-98.783 Y-23.406
X-99.298 Y-22.868
X-99.829 Y-22.345
X-100.376 Y-21.839
X-100.938 Y-21.35
X-101.515 Y-20.878
X-102.106 Y-20.425
X-102.71 Y-19.989
X-103.328 Y-19.573
X-103.958 Y-19.175
X-104.6 Y-18.797
X-105.253 Y-18.438
X-105.916 Y-18.099
X-106.59 Y-17.78
X-107.272 Y-17.482
X-107.964 Y-17.204
X-108.664 Y-16.948
X-109.371 Y-16.713
X-110.085 Y-16.5
X-110.805 Y-16.308
X-111.53 Y-16.138
X-112.26 Y-15.99
X-112.995 Y-15.864
X-113.732 Y-15.761
X-114.473 Y-15.679
X-115.216 Y-15.62
X-115.96 Y-15.584
X-116.705 Y-15.571
X-117.45 Y-15.58
X-118.194 Y-15.612
X-118.937 Y-15.666
X-119.679 Y-15.742
X-120.417 Y-15.841
X-121.152 Y-15.962
X-121.883 Y-16.104
X-122.61 Y-16.269
X-123.331 Y-16.456
X-124.047 Y-16.664
X-124.755 Y-16.894
X-125.457 Y-17.145
X-126.151 Y-17.417
X-126.836 Y-17.709
X-127.512 Y-18.022
X-128.179 Y-18.355
X-128.835 Y-18.708
X-129.48 Y-19.08
X-130.114 Y-19.472
X-130.736 Y-19.883
X-131.345 Y-20.312
X-131.94 Y-20.759
X-132.523 Y-21.224
X-133.091 Y-21.706
X-133.645 Y-22.205
X-134.183 Y-22.719
X-134.706 Y-23.25
X-135.213 Y-23.796
X-135.703 Y-24.357
X-136.177 Y-24.933
X-136.633 Y-25.522
X-137.071 Y-26.124
X-137.491 Y-26.74
X-137.893 Y-27.367
X-138.276 Y-28.006
X-138.64 Y-28.656
X-138.984 Y-29.317
X-139.308 Y-29.988
X-139.611 Y-30.669
X-139.894 Y-31.358
X-140.157 Y-32.055
X-140.398 Y-32.76
X-140.618 Y-33.472
X-140.818 Y-34.19
X-140.996 Y-34.913
X-141.152 Y-35.642
X-141.287 Y-36.374
X-141.4 Y-37.111
X-141.49 Y-37.85
X-141.559 Y-38.592
X-141.606 Y-39.336
X-141.631 Y-40.08
X-141.634 Y-40.826
X-141.615 Y-41.57
X-141.574 Y-42.314
X-141.51 Y-43.057
X-141.425 Y-43.797
X-141.318 Y-44.534
X-141.188 Y-45.268
X-141.037 Y-45.997
X-140.863 Y-46.722
X-140.669 Y-47.441
X-140.453 Y-48.154
X-140.216 Y-48.861
X-139.959 Y-49.56
X-139.68 Y-50.251
X-139.382 Y-50.934
X-139.063 Y-51.607
X-138.725 Y-52.271
X-138.366 Y-52.924
X-137.989 Y-53.567
X-137.593 Y-54.198
X-137.179 Y-54.817
X-136.746 Y-55.424
X-136.296 Y-56.017
X-135.828 Y-56.597
X-135.344 Y-57.163
X-134.843 Y-57.715
X-134.325 Y-58.251
X-133.792 Y-58.771
X-133.243 Y-59.275
X-132.68 Y-59.762
X-132.102 Y-60.233
X-131.511 Y-60.687
X-130.907 Y-61.122
X-130.29 Y-61.54
X-129.661 Y-61.94
X-129.02 Y-62.32
X-128.369 Y-62.681
X-127.706 Y-63.023
X-127.035 Y-63.345
X-126.353 Y-63.647
X-125.664 Y-63.929
X-124.966 Y-64.19
X-124.261 Y-64.431
X-123.549 Y-64.651
X-122.831 Y-64.85
X-122.107 Y-65.027
X-121.379 Y-65.183
X-120.646 Y-65.316
X-119.909 Y-65.428
X-119.17 Y-65.518
X-118.428 Y-65.586
X-117.684 Y-65.632
X-116.939 Y-65.657
X-116.194 Y-65.659
X-115.45 Y-65.639
X-114.706 Y-65.597
X-113.963 Y-65.533
X-113.223 Y-65.447
X-112.486 Y-65.34
X-111.752 Y-65.21
X-111.023 Y-65.06
X-110.298 Y-64.887
X-109.578 Y-64.694
X-108.864 Y-64.48
X-108.157 Y-64.245
X-107.458 Y-63.989
X-106.766 Y-63.713
X-106.082 Y-63.416
X-105.408 Y-63.099
X-104.744 Y-62.762
X-104.089 Y-62.406
X-103.445 Y-62.031
X-102.812 Y-61.638
X-102.191 Y-61.226
X-101.583 Y-60.796
X-100.987 Y-60.349
X-100.404 Y-59.885
X-99.836 Y-59.403
X-99.281 Y-58.905
X-98.742 Y-58.392
X-98.217 Y-57.863
X-97.708 Y-57.319
X-97.215 Y-56.76
X-96.738 Y-56.188
X-96.278 Y-55.602
X-95.835 Y-55.003
X-95.409 Y-54.391
X-95.002 Y-53.767
X-94.613 Y-53.131
X-94.243 Y-52.485
X-93.892 Y-51.828
X-93.56 Y-51.161
X-93.247 Y-50.485
X-92.954 Y-49.8
X-92.68 Y-49.107
X-92.427 Y-48.406
X-92.194 Y-47.698
X-91.982 Y-46.984
X-91.791 Y-46.264
X-91.621 Y-45.538
X-91.471 Y-44.809
X-91.343 Y-44.075
X-91.236 Y-43.337
X-91.15 Y-42.597
X-91.086 Y-41.855
X-91.043 Y-41.111
X-91.021 Y-40.366
Y-39.621
X-91.043 Y-38.877
X-91.087 Y-38.133
X-91.153 Y-37.391
X-91.24 Y-36.651
X-91.348 Y-35.913
X-91.478 Y-35.18
X-91.629 Y-34.45
X-91.801 Y-33.725
X-91.994 Y-33.006
X-92.207 Y-32.292
X-92.442 Y-31.585
X-92.697 Y-30.885
X-92.973 Y-30.192
X-93.268 Y-29.508
X-93.583 Y-28.833
X-93.917 Y-28.167
X-94.271 Y-27.511
X-94.643 Y-26.866
X-95.034 Y-26.232
X-95.443 Y-25.609
X-95.87 Y-24.998
X-96.315 Y-24.401
X-96.777 Y-23.816
X-97.256 Y-23.246
X-97.751 Y-22.689
X-98.263 Y-22.147
X-98.789 Y-21.62
X-99.331 Y-21.109
X-99.887 Y-20.613
X-100.457 Y-20.134
X-101.042 Y-19.671
X-101.639 Y-19.226
X-102.249 Y-18.798
X-102.871 Y-18.388
X-103.505 Y-17.996
X-104.15 Y-17.623
X-104.805 Y-17.268
X-105.47 Y-16.932
X-106.144 Y-16.615
X-106.828 Y-16.318
X-107.519 Y-16.041
X-108.219 Y-15.784
X-108.925 Y-15.548
X-109.638 Y-15.333
X-110.357 Y-15.137
X-111.082 Y-14.963
X-111.811 Y-14.81
X-112.544 Y-14.677
X-113.281 Y-14.565
X-114.02 Y-14.475
X-114.762 Y-14.406
X-115.506 Y-14.359
X-116.25 Y-14.333
X-116.995 Y-14.329
X-117.74 Y-14.346
X-118.484 Y-14.384
X-119.227 Y-14.443
X-119.968 Y-14.524
X-120.706 Y-14.626
X-121.441 Y-14.749
X-122.172 Y-14.893
X-122.898 Y-15.058
X-123.62 Y-15.243
X-124.336 Y-15.45
X-125.045 Y-15.678
X-125.748 Y-15.925
X-126.443 Y-16.193
X-127.131 Y-16.48
X-127.81 Y-16.786
X-128.48 Y-17.112
X-129.14 Y-17.457
X-129.791 Y-17.82
X-130.43 Y-18.203
X-131.059 Y-18.603
X-131.675 Y-19.021
X-132.28 Y-19.456
X-132.872 Y-19.909
X-133.451 Y-20.378
X-134.017 Y-20.863
X-134.568 Y-21.364
X-135.105 Y-21.88
X-135.627 Y-22.411
X-136.134 Y-22.957
X-136.625 Y-23.518
X-137.1 Y-24.092
X-137.558 Y-24.68
X-137.999 Y-25.28
X-138.423 Y-25.893
X-138.83 Y-26.517
X-139.218 Y-27.153
X-139.589 Y-27.799
X-139.941 Y-28.456
X-140.274 Y-29.123
X-140.588 Y-29.798
X-140.882 Y-30.483
X-141.157 Y-31.175
X-141.412 Y-31.875
X-141.647 Y-32.582
X-141.863 Y-33.295
X-142.058 Y-34.014
X-142.233 Y-34.739
X-142.387 Y-35.468
X-142.521 Y-36.201
X-142.633 Y-36.937
X-142.725 Y-37.676
X-142.795 Y-38.418
X-142.845 Y-39.162
X-142.873 Y-39.906
X-142.88 Y-40.651
X-142.867 Y-41.396
X-142.832 Y-42.14
X-142.776 Y-42.883
X-142.7 Y-43.625
X-142.602 Y-44.363
X-142.484 Y-45.099
X-142.344 Y-45.831
X-142.184 Y-46.558
X-142.003 Y-47.281
X-141.802 Y-47.998
X-141.581 Y-48.71
X-141.34 Y-49.415
X-141.079 Y-50.113
X-140.799 Y-50.803
X-140.499 Y-51.485
X-140.18 Y-52.159
X-139.842 Y-52.823
X-139.485 Y-53.477
X-139.11 Y-54.12
X-138.717 Y-54.753
X-138.306 Y-55.375
X-137.878 Y-55.984
X-137.433 Y-56.582
X-136.971 Y-57.167
X-136.493 Y-57.738
X-135.999 Y-58.296
X-135.489 Y-58.839
X-134.964 Y-59.368
X-134.425 Y-59.882
X-133.871 Y-60.38
X-133.303 Y-60.862
X-132.722 Y-61.329
X-132.128 Y-61.778
X-131.521 Y-62.211
X-130.903 Y-62.627
X-130.273 Y-63.025
X-129.632 Y-63.405
X-128.981 Y-63.767
X-128.319 Y-64.11
X-127.648 Y-64.433
X-126.969 Y-64.738
X-126.28 Y-65.024
X-125.585 Y-65.29
X-124.881 Y-65.537
X-124.172 Y-65.764
X-123.456 Y-65.97
X-122.735 Y-66.157
X-122.008 Y-66.323
X-121.277 Y-66.468
X-120.543 Y-66.593
X-119.805 Y-66.696
X-119.065 Y-66.779
X-118.322 Y-66.841
X-117.578 Y-66.883
X-116.833 Y-66.903
X-116.088 Y-66.902
X-115.344 Y-66.881
X-114.6 Y-66.838
X-113.857 Y-66.775
X-113.117 Y-66.69
X-112.38 Y-66.584
X-111.645 Y-66.458
X-110.915 Y-66.311
X-110.189 Y-66.143
X-109.468 Y-65.956
X-108.752 Y-65.748
X-108.043 Y-65.521
X-107.34 Y-65.274
X-106.644 Y-65.007
X-105.957 Y-64.72
X-105.277 Y-64.415
X-104.607 Y-64.09
X-103.945 Y-63.747
X-103.294 Y-63.386
X-102.652 Y-63.006
X-102.022 Y-62.609
X-101.403 Y-62.195
X-100.795 Y-61.764
X-100.2 Y-61.315
X-99.617 Y-60.851
X-99.048 Y-60.37
X-98.493 Y-59.873
X-97.951 Y-59.361
X-97.424 Y-58.835
X-96.912 Y-58.294
X-96.415 Y-57.739
X-95.933 Y-57.171
X-95.467 Y-56.589
X-95.018 Y-55.995
X-94.585 Y-55.389
X-94.168 Y-54.771
X-93.77 Y-54.141
X-93.389 Y-53.501
X-93.025 Y-52.851
X-92.68 Y-52.191
X-92.353 Y-51.521
X-92.044 Y-50.843
X-91.754 Y-50.157
X-91.484 Y-49.462
X-91.232 Y-48.761
X-91 Y-48.053
X-90.787 Y-47.339
X-90.595 Y-46.619
X-90.423 Y-45.894
X-90.271 Y-45.165
X-90.139 Y-44.432
X-90.027 Y-43.695
X-89.936 Y-42.956
X-89.865 Y-42.214
X-89.814 Y-41.471
X-89.784 Y-40.726
X-89.774 Y-39.981
X-89.785 Y-39.236
X-89.817 Y-38.492
X-89.87 Y-37.749
X-89.943 Y-37.007
X-90.036 Y-36.268
X-90.15 Y-35.532
X-90.284 Y-34.799
X-90.438 Y-34.07
X-90.612 Y-33.345
X-90.806 Y-32.626
X-91.02 Y-31.912
X-91.254 Y-31.205
X-91.508 Y-30.505
X-91.782 Y-29.811
X-92.074 Y-29.126
X-92.385 Y-28.449
X-92.715 Y-27.781
X-93.063 Y-27.122
X-93.429 Y-26.473
X-93.813 Y-25.835
X-94.215 Y-25.207
X-94.633 Y-24.591
X-95.069 Y-23.986
X-95.521 Y-23.394
X-95.99 Y-22.815
X-96.474 Y-22.249
X-96.974 Y-21.696
X-97.489 Y-21.158
X-98.018 Y-20.634
X-98.562 Y-20.124
X-99.119 Y-19.63
X-99.69 Y-19.151
X-100.274 Y-18.689
X-100.871 Y-18.243
X-101.48 Y-17.814
X-102.101 Y-17.402
X-102.733 Y-17.007
X-103.375 Y-16.629
X-104.028 Y-16.27
X-104.69 Y-15.928
X-105.361 Y-15.605
X-106.041 Y-15.3
X-106.729 Y-15.014
X-107.425 Y-14.748
X-108.128 Y-14.5
X-108.837 Y-14.272
X-109.552 Y-14.064
X-110.273 Y-13.875
X-110.999 Y-13.706
X-111.729 Y-13.557
X-112.463 Y-13.428
X-113.2 Y-13.319
X-113.94 Y-13.231
X-114.682 Y-13.163
X-115.425 Y-13.115
X-116.17 Y-13.088
X-116.915 Y-13.082
X-117.66 Y-13.096
X-118.404 Y-13.131
X-119.147 Y-13.185
X-119.888 Y-13.26
X-120.627 Y-13.356
X-121.363 Y-13.471
X-122.096 Y-13.606
X-122.825 Y-13.762
X-123.549 Y-13.937
X-124.268 Y-14.133
X-124.981 Y-14.348
X-125.688 Y-14.582
X-126.389 Y-14.836
X-127.082 Y-15.108
X-127.768 Y-15.399
X-128.446 Y-15.709
X-129.115 Y-16.037
X-129.775 Y-16.383
X-130.425 Y-16.747
X-131.064 Y-17.129
X-131.693 Y-17.528
X-132.311 Y-17.945
X-132.918 Y-18.378
X-133.512 Y-18.827
X-134.094 Y-19.292
X-134.663 Y-19.773
X-135.219 Y-20.269
X-135.761 Y-20.78
X-136.29 Y-21.305
X-136.804 Y-21.845
X-137.302 Y-22.398
X-137.786 Y-22.965
X-138.254 Y-23.544
X-138.706 Y-24.137
X-139.142 Y-24.741
X-139.562 Y-25.357
X-139.965 Y-25.983
X-140.35 Y-26.621
X-140.719 Y-27.268
X-141.069 Y-27.926
X-141.402 Y-28.592
X-141.716 Y-29.268
X-142.012 Y-29.952
X-142.289 Y-30.644
X-142.546 Y-31.343
X-142.785 Y-32.049
X-143.005 Y-32.76
X-143.205 Y-33.478
X-143.387 Y-34.201
X-143.548 Y-34.928
X-143.69 Y-35.66
X-143.812 Y-36.394
X-143.914 Y-37.133
X-143.996 Y-37.873
X-144.058 Y-38.616
X-144.1 Y-39.359
X-144.122 Y-40.104
X-144.124 Y-40.849
X-144.106 Y-41.594
X-144.068 Y-42.338
X-144.01 Y-43.081
X-143.931 Y-43.822
X-143.833 Y-44.56
X-143.715 Y-45.296
X-143.576 Y-46.028
X-143.418 Y-46.756
X-143.24 Y-47.48
X-143.042 Y-48.198
X-142.825 Y-48.911
X-142.59 Y-49.618
X-142.335 Y-50.318
X-142.061 Y-51.011
X-141.769 Y-51.696
X-141.459 Y-52.374
X-141.13 Y-53.042
X-140.784 Y-53.702
X-140.419 Y-54.352
X-140.037 Y-54.991
X-139.639 Y-55.621
X-139.223 Y-56.239
X-138.791 Y-56.846
X-138.343 Y-57.441
X-137.879 Y-58.025
X-137.4 Y-58.595
X-136.905 Y-59.152
X-136.396 Y-59.696
X-135.871 Y-60.225
X-135.333 Y-60.74
X-134.781 Y-61.24
X-134.215 Y-61.725
X-133.637 Y-62.195
X-133.046 Y-62.649
X-132.443 Y-63.087
X-131.829 Y-63.508
X-131.203 Y-63.913
X-130.567 Y-64.301
X-129.921 Y-64.672
X-129.265 Y-65.025
X-128.599 Y-65.36
X-127.925 Y-65.677
X-127.242 Y-65.975
X-126.552 Y-66.256
X-125.854 Y-66.517
X-125.15 Y-66.76
X-124.439 Y-66.984
X-123.723 Y-67.189
X-123.002 Y-67.375
X-122.275 Y-67.541
X-121.545 Y-67.687
X-120.81 Y-67.813
X-120.073 Y-67.919
X-119.333 Y-68.005
X-118.591 Y-68.071
X-117.847 Y-68.118
X-117.102 Y-68.144
X-116.357 Y-68.151
X-115.612 Y-68.137
X-114.868 Y-68.103
X-114.125 Y-68.05
X-113.384 Y-67.976
X-112.644 Y-67.882
X-111.908 Y-67.769
X-111.175 Y-67.636
X-110.446 Y-67.483
X-109.721 Y-67.311
X-109.001 Y-67.119
X-108.286 Y-66.909
X-107.577 Y-66.679
X-106.875 Y-66.431
X-106.179 Y-66.164
X-105.491 Y-65.878
X-104.811 Y-65.573
X-104.14 Y-65.251
X-103.477 Y-64.91
X-102.824 Y-64.552
X-102.18 Y-64.177
X-101.546 Y-63.785
X-100.923 Y-63.376
X-100.312 Y-62.951
X-99.711 Y-62.51
X-99.123 Y-62.053
X-98.547 Y-61.58
X-97.984 Y-61.092
X-97.434 Y-60.589
X-96.898 Y-60.072
X-96.375 Y-59.541
X-95.867 Y-58.996
X-95.373 Y-58.439
X-94.894 Y-57.868
X-94.43 Y-57.285
X-93.981 Y-56.69
X-93.549 Y-56.083
X-93.132 Y-55.466
X-92.733 Y-54.837
X-92.35 Y-54.197
X-91.985 Y-53.548
X-91.636 Y-52.889
X-91.306 Y-52.222
X-90.992 Y-51.546
X-90.697 Y-50.862
X-90.42 Y-50.17
X-90.161 Y-49.472
X-89.92 Y-48.766
X-89.698 Y-48.055
X-89.496 Y-47.338
X-89.312 Y-46.616
X-89.147 Y-45.89
X-89.002 Y-45.159
X-88.876 Y-44.424
X-88.769 Y-43.687
X-88.682 Y-42.947
X-88.614 Y-42.205
X-88.565 Y-41.462
X-88.536 Y-40.717
X-88.527 Y-39.972
X-88.538 Y-39.227
X-88.568 Y-38.483
X-88.619 Y-37.739
X-88.689 Y-36.998
X-88.779 Y-36.258
X-88.888 Y-35.521
X-89.017 Y-34.787
X-89.165 Y-34.057
X-89.332 Y-33.331
X-89.518 Y-32.609
X-89.723 Y-31.893
X-89.948 Y-31.183
X-90.191 Y-30.478
X-90.453 Y-29.781
X-90.733 Y-29.091
X-91.031 Y-28.408
X-91.347 Y-27.733
X-91.681 Y-27.067
X-92.033 Y-26.41
X-92.401 Y-25.763
X-92.786 Y-25.125
X-93.189 Y-24.498
X-93.607 Y-23.881
X-94.042 Y-23.277
X-94.493 Y-22.684
X-94.96 Y-22.103
X-95.442 Y-21.535
X-95.939 Y-20.979
X-96.45 Y-20.438
X-96.976 Y-19.909
X-97.515 Y-19.395
X-98.067 Y-18.895
X-98.632 Y-18.41
X-99.21 Y-17.939
X-99.801 Y-17.485
X-100.403 Y-17.046
X-101.017 Y-16.624
X-101.641 Y-16.218
X-102.276 Y-15.828
X-102.921 Y-15.455
X-103.576 Y-15.099
X-104.24 Y-14.76
X-104.912 Y-14.439
X-105.592 Y-14.136
X-106.281 Y-13.85
X-106.976 Y-13.583
X-107.679 Y-13.335
X-108.387 Y-13.105
X-109.102 Y-12.895
X-109.822 Y-12.703
X-110.547 Y-12.53
X-111.276 Y-12.376
X-112.008 Y-12.241
X-112.744 Y-12.125
X-113.483 Y-12.028
X-114.224 Y-11.951
X-114.967 Y-11.894
X-115.711 Y-11.856
X-116.456 Y-11.838
X-117.201 Y-11.839
X-117.946 Y-11.86
X-118.69 Y-11.9
X-119.432 Y-11.96
X-120.173 Y-12.039
X-120.912 Y-12.137
X-121.648 Y-12.255
X-122.38 Y-12.391
X-123.109 Y-12.547
X-123.833 Y-12.722
X-124.552 Y-12.916
X-125.266 Y-13.13
X-125.974 Y-13.361
X-126.676 Y-13.612
X-127.371 Y-13.88
X-128.059 Y-14.166
X-128.739 Y-14.47
X-129.411 Y-14.792
X-130.075 Y-15.131
X-130.729 Y-15.487
X-131.374 Y-15.86
X-132.009 Y-16.25
X-132.633 Y-16.656
X-133.247 Y-17.079
X-133.849 Y-17.518
X-134.44 Y-17.971
X-135.019 Y-18.44
X-135.586 Y-18.924
X-136.14 Y-19.422
X-136.681 Y-19.934
X-137.208 Y-20.461
X-137.722 Y-21
X-138.221 Y-21.553
X-138.706 Y-22.119
X-139.175 Y-22.698
X-139.63 Y-23.288
X-140.069 Y-23.89
X-140.492 Y-24.504
X-140.899 Y-25.127
X-141.29 Y-25.762
X-141.665 Y-26.406
X-142.022 Y-27.059
X-142.363 Y-27.722
X-142.686 Y-28.393
X-142.992 Y-29.073
X-143.279 Y-29.76
X-143.549 Y-30.455
X-143.801 Y-31.156
X-144.034 Y-31.863
X-144.249 Y-32.577
X-144.446 Y-33.295
X-144.625 Y-34.019
X-144.784 Y-34.747
X-144.925 Y-35.478
X-145.047 Y-36.213
X-145.149 Y-36.951
X-145.233 Y-37.692
X-145.296 Y-38.434
X-145.341 Y-39.178
X-145.366 Y-39.922
X-145.372 Y-40.667
X-145.36 Y-41.412
X-145.328 Y-42.157
X-145.276 Y-42.9
X-145.206 Y-43.642
X-145.117 Y-44.381
X-145.008 Y-45.118
X-144.88 Y-45.852
X-144.733 Y-46.583
X-144.567 Y-47.309
X-144.383 Y-48.031
X-144.18 Y-48.748
X-143.958 Y-49.459
X-143.719 Y-50.165
X-143.461 Y-50.864
X-143.186 Y-51.556
X-142.892 Y-52.241
X-142.582 Y-52.918
X-142.253 Y-53.587
X-141.907 Y-54.247
X-141.545 Y-54.898
X-141.165 Y-55.539
X-140.769 Y-56.17
X-140.357 Y-56.791
X-139.929 Y-57.401
X-139.486 Y-58
X-139.027 Y-58.587
X-138.554 Y-59.162
X-138.066 Y-59.725
X-137.563 Y-60.275
X-137.047 Y-60.812
X-136.516 Y-61.335
X-135.972 Y-61.845
X-135.416 Y-62.34
X-134.846 Y-62.82
X-134.265 Y-63.286
X-133.672 Y-63.737
X-133.067 Y-64.172
X-132.451 Y-64.592
X-131.825 Y-64.996
X-131.189 Y-65.383
X-130.543 Y-65.754
X-129.887 Y-66.108
X-129.222 Y-66.444
X-128.549 Y-66.763
X-127.868 Y-67.065
X-127.179 Y-67.349
X-126.483 Y-67.616
X-125.781 Y-67.864
X-125.072 Y-68.094
X-124.358 Y-68.307
X-123.638 Y-68.5
X-122.914 Y-68.676
X-122.186 Y-68.832
X-121.453 Y-68.969
X-120.718 Y-69.087
X-119.979 Y-69.186
X-119.239 Y-69.267
X-118.496 Y-69.328
X-117.752 Y-69.37
X-117.007 Y-69.393
X-116.262 Y-69.397
X-115.518 Y-69.382
X-114.773 Y-69.348
X-114.03 Y-69.294
X-113.289 Y-69.221
X-112.549 Y-69.129
X-111.813 Y-69.018
X-111.079 Y-68.888
X-110.349 Y-68.739
X-109.623 Y-68.571
X-108.901 Y-68.385
X-108.185 Y-68.181
X-107.474 Y-67.958
X-106.769 Y-67.718
X-106.07 Y-67.459
X-105.378 Y-67.183
X-104.694 Y-66.889
X-104.017 Y-66.577
X-103.348 Y-66.248
X-102.689 Y-65.902
X-102.038 Y-65.539
X-101.396 Y-65.16
X-100.765 Y-64.765
X-100.143 Y-64.354
X-99.532 Y-63.927
X-98.933 Y-63.485
X-98.344 Y-63.028
X-97.768 Y-62.556
X-97.204 Y-62.069
X-96.653 Y-61.568
X-96.115 Y-61.053
X-95.589 Y-60.524
X-95.078 Y-59.982
X-94.58 Y-59.428
X-94.096 Y-58.861
X-93.627 Y-58.283
X-93.172 Y-57.692
X-92.733 Y-57.091
X-92.309 Y-56.478
X-91.9 Y-55.855
X-91.508 Y-55.222
X-91.132 Y-54.579
X-90.772 Y-53.926
X-90.429 Y-53.265
X-90.102 Y-52.595
X-89.793 Y-51.917
X-89.5 Y-51.232
X-89.225 Y-50.54
X-88.967 Y-49.841
X-88.728 Y-49.135
X-88.506 Y-48.424
X-88.302 Y-47.707
X-88.117 Y-46.986
X-87.95 Y-46.259
X-87.802 Y-45.529
X-87.672 Y-44.796
X-87.561 Y-44.059
X-87.468 Y-43.32
X-87.393 Y-42.578
X-87.338 Y-41.835
X-87.301 Y-41.091
X-87.283 Y-40.346
Y-39.601
X-87.303 Y-38.857
X-87.342 Y-38.112
X-87.4 Y-37.37
X-87.476 Y-36.628
X-87.571 Y-35.89
X-87.685 Y-35.153
X-87.817 Y-34.42
X-87.968 Y-33.69
X-88.137 Y-32.965
X-88.324 Y-32.244
X-88.53 Y-31.527
X-88.754 Y-30.817
X-88.996 Y-30.112
X-89.256 Y-29.414
X-89.534 Y-28.723
X-89.829 Y-28.039
X-90.142 Y-27.362
X-90.471 Y-26.694
X-90.817 Y-26.034
X-91.18 Y-25.383
X-91.559 Y-24.742
X-91.953 Y-24.11
X-92.364 Y-23.488
X-92.791 Y-22.878
X-93.233 Y-22.278
X-93.69 Y-21.69
X-94.162 Y-21.113
X-94.649 Y-20.549
X-95.149 Y-19.997
X-95.664 Y-19.458
X-96.191 Y-18.932
X-96.732 Y-18.419
X-97.285 Y-17.92
X-97.851 Y-17.436
X-98.429 Y-16.966
X-99.019 Y-16.511
X-99.621 Y-16.071
X-100.233 Y-15.646
X-100.856 Y-15.238
X-101.489 Y-14.845
X-102.132 Y-14.468
X-102.784 Y-14.107
X-103.445 Y-13.763
X-104.114 Y-13.436
X-104.791 Y-13.125
X-105.476 Y-12.832
X-106.168 Y-12.556
X-106.867 Y-12.297
X-107.572 Y-12.057
X-108.283 Y-11.834
X-109 Y-11.63
X-109.721 Y-11.443
X-110.447 Y-11.274
X-111.176 Y-11.124
X-111.91 Y-10.992
X-112.646 Y-10.878
X-113.385 Y-10.783
X-114.126 Y-10.707
X-114.869 Y-10.649
X-115.613 Y-10.61
X-116.358 Y-10.59
X-117.103 Y-10.589
X-117.848 Y-10.607
X-118.592 Y-10.644
X-119.335 Y-10.699
X-120.076 Y-10.772
X-120.816 Y-10.864
X-121.553 Y-10.974
X-122.286 Y-11.103
X-123.017 Y-11.25
X-123.743 Y-11.416
X-124.465 Y-11.599
X-125.182 Y-11.801
X-125.894 Y-12.021
X-126.601 Y-12.259
X-127.301 Y-12.514
X-127.994 Y-12.786
X-128.68 Y-13.076
X-129.359 Y-13.383
X-130.031 Y-13.706
X-130.694 Y-14.046
X-131.348 Y-14.403
X-131.993 Y-14.775
X-132.628 Y-15.164
X-133.254 Y-15.57
X-133.869 Y-15.99
X-134.473 Y-16.426
X-135.066 Y-16.877
X-135.648 Y-17.342
X-136.219 Y-17.821
X-136.777 Y-18.315
X-137.323 Y-18.822
X-137.856 Y-19.342
X-138.376 Y-19.876
X-138.883 Y-20.422
X-139.375 Y-20.981
X-139.854 Y-21.552
X-140.318 Y-22.135
X-140.768 Y-22.729
X-141.202 Y-23.334
X-141.622 Y-23.95
X-142.026 Y-24.576
X-142.415 Y-25.211
X-142.788 Y-25.856
X-143.144 Y-26.51
X-143.485 Y-27.173
X-143.808 Y-27.844
X-144.115 Y-28.524
X-144.404 Y-29.21
X-144.676 Y-29.904
X-144.93 Y-30.604
X-145.168 Y-31.31
X-145.388 Y-32.022
X-145.59 Y-32.739
X-145.774 Y-33.461
X-145.941 Y-34.187
X-146.089 Y-34.917
X-146.22 Y-35.651
X-146.332 Y-36.387
X-146.426 Y-37.127
X-146.501 Y-37.868
X-146.558 Y-38.611
X-146.597 Y-39.355
X-146.617 Y-40.1
X-146.619 Y-40.845
X-146.602 Y-41.59
X-146.567 Y-42.334
X-146.514 Y-43.077
X-146.443 Y-43.819
X-146.353 Y-44.558
X-146.244 Y-45.295
X-146.117 Y-46.03
X-145.972 Y-46.76
X-145.809 Y-47.487
X-145.627 Y-48.21
X-145.428 Y-48.928
X-145.211 Y-49.64
X-144.976 Y-50.348
X-144.725 Y-51.049
X-144.456 Y-51.744
X-144.17 Y-52.432
X-143.867 Y-53.113
X-143.547 Y-53.786
X-143.211 Y-54.45
X-142.858 Y-55.107
X-142.489 Y-55.754
X-142.104 Y-56.392
X-141.704 Y-57.02
X-141.288 Y-57.638
X-140.857 Y-58.246
X-140.412 Y-58.843
X-139.952 Y-59.429
X-139.477 Y-60.004
X-138.989 Y-60.567
X-138.486 Y-61.117
X-137.97 Y-61.654
X-137.441 Y-62.179
X-136.899 Y-62.689
X-136.344 Y-63.187
X-135.777 Y-63.67
X-135.198 Y-64.14
X-134.608 Y-64.595
X-134.007 Y-65.035
X-133.396 Y-65.46
X-132.774 Y-65.871
X-132.142 Y-66.266
X-131.501 Y-66.645
X-130.85 Y-67.007
X-130.19 Y-67.354
X-129.522 Y-67.684
X-128.846 Y-67.998
X-128.163 Y-68.294
X-127.473 Y-68.574
X-126.775 Y-68.837
X-126.072 Y-69.083
X-125.363 Y-69.311
X-124.648 Y-69.522
X-123.929 Y-69.715
X-123.204 Y-69.89
X-122.476 Y-70.047
X-121.744 Y-70.186
X-121.009 Y-70.306
X-120.271 Y-70.408
X-119.53 Y-70.492
X-118.788 Y-70.558
X-118.045 Y-70.605
X-117.3 Y-70.634
X-116.555 Y-70.645
X-115.81 Y-70.638
X-115.066 Y-70.612
X-114.322 Y-70.568
X-113.579 Y-70.505
X-112.839 Y-70.424
X-112.1 Y-70.325
X-111.365 Y-70.207
X-110.632 Y-70.071
X-109.903 Y-69.918
X-109.178 Y-69.746
X-108.457 Y-69.557
X-107.741 Y-69.351
X-107.031 Y-69.127
X-106.326 Y-68.886
X-105.627 Y-68.627
X-104.935 Y-68.351
X-104.25 Y-68.058
X-103.572 Y-67.748
X-102.903 Y-67.422
X-102.241 Y-67.079
X-101.588 Y-66.72
X-100.944 Y-66.345
X-100.31 Y-65.955
X-99.685 Y-65.549
X-99.07 Y-65.129
X-98.465 Y-64.693
X-97.871 Y-64.243
X-97.289 Y-63.779
X-96.718 Y-63.3
X-96.159 Y-62.807
X-95.612 Y-62.301
X-95.078 Y-61.782
X-94.556 Y-61.25
X-94.048 Y-60.705
X-93.552 Y-60.149
X-93.071 Y-59.58
X-92.603 Y-59
X-92.149 Y-58.409
X-91.71 Y-57.808
X-91.285 Y-57.195
X-90.876 Y-56.573
X-90.483 Y-55.94
X-90.104 Y-55.298
X-89.742 Y-54.647
X-89.395 Y-53.988
X-89.065 Y-53.32
X-88.75 Y-52.644
X-88.452 Y-51.962
X-88.171 Y-51.272
X-87.906 Y-50.575
X-87.658 Y-49.873
X-87.427 Y-49.164
X-87.214 Y-48.45
X-87.018 Y-47.732
X-86.84 Y-47.008
X-86.679 Y-46.281
X-86.536 Y-45.549
X-86.411 Y-44.815
X-86.304 Y-44.078
X-86.214 Y-43.338
X-86.142 Y-42.596
X-86.088 Y-41.853
X-86.051 Y-41.109
X-86.033 Y-40.364
X-86.034 Y-39.619
X-86.052 Y-38.874
X-86.089 Y-38.13
X-86.144 Y-37.387
X-86.218 Y-36.646
X-86.309 Y-35.906
X-86.418 Y-35.169
X-86.544 Y-34.435
X-86.689 Y-33.704
X-86.851 Y-32.977
X-87.03 Y-32.254
X-87.227 Y-31.535
X-87.442 Y-30.822
X-87.674 Y-30.114
X-87.924 Y-29.412
X-88.19 Y-28.716
X-88.473 Y-28.027
X-88.773 Y-27.345
X-89.09 Y-26.67
X-89.422 Y-26.004
X-89.771 Y-25.345
X-90.135 Y-24.695
X-90.515 Y-24.054
X-90.91 Y-23.423
X-91.321 Y-22.801
X-91.747 Y-22.19
X-92.188 Y-21.589
X-92.644 Y-21
X-93.113 Y-20.421
X-93.597 Y-19.855
X-94.094 Y-19.3
X-94.605 Y-18.757
X-95.128 Y-18.227
X-95.664 Y-17.709
X-96.212 Y-17.205
X-96.773 Y-16.714
X-97.345 Y-16.237
X-97.929 Y-15.774
X-98.524 Y-15.325
X-99.129 Y-14.891
X-99.745 Y-14.472
X-100.371 Y-14.068
X-101.007 Y-13.679
X-101.652 Y-13.306
X-102.305 Y-12.948
X-102.967 Y-12.606
X-103.637 Y-12.28
X-104.315 Y-11.97
X-105 Y-11.677
X-105.691 Y-11.4
X-106.39 Y-11.141
X-107.095 Y-10.899
X-107.805 Y-10.674
X-108.52 Y-10.466
X-109.241 Y-10.276
X-109.965 Y-10.103
X-110.694 Y-9.947
X-111.426 Y-9.809
X-112.161 Y-9.688
X-112.899 Y-9.585
X-113.639 Y-9.5
X-114.382 Y-9.433
X-115.125 Y-9.384
X-115.869 Y-9.353
X-116.614 Y-9.34
X-117.359 Y-9.346
X-118.104 Y-9.369
X-118.848 Y-9.41
X-119.591 Y-9.468
X-120.332 Y-9.545
X-121.071 Y-9.639
X-121.808 Y-9.751
X-122.541 Y-9.88
X-123.272 Y-10.027
X-123.998 Y-10.192
X-124.721 Y-10.374
X-125.438 Y-10.575
X-126.151 Y-10.792
X-126.858 Y-11.026
X-127.56 Y-11.278
X-128.255 Y-11.546
X-128.944 Y-11.83
X-129.625 Y-12.131
X-130.299 Y-12.448
X-130.966 Y-12.781
X-131.624 Y-13.13
X-132.274 Y-13.494
X-132.915 Y-13.874
X-133.546 Y-14.27
X-134.168 Y-14.681
X-134.78 Y-15.106
X-135.381 Y-15.546
X-135.972 Y-16
X-136.551 Y-16.468
X-137.12 Y-16.95
X-137.677 Y-17.445
X-138.222 Y-17.953
X-138.754 Y-18.474
X-139.275 Y-19.007
X-139.782 Y-19.553
X-140.275 Y-20.111
X-140.755 Y-20.681
X-141.222 Y-21.262
X-141.674 Y-21.854
X-142.112 Y-22.457
X-142.535 Y-23.07
X-142.944 Y-23.692
X-143.338 Y-24.325
X-143.717 Y-24.966
X-144.081 Y-25.617
X-144.429 Y-26.275
X-144.761 Y-26.942
X-145.077 Y-27.617
X-145.376 Y-28.299
X-145.659 Y-28.989
X-145.926 Y-29.684
X-146.176 Y-30.386
X-146.409 Y-31.094
X-146.625 Y-31.807
X-146.825 Y-32.525
X-147.007 Y-33.247
X-147.173 Y-33.974
X-147.321 Y-34.704
X-147.451 Y-35.437
X-147.564 Y-36.174
X-147.659 Y-36.913
X-147.737 Y-37.654
X-147.796 Y-38.396
X-147.838 Y-39.14
X-147.862 Y-39.885
X-147.869 Y-40.63
X-147.858 Y-41.375
X-147.829 Y-42.12
X-147.783 Y-42.863
X-147.719 Y-43.606
X-147.638 Y-44.346
X-147.539 Y-45.085
X-147.422 Y-45.82
X-147.288 Y-46.553
X-147.136 Y-47.283
X-146.966 Y-48.008
X-146.78 Y-48.73
X-146.576 Y-49.446
X-146.356 Y-50.158
X-146.119 Y-50.864
X-145.865 Y-51.565
X-145.595 Y-52.259
X-145.308 Y-52.947
X-145.006 Y-53.628
X-144.687 Y-54.301
X-144.351 Y-54.966
X-144 Y-55.624
X-143.633 Y-56.272
X-143.251 Y-56.912
X-142.854 Y-57.542
X-142.443 Y-58.163
X-142.016 Y-58.774
X-141.576 Y-59.375
X-141.121 Y-59.965
X-140.652 Y-60.545
X-140.17 Y-61.113
X-139.675 Y-61.669
X-139.166 Y-62.214
X-138.645 Y-62.746
X-138.11 Y-63.265
X-137.564 Y-63.772
X-137.006 Y-64.265
X-136.436 Y-64.745
X-135.855 Y-65.212
X-135.263 Y-65.664
X-134.661 Y-66.103
X-134.049 Y-66.527
X-133.426 Y-66.937
X-132.794 Y-67.331
X-132.153 Y-67.711
X-131.503 Y-68.075
X-130.844 Y-68.423
X-130.177 Y-68.755
X-129.503 Y-69.072
X-128.821 Y-69.372
X-128.132 Y-69.656
X-127.437 Y-69.924
X-126.736 Y-70.176
X-126.029 Y-70.41
X-125.316 Y-70.628
X-124.599 Y-70.83
X-123.877 Y-71.014
X-123.151 Y-71.181
X-122.421 Y-71.33
X-121.687 Y-71.462
X-120.951 Y-71.576
X-120.212 Y-71.673
X-119.472 Y-71.752
X-118.729 Y-71.814
X-117.985 Y-71.858
X-117.241 Y-71.885
X-116.496 Y-71.895
X-115.751 Y-71.886
X-115.006 Y-71.86
X-114.262 Y-71.817
X-113.52 Y-71.755
X-112.779 Y-71.676
X-112.04 Y-71.578
X-111.304 Y-71.464
X-110.571 Y-71.332
X-109.841 Y-71.183
X-109.115 Y-71.017
X-108.392 Y-70.833
X-107.675 Y-70.633
X-106.962 Y-70.416
X-106.254 Y-70.183
X-105.553 Y-69.933
X-104.857 Y-69.666
X-104.168 Y-69.383
X-103.486 Y-69.083
X-102.811 Y-68.767
X-102.143 Y-68.436
X-101.484 Y-68.089
X-100.833 Y-67.727
X-100.191 Y-67.349
X-99.557 Y-66.957
X-98.933 Y-66.55
X-98.319 Y-66.128
X-97.715 Y-65.693
X-97.121 Y-65.243
X-96.538 Y-64.779
X-95.966 Y-64.301
X-95.405 Y-63.81
X-94.857 Y-63.306
X-94.32 Y-62.79
X-93.795 Y-62.26
X-93.283 Y-61.719
X-92.784 Y-61.166
X-92.297 Y-60.602
X-91.824 Y-60.027
X-91.364 Y-59.441
X-90.918 Y-58.844
X-90.486 Y-58.237
X-90.068 Y-57.62
X-89.665 Y-56.993
X-89.277 Y-56.357
X-88.904 Y-55.712
X-88.546 Y-55.059
X-88.203 Y-54.397
X-87.876 Y-53.728
X-87.564 Y-53.051
X-87.268 Y-52.368
X-86.988 Y-51.677
X-86.723 Y-50.981
X-86.476 Y-50.278
X-86.244 Y-49.57
X-86.03 Y-48.856
X-85.833 Y-48.138
X-85.652 Y-47.415
X-85.488 Y-46.688
X-85.342 Y-45.958
X-85.212 Y-45.224
X-85.099 Y-44.487
X-85.004 Y-43.748
X-84.925 Y-43.008
X-84.864 Y-42.265
X-84.819 Y-41.521
X-84.793 Y-40.777
X-84.783 Y-40.032
X-84.791 Y-39.287
X-84.817 Y-38.542
X-84.86 Y-37.798
X-84.921 Y-37.056
X-84.999 Y-36.315
X-85.094 Y-35.576
X-85.206 Y-34.839
X-85.335 Y-34.105
X-85.481 Y-33.375
X-85.644 Y-32.648
X-85.824 Y-31.925
X-86.021 Y-31.206
X-86.235 Y-30.492
X-86.466 Y-29.784
X-86.714 Y-29.081
X-86.977 Y-28.385
X-87.258 Y-27.694
X-87.554 Y-27.011
X-87.866 Y-26.334
X-88.193 Y-25.665
X-88.536 Y-25.003
X-88.895 Y-24.35
X-89.268 Y-23.705
X-89.656 Y-23.069
X-90.059 Y-22.443
X-90.477 Y-21.826
X-90.909 Y-21.219
X-91.355 Y-20.622
X-91.815 Y-20.036
X-92.289 Y-19.461
X-92.776 Y-18.897
X-93.276 Y-18.345
X-93.789 Y-17.804
X-94.314 Y-17.275
X-94.851 Y-16.759
X-95.4 Y-16.255
X-95.96 Y-15.764
X-96.532 Y-15.287
X-97.115 Y-14.823
X-97.709 Y-14.373
X-98.313 Y-13.937
X-98.928 Y-13.516
X-99.551 Y-13.108
X-100.185 Y-12.716
X-100.827 Y-12.338
X-101.478 Y-11.975
X-102.136 Y-11.627
X-102.803 Y-11.295
X-103.478 Y-10.978
X-104.159 Y-10.676
X-104.847 Y-10.391
X-105.542 Y-10.122
X-106.243 Y-9.87
X-106.95 Y-9.633
X-107.662 Y-9.414
X-108.378 Y-9.21
X-109.1 Y-9.024
X-109.825 Y-8.854
X-110.554 Y-8.701
X-111.287 Y-8.565
X-112.022 Y-8.445
X-112.76 Y-8.343
X-113.5 Y-8.258
X-114.242 Y-8.19
X-114.986 Y-8.14
X-115.73 Y-8.107
X-116.475 Y-8.092
X-117.22 Y-8.094
X-117.965 Y-8.113
X-118.709 Y-8.149
X-119.452 Y-8.202
X-120.194 Y-8.273
X-120.934 Y-8.36
X-121.672 Y-8.465
X-122.407 Y-8.586
X-123.139 Y-8.724
X-123.867 Y-8.88
X-124.592 Y-9.052
X-125.313 Y-9.241
X-126.029 Y-9.447
X-126.74 Y-9.67
X-127.446 Y-9.909
X-128.146 Y-10.163
X-128.84 Y-10.434
X-129.528 Y-10.721
X-130.209 Y-11.023
X-130.882 Y-11.341
X-131.549 Y-11.675
X-132.207 Y-12.023
X-132.857 Y-12.387
X-133.499 Y-12.766
X-134.131 Y-13.16
X-134.754 Y-13.569
X-135.368 Y-13.991
X-135.972 Y-14.428
X-136.565 Y-14.878
X-137.148 Y-15.342
X-137.721 Y-15.819
X-138.282 Y-16.309
X-138.832 Y-16.811
X-139.371 Y-17.326
X-139.897 Y-17.854
X-140.411 Y-18.393
X-140.913 Y-18.944
X-141.401 Y-19.506
X-141.877 Y-20.08
X-142.339 Y-20.664
X-142.788 Y-21.259
X-143.223 Y-21.864
X-143.644 Y-22.479
X-144.05 Y-23.103
X-144.443 Y-23.736
X-144.821 Y-24.378
X-145.184 Y-25.029
X-145.533 Y-25.687
X-145.865 Y-26.354
X-146.182 Y-27.028
X-146.484 Y-27.71
X-146.769 Y-28.398
X-147.039 Y-29.092
X-147.293 Y-29.793
X-147.53 Y-30.499
X-147.752 Y-31.21
X-147.957 Y-31.927
X-148.146 Y-32.647
X-148.319 Y-33.372
X-148.475 Y-34.101
X-148.614 Y-34.833
X-148.737 Y-35.568
X-148.842 Y-36.305
X-148.93 Y-37.045
X-149.002 Y-37.787
X-149.056 Y-38.53
X-149.094 Y-39.274
X-149.114 Y-40.019
X-149.118 Y-40.764
X-149.104 Y-41.509
X-149.074 Y-42.253
X-149.027 Y-42.997
X-148.962 Y-43.739
X-148.881 Y-44.48
X-148.783 Y-45.218
X-148.668 Y-45.954
X-148.535 Y-46.687
X-148.386 Y-47.417
X-148.22 Y-48.144
X-148.037 Y-48.866
X-147.838 Y-49.584
X-147.623 Y-50.297
X-147.391 Y-51.005
X-147.144 Y-51.708
X-146.881 Y-52.405
X-146.602 Y-53.096
X-146.307 Y-53.78
X-145.996 Y-54.458
X-145.671 Y-55.128
X-145.329 Y-55.79
X-144.973 Y-56.444
X-144.602 Y-57.09
X-144.216 Y-57.728
X-143.815 Y-58.356
X-143.401 Y-58.975
X-142.973 Y-59.585
X-142.531 Y-60.184
X-142.075 Y-60.774
X-141.606 Y-61.353
X-141.124 Y-61.921
X-140.629 Y-62.478
X-140.122 Y-63.024
X-139.601 Y-63.557
X-139.069 Y-64.078
X-138.525 Y-64.587
X-137.969 Y-65.083
X-137.402 Y-65.567
X-136.825 Y-66.038
X-136.237 Y-66.495
X-135.638 Y-66.939
X-135.03 Y-67.369
X-134.412 Y-67.786
X-133.785 Y-68.188
X-133.149 Y-68.575
X-132.503 Y-68.948
X-131.85 Y-69.306
X-131.188 Y-69.649
X-130.519 Y-69.976
X-129.843 Y-70.289
X-129.159 Y-70.585
X-128.469 Y-70.867
X-127.773 Y-71.132
X-127.071 Y-71.382
X-126.364 Y-71.616
X-125.651 Y-71.833
X-124.934 Y-72.035
X-124.212 Y-72.219
X-123.486 Y-72.387
X-122.757 Y-72.538
X-122.024 Y-72.673
X-121.288 Y-72.79
X-120.55 Y-72.891
X-119.81 Y-72.974
X-119.068 Y-73.042
X-118.324 Y-73.092
X-117.58 Y-73.125
X-116.835 Y-73.142
X-116.09 Y-73.141
X-115.345 Y-73.124
X-114.601 Y-73.09
X-113.857 Y-73.038
X-113.116 Y-72.969
X-112.375 Y-72.884
X-111.637 Y-72.781
X-110.902 Y-72.662
X-110.169 Y-72.526
X-109.44 Y-72.374
X-108.714 Y-72.205
X-107.993 Y-72.02
X-107.275 Y-71.819
X-106.563 Y-71.602
X-105.855 Y-71.368
X-105.153 Y-71.119
X-104.457 Y-70.853
X-103.767 Y-70.571
X-103.084 Y-70.274
X-102.408 Y-69.961
X-101.739 Y-69.632
X-101.078 Y-69.289
X-100.424 Y-68.931
X-99.779 Y-68.559
X-99.142 Y-68.172
X-98.515 Y-67.771
X-97.896 Y-67.356
X-97.287 Y-66.927
X-96.687 Y-66.484
X-96.098 Y-66.028
X-95.52 Y-65.558
X-94.952 Y-65.076
X-94.395 Y-64.581
X-93.85 Y-64.073
X-93.316 Y-63.554
X-92.794 Y-63.022
X-92.284 Y-62.479
X-91.786 Y-61.925
X-91.3 Y-61.359
X-90.828 Y-60.784
X-90.368 Y-60.197
X-89.922 Y-59.601
X-89.489 Y-58.994
X-89.07 Y-58.378
X-88.666 Y-57.752
X-88.275 Y-57.118
X-87.899 Y-56.474
X-87.537 Y-55.823
X-87.191 Y-55.164
X-86.858 Y-54.497
X-86.541 Y-53.823
X-86.239 Y-53.141
X-85.952 Y-52.454
X-85.681 Y-51.76
X-85.425 Y-51.06
X-85.185 Y-50.355
X-84.961 Y-49.644
X-84.753 Y-48.929
X-84.561 Y-48.209
X-84.385 Y-47.485
X-84.226 Y-46.757
X-84.083 Y-46.026
X-83.957 Y-45.292
X-83.846 Y-44.555
X-83.753 Y-43.816
X-83.675 Y-43.075
X-83.614 Y-42.332
X-83.57 Y-41.588
X-83.543 Y-40.844
X-83.532 Y-40.099
X-83.539 Y-39.354
X-83.563 Y-38.609
X-83.603 Y-37.865
X-83.66 Y-37.122
X-83.733 Y-36.381
X-83.823 Y-35.641
X-83.93 Y-34.904
X-84.053 Y-34.169
X-84.193 Y-33.437
X-84.348 Y-32.708
X-84.52 Y-31.983
X-84.709 Y-31.263
X-84.913 Y-30.546
X-85.134 Y-29.835
X-85.371 Y-29.128
X-85.624 Y-28.427
X-85.892 Y-27.732
X-86.176 Y-27.043
X-86.476 Y-26.361
X-86.79 Y-25.686
X-87.12 Y-25.018
X-87.464 Y-24.357
X-87.823 Y-23.704
X-88.197 Y-23.059
X-88.585 Y-22.423
X-88.987 Y-21.796
X-89.404 Y-21.179
X-89.834 Y-20.57
X-90.278 Y-19.972
X-90.736 Y-19.384
X-91.207 Y-18.807
X-91.69 Y-18.24
X-92.186 Y-17.684
X-92.694 Y-17.139
X-93.215 Y-16.606
X-93.747 Y-16.084
X-94.29 Y-15.575
X-94.845 Y-15.077
X-95.411 Y-14.593
X-95.988 Y-14.121
X-96.575 Y-13.663
X-97.173 Y-13.217
X-97.78 Y-12.786
X-98.397 Y-12.368
X-99.023 Y-11.964
X-99.658 Y-11.574
X-100.301 Y-11.199
X-100.953 Y-10.837
X-101.612 Y-10.491
X-102.279 Y-10.159
X-102.954 Y-9.842
X-103.635 Y-9.54
X-104.323 Y-9.254
X-105.017 Y-8.983
X-105.717 Y-8.729
X-106.423 Y-8.49
X-107.134 Y-8.267
X-107.849 Y-8.059
X-108.57 Y-7.868
X-109.294 Y-7.693
X-110.022 Y-7.534
X-110.753 Y-7.391
X-111.487 Y-7.264
X-112.224 Y-7.154
X-112.963 Y-7.06
X-113.704 Y-6.983
X-114.447 Y-6.922
X-115.19 Y-6.879
X-115.935 Y-6.852
X-116.68 Y-6.841
X-117.425 Y-6.847
X-118.17 Y-6.87
X-118.914 Y-6.909
X-119.657 Y-6.965
X-120.398 Y-7.037
X-121.138 Y-7.126
X-121.876 Y-7.231
X-122.611 Y-7.352
X-123.343 Y-7.489
X-124.072 Y-7.644
X-124.797 Y-7.814
X-125.519 Y-8.001
X-126.235 Y-8.204
X-126.948 Y-8.423
X-127.655 Y-8.658
X-128.357 Y-8.908
X-129.053 Y-9.174
X-129.743 Y-9.455
X-130.426 Y-9.751
X-131.104 Y-10.062
X-131.773 Y-10.388
X-132.436 Y-10.728
X-133.091 Y-11.084
X-133.737 Y-11.454
X-134.376 Y-11.838
X-135.005 Y-12.237
X-135.626 Y-12.65
X-136.237 Y-13.076
X-136.839 Y-13.515
X-137.43 Y-13.968
X-138.012 Y-14.433
X-138.583 Y-14.911
X-139.144 Y-15.402
X-139.694 Y-15.905
X-140.233 Y-16.419
X-140.76 Y-16.946
X-141.275 Y-17.485
X-141.777 Y-18.034
X-142.268 Y-18.595
X-142.746 Y-19.167
X-143.211 Y-19.749
X-143.663 Y-20.341
X-144.102 Y-20.943
X-144.528 Y-21.555
X-144.94 Y-22.175
X-145.338 Y-22.805
X-145.723 Y-23.443
X-146.093 Y-24.089
X-146.449 Y-24.744
X-146.791 Y-25.406
X-147.117 Y-26.076
X-147.429 Y-26.753
X-147.725 Y-27.436
X-148.006 Y-28.126
X-148.272 Y-28.822
X-148.522 Y-29.524
X-148.758 Y-30.231
X-148.977 Y-30.943
X-149.181 Y-31.66
X-149.369 Y-32.381
X-149.541 Y-33.106
X-149.698 Y-33.834
X-149.838 Y-34.566
X-149.961 Y-35.301
X-150.068 Y-36.038
X-150.159 Y-36.777
X-150.234 Y-37.519
X-150.292 Y-38.261
X-150.334 Y-39.005
X-150.359 Y-39.75
X-150.368 Y-40.495
X-150.361 Y-41.24
X-150.338 Y-41.985
X-150.298 Y-42.729
X-150.242 Y-43.472
X-150.17 Y-44.213
X-150.081 Y-44.953
X-149.975 Y-45.691
X-149.854 Y-46.426
X-149.716 Y-47.158
X-149.562 Y-47.887
X-149.392 Y-48.612
X-149.206 Y-49.334
X-149.004 Y-50.051
X-148.787 Y-50.764
X-148.554 Y-51.471
X-148.306 Y-52.174
X-148.042 Y-52.871
X-147.763 Y-53.562
X-147.469 Y-54.246
X-147.16 Y-54.924
X-146.835 Y-55.595
X-146.496 Y-56.258
X-146.143 Y-56.914
X-145.775 Y-57.562
X-145.392 Y-58.201
X-144.996 Y-58.832
X-144.587 Y-59.455
X-144.163 Y-60.068
X-143.727 Y-60.672
X-143.277 Y-61.266
X-142.815 Y-61.85
X-142.339 Y-62.424
X-141.852 Y-62.987
X-141.351 Y-63.539
X-140.839 Y-64.08
X-140.315 Y-64.609
X-139.779 Y-65.127
X-139.232 Y-65.633
X-138.674 Y-66.127
X-138.106 Y-66.608
X-137.526 Y-67.077
X-136.937 Y-67.533
X-136.338 Y-67.976
X-135.73 Y-68.406
X-135.112 Y-68.823
X-134.485 Y-69.226
X-133.85 Y-69.614
X-133.205 Y-69.988
X-132.553 Y-70.348
X-131.893 Y-70.694
X-131.225 Y-71.025
X-130.551 Y-71.341
X-129.869 Y-71.642
X-129.181 Y-71.928
X-128.487 Y-72.2
X-127.788 Y-72.456
X-127.083 Y-72.697
X-126.372 Y-72.922
X-125.658 Y-73.132
X-124.938 Y-73.325
X-124.215 Y-73.503
X-123.487 Y-73.665
X-122.757 Y-73.81
X-122.023 Y-73.94
X-121.286 Y-74.053
X-120.548 Y-74.15
X-119.807 Y-74.231
X-119.065 Y-74.296
X-118.321 Y-74.344
X-117.577 Y-74.377
X-116.832 Y-74.393
X-116.087
X-115.342 Y-74.376
X-114.598 Y-74.343
X-113.854 Y-74.293
X-113.112 Y-74.226
X-112.372 Y-74.144
X-111.633 Y-74.045
X-110.897 Y-73.93
X-110.164 Y-73.799
X-109.433 Y-73.652
X-108.706 Y-73.489
X-107.983 Y-73.31
X-107.264 Y-73.116
X-106.549 Y-72.906
X-105.839 Y-72.681
X-105.134 Y-72.44
X-104.434 Y-72.184
X-103.74 Y-71.912
X-103.053 Y-71.625
X-102.372 Y-71.323
X-101.697 Y-71.006
X-101.03 Y-70.674
X-100.37 Y-70.329
X-99.718 Y-69.969
X-99.074 Y-69.594
X-98.437 Y-69.206
X-97.81 Y-68.805
X-97.191 Y-68.39
X-96.582 Y-67.961
X-95.982 Y-67.519
X-95.392 Y-67.064
X-94.812 Y-66.597
X-94.242 Y-66.116
X-93.683 Y-65.624
X-93.135 Y-65.119
X-92.598 Y-64.602
X-92.072 Y-64.075
X-91.558 Y-63.536
X-91.056 Y-62.986
X-90.565 Y-62.425
X-90.086 Y-61.854
X-89.62 Y-61.273
X-89.167 Y-60.681
X-88.726 Y-60.08
X-88.299 Y-59.47
X-87.885 Y-58.85
X-87.485 Y-58.222
X-87.099 Y-57.585
X-86.726 Y-56.94
X-86.367 Y-56.287
X-86.023 Y-55.626
X-85.692 Y-54.958
X-85.376 Y-54.284
X-85.075 Y-53.602
X-84.788 Y-52.914
X-84.517 Y-52.221
X-84.26 Y-51.521
X-84.019 Y-50.816
X-83.793 Y-50.106
X-83.583 Y-49.391
X-83.388 Y-48.672
X-83.209 Y-47.949
X-83.046 Y-47.222
X-82.898 Y-46.492
X-82.767 Y-45.758
X-82.65 Y-45.022
X-82.55 Y-44.284
X-82.465 Y-43.544
X-82.397 Y-42.802
X-82.344 Y-42.059
X-82.308 Y-41.315
X-82.287 Y-40.57
X-82.283 Y-39.825
X-82.295 Y-39.08
X-82.324 Y-38.335
X-82.368 Y-37.592
X-82.429 Y-36.849
X-82.506 Y-36.108
X-82.598 Y-35.369
X-82.707 Y-34.632
X-82.831 Y-33.897
X-82.971 Y-33.165
X-83.127 Y-32.437
X-83.298 Y-31.711
X-83.486 Y-30.99
X-83.689 Y-30.274
X-83.908 Y-29.561
X-84.142 Y-28.854
X-84.392 Y-28.152
X-84.657 Y-27.456
X-84.937 Y-26.765
X-85.231 Y-26.081
X-85.541 Y-25.403
X-85.864 Y-24.732
X-86.203 Y-24.068
X-86.555 Y-23.412
X-86.922 Y-22.763
X-87.302 Y-22.122
X-87.696 Y-21.49
X-88.104 Y-20.867
X-88.526 Y-20.253
X-88.961 Y-19.648
X-89.409 Y-19.052
X-89.869 Y-18.467
X-90.342 Y-17.891
X-90.828 Y-17.326
X-91.326 Y-16.771
X-91.835 Y-16.228
X-92.356 Y-15.695
X-92.888 Y-15.174
X-93.431 Y-14.664
X-93.986 Y-14.166
X-94.551 Y-13.681
X-95.127 Y-13.208
X-95.713 Y-12.747
X-96.308 Y-12.3
X-96.914 Y-11.865
X-97.528 Y-11.444
X-98.152 Y-11.036
X-98.784 Y-10.642
X-99.424 Y-10.261
X-100.072 Y-9.894
X-100.729 Y-9.541
X-101.392 Y-9.202
X-102.063 Y-8.877
X-102.74 Y-8.567
X-103.424 Y-8.272
X-104.115 Y-7.992
X-104.811 Y-7.726
X-105.513 Y-7.476
X-106.22 Y-7.242
X-106.932 Y-7.022
X-107.648 Y-6.818
X-108.369 Y-6.629
X-109.094 Y-6.456
X-109.822 Y-6.298
X-110.553 Y-6.155
X-111.287 Y-6.029
X-112.024 Y-5.918
X-112.763 Y-5.823
X-113.504 Y-5.745
X-114.246 Y-5.682
X-114.99 Y-5.636
X-115.735 Y-5.606
X-116.479 Y-5.591
X-117.225 Y-5.593
X-117.969 Y-5.611
X-118.714 Y-5.645
X-119.457 Y-5.694
X-120.199 Y-5.76
X-120.94 Y-5.841
X-121.679 Y-5.938
X-122.415 Y-6.051
X-123.149 Y-6.179
X-123.88 Y-6.324
X-124.608 Y-6.484
X-125.332 Y-6.66
X-126.052 Y-6.851
X-126.767 Y-7.058
X-127.478 Y-7.28
X-128.185 Y-7.518
X-128.886 Y-7.77
X-129.581 Y-8.037
X-130.271 Y-8.319
X-130.954 Y-8.616
X-131.632 Y-8.927
X-132.302 Y-9.252
X-132.965 Y-9.592
X-133.62 Y-9.946
X-134.268 Y-10.315
X-134.908 Y-10.697
X-135.539 Y-11.093
X-136.161 Y-11.502
X-136.775 Y-11.924
X-137.38 Y-12.359
X-137.975 Y-12.808
X-138.561 Y-13.268
X-139.136 Y-13.741
X-139.702 Y-14.226
X-140.257 Y-14.723
X-140.802 Y-15.231
X-141.335 Y-15.751
X-141.858 Y-16.283
X-142.368 Y-16.825
X-142.867 Y-17.379
X-143.354 Y-17.943
X-143.829 Y-18.517
X-144.291 Y-19.101
X-144.741 Y-19.695
X-145.178 Y-20.298
X-145.603 Y-20.911
X-146.014 Y-21.532
X-146.412 Y-22.162
X-146.797 Y-22.8
X-147.168 Y-23.446
X-147.525 Y-24.1
X-147.867 Y-24.761
X-148.196 Y-25.43
X-148.51 Y-26.106
X-148.809 Y-26.788
X-149.094 Y-27.477
X-149.364 Y-28.171
X-149.619 Y-28.871
X-149.86 Y-29.576
X-150.085 Y-30.286
X-150.296 Y-31.001
X-150.491 Y-31.72
X-150.671 Y-32.443
X-150.836 Y-33.17
X-150.985 Y-33.9
X-151.118 Y-34.633
X-151.236 Y-35.368
X-151.338 Y-36.106
X-151.424 Y-36.846
X-151.495 Y-37.588
X-151.55 Y-38.331
X-151.589 Y-39.075
X-151.612 Y-39.82
X-151.619 Y-40.565
X-151.611 Y-41.31
X-151.587 Y-42.055
X-151.548 Y-42.799
X-151.493 Y-43.542
X-151.421 Y-44.283
X-151.334 Y-45.023
X-151.231 Y-45.761
X-151.112 Y-46.497
X-150.977 Y-47.229
X-150.827 Y-47.959
X-150.661 Y-48.686
X-150.48 Y-49.408
X-150.284 Y-50.127
X-150.072 Y-50.842
X-149.846 Y-51.551
X-149.605 Y-52.256
X-149.349 Y-52.956
X-149.078 Y-53.65
X-148.792 Y-54.338
X-148.492 Y-55.02
X-148.177 Y-55.696
X-147.848 Y-56.364
X-147.505 Y-57.025
X-147.148 Y-57.679
X-146.777 Y-58.325
X-146.392 Y-58.963
X-145.994 Y-59.593
X-145.583 Y-60.215
X-145.159 Y-60.827
X-144.722 Y-61.431
X-144.273 Y-62.025
X-143.811 Y-62.609
X-143.336 Y-63.184
X-142.849 Y-63.748
X-142.351 Y-64.302
X-141.84 Y-64.844
X-141.318 Y-65.376
X-140.785 Y-65.897
X-140.241 Y-66.406
X-139.687 Y-66.903
X-139.122 Y-67.389
X-138.547 Y-67.863
X-137.962 Y-68.324
X-137.367 Y-68.773
X-136.763 Y-69.21
X-136.15 Y-69.633
X-135.529 Y-70.044
X-134.898 Y-70.441
X-134.259 Y-70.824
X-133.612 Y-71.194
X-132.958 Y-71.55
X-132.296 Y-71.891
X-131.627 Y-72.219
X-130.951 Y-72.533
X-130.268 Y-72.832
X-129.58 Y-73.117
X-128.886 Y-73.387
X-128.186 Y-73.643
X-127.481 Y-73.884
X-126.771 Y-74.109
X-126.056 Y-74.32
X-125.337 Y-74.515
X-124.614 Y-74.695
X-123.887 Y-74.859
X-123.157 Y-75.008
X-122.424 Y-75.141
X-121.688 Y-75.259
X-120.95 Y-75.361
X-120.21 Y-75.447
X-119.469 Y-75.518
X-118.726 Y-75.573
X-117.982 Y-75.613
X-117.237 Y-75.637
X-116.492 Y-75.645
X-115.747 Y-75.637
X-115.002 Y-75.614
X-114.258 Y-75.575
X-113.515 Y-75.519
X-112.774 Y-75.448
X-112.034 Y-75.362
X-111.296 Y-75.259
X-110.56 Y-75.141
X-109.827 Y-75.008
X-109.097 Y-74.859
X-108.37 Y-74.695
X-107.647 Y-74.516
X-106.927 Y-74.322
X-106.212 Y-74.113
X-105.502 Y-73.888
X-104.796 Y-73.649
X-104.096 Y-73.394
X-103.402 Y-73.124
X-102.713 Y-72.84
X-102.03 Y-72.542
X-101.354 Y-72.229
X-100.685 Y-71.902
X-100.022 Y-71.561
X-99.367 Y-71.206
X-98.72 Y-70.837
X-98.08 Y-70.456
X-97.448 Y-70.06
X-96.825 Y-69.652
X-96.21 Y-69.231
X-95.605 Y-68.797
X-95.008 Y-68.35
X-94.422 Y-67.891
X-93.845 Y-67.419
X-93.278 Y-66.936
X-92.722 Y-66.44
X-92.176 Y-65.933
X-91.64 Y-65.415
X-91.116 Y-64.886
X-90.602 Y-64.346
X-90.1 Y-63.795
X-89.61 Y-63.235
X-89.131 Y-62.664
X-88.664 Y-62.083
X-88.21 Y-61.493
X-87.768 Y-60.893
X-87.339 Y-60.283
X-86.923 Y-59.665
X-86.52 Y-59.039
X-86.13 Y-58.404
X-85.753 Y-57.761
X-85.39 Y-57.11
X-85.041 Y-56.453
X-84.705 Y-55.787
X-84.383 Y-55.116
X-84.075 Y-54.437
X-83.781 Y-53.753
X-83.501 Y-53.062
X-83.236 Y-52.366
X-82.985 Y-51.664
X-82.75 Y-50.957
X-82.529 Y-50.246
X-82.323 Y-49.53
X-82.132 Y-48.809
X-81.957 Y-48.085
X-81.796 Y-47.358
X-81.65 Y-46.627
X-81.52 Y-45.893
X-81.405 Y-45.157
X-81.305 Y-44.419
X-81.22 Y-43.679
X-81.151 Y-42.937
X-81.098 Y-42.194
X-81.06 Y-41.45
X-81.038 Y-40.705
X-81.031 Y-39.96
X-81.04 Y-39.215
X-81.065 Y-38.47
X-81.105 Y-37.726
X-81.161 Y-36.983
X-81.232 Y-36.242
X-81.319 Y-35.502
X-81.421 Y-34.764
X-81.538 Y-34.028
X-81.671 Y-33.295
X-81.818 Y-32.564
X-81.981 Y-31.837
X-82.16 Y-31.114
X-82.353 Y-30.394
X-82.562 Y-29.679
X-82.785 Y-28.968
X-83.023 Y-28.262
X-83.277 Y-27.562
X-83.544 Y-26.866
X-83.827 Y-26.177
X-84.123 Y-25.493
X-84.434 Y-24.816
X-84.758 Y-24.145
X-85.096 Y-23.482
X-85.449 Y-22.825
X-85.814 Y-22.176
X-86.194 Y-21.535
X-86.587 Y-20.902
X-86.993 Y-20.277
X-87.412 Y-19.661
X-87.844 Y-19.054
X-88.289 Y-18.456
X-88.746 Y-17.868
X-89.215 Y-17.289
X-89.697 Y-16.721
X-90.189 Y-16.162
X-90.694 Y-15.613
X-91.209 Y-15.076
X-91.736 Y-14.549
X-92.274 Y-14.033
X-92.822 Y-13.528
X-93.381 Y-13.035
X-93.95 Y-12.554
X-94.528 Y-12.085
X-95.117 Y-11.628
X-95.715 Y-11.184
X-96.322 Y-10.752
X-96.939 Y-10.333
X-97.563 Y-9.927
X-98.196 Y-9.534
X-98.837 Y-9.154
X-99.486 Y-8.788
X-100.142 Y-8.434
X-100.805 Y-8.095
X-101.475 Y-7.77
X-102.152 Y-7.458
X-102.835 Y-7.161
X-103.525 Y-6.879
X-104.22 Y-6.611
X-104.921 Y-6.357
X-105.626 Y-6.118
X-106.337 Y-5.894
X-107.052 Y-5.685
X-107.771 Y-5.49
X-108.494 Y-5.311
X-109.221 Y-5.146
X-109.393 Y-5.111
X-109.443 Y-5.102
X-109.492 Y-5.097
X-109.542 Y-5.095
X-122.85
X-123.594 Y-5.133
X-124.335 Y-5.215
X-125.068 Y-5.345
X-125.795 Y-5.507
X-126.517 Y-5.693
X-127.233 Y-5.897
X-127.945 Y-6.119
X-128.651 Y-6.356
X-129.352 Y-6.608
X-130.048 Y-6.875
X-130.738 Y-7.157
X-131.421 Y-7.453
X-132.099 Y-7.762
X-132.77 Y-8.087
X-133.434 Y-8.425
X-134.091 Y-8.776
X-134.74 Y-9.142
X-135.382 Y-9.52
X-136.015 Y-9.912
X-136.641 Y-10.317
X-137.258 Y-10.735
X-137.866 Y-11.165
X-138.465 Y-11.608
X-139.055 Y-12.063
X-139.636 Y-12.53
X-140.207 Y-13.008
X-140.768 Y-13.499
X-141.319 Y-14
X-141.859 Y-14.513
X-142.389 Y-15.037
X-142.908 Y-15.572
X-143.416 Y-16.117
X-143.912 Y-16.673
X-144.397 Y-17.238
X-144.87 Y-17.814
X-145.331 Y-18.399
X-145.78 Y-18.994
X-146.217 Y-19.598
X-146.641 Y-20.21
X-147.053 Y-20.831
X-147.451 Y-21.46
X-147.837 Y-22.098
X-148.209 Y-22.743
X-148.568 Y-23.396
X-148.913 Y-24.056
X-149.245 Y-24.724
X-149.562 Y-25.398
X-149.866 Y-26.078
X-150.155 Y-26.765
X-150.431 Y-27.457
X-150.692 Y-28.155
X-150.939 Y-28.858
X-151.171 Y-29.566
X-151.389 Y-30.278
X-151.592 Y-30.995
X-151.781 Y-31.716
X-151.955 Y-32.44
X-152.114 Y-33.168
X-152.258 Y-33.899
X-152.387 Y-34.633
X-152.501 Y-35.369
X-152.599 Y-36.108
X-152.683 Y-36.848
X-152.751 Y-37.59
X-152.804 Y-38.333
X-152.842 Y-39.077
X-152.864 Y-39.822
X-152.872 Y-40.567
X-152.864 Y-41.312
X-152.841 Y-42.057
X-152.803 Y-42.801
X-152.749 Y-43.544
X-152.68 Y-44.286
X-152.595 Y-45.026
X-152.495 Y-45.764
X-152.38 Y-46.501
X-152.25 Y-47.234
X-152.105 Y-47.965
X-151.945 Y-48.693
X-151.77 Y-49.417
X-151.58 Y-50.137
X-151.376 Y-50.854
X-151.157 Y-51.566
X-150.923 Y-52.273
X-150.676 Y-52.976
X-150.414 Y-53.674
X-150.137 Y-54.366
X-149.847 Y-55.052
X-149.542 Y-55.732
X-149.224 Y-56.405
X-148.892 Y-57.072
X-148.546 Y-57.732
X-148.187 Y-58.385
X-147.814 Y-59.03
X-147.429 Y-59.668
X-147.03 Y-60.297
X-146.619 Y-60.919
X-146.195 Y-61.531
X-145.759 Y-62.135
X-145.311 Y-62.73
X-144.85 Y-63.316
X-144.377 Y-63.892
X-143.892 Y-64.458
X-143.396 Y-65.013
X-142.889 Y-65.559
X-142.37 Y-66.094
X-141.84 Y-66.618
X-141.3 Y-67.131
X-140.75 Y-67.633
X-140.189 Y-68.124
X-139.619 Y-68.603
X-139.038 Y-69.071
X-138.449 Y-69.526
X-137.85 Y-69.97
X-137.243 Y-70.401
X-136.627 Y-70.82
X-136.002 Y-71.226
X-135.369 Y-71.619
X-134.728 Y-71.999
X-134.079 Y-72.365
X-133.423 Y-72.719
X-132.76 Y-73.059
X-132.09 Y-73.385
X-131.414 Y-73.697
X-130.731 Y-73.996
X-130.043 Y-74.281
X-129.349 Y-74.551
X-128.649 Y-74.808
X-127.945 Y-75.05
X-127.235 Y-75.277
X-126.521 Y-75.489
X-125.803 Y-75.687
X-125.08 Y-75.87
X-125.014 Y-75.885
X-124.959 Y-75.896
X-124.903 Y-75.902
X-124.847 Y-75.905
X-109.473
X-108.729 Y-75.867
X-108.358 Y-75.83
X-107.62 Y-75.725
X-106.891 Y-75.571
X-106.17 Y-75.385
X-105.455 Y-75.177
X-104.745 Y-74.949
X-104.041 Y-74.704
X-103.343 Y-74.444
X-102.651 Y-74.169
X-101.964 Y-73.88
X-101.284 Y-73.576
X-100.609 Y-73.259
X-99.942 Y-72.928
X-99.281 Y-72.584
X-98.628 Y-72.226
X-97.981 Y-71.856
X-97.343 Y-71.472
X-96.712 Y-71.076
X-96.089 Y-70.667
X-95.475 Y-70.245
X-94.869 Y-69.811
X-94.273 Y-69.364
X-93.685 Y-68.906
X-93.108 Y-68.435
X-92.54 Y-67.953
X-91.982 Y-67.459
X-91.434 Y-66.955
X-90.896 Y-66.439
X-90.369 Y-65.913
X-89.852 Y-65.376
X-89.346 Y-64.829
X-88.851 Y-64.271
X-88.368 Y-63.705
X-87.896 Y-63.128
X-87.436 Y-62.542
X-86.988 Y-61.947
X-86.552 Y-61.342
X-86.129 Y-60.729
X-85.718 Y-60.108
X-85.319 Y-59.478
X-84.934 Y-58.841
X-84.561 Y-58.196
X-84.201 Y-57.543
X-83.855 Y-56.884
X-83.521 Y-56.217
X-83.201 Y-55.544
X-82.895 Y-54.865
X-82.602 Y-54.18
X-82.323 Y-53.489
X-82.058 Y-52.793
X-81.808 Y-52.091
X-81.571 Y-51.385
X-81.349 Y-50.673
X-81.142 Y-49.958
X-80.949 Y-49.238
X-80.771 Y-48.515
X-80.607 Y-47.788
X-80.458 Y-47.058
X-80.324 Y-46.325
X-80.204 Y-45.59
X-80.099 Y-44.852
X-80.008 Y-44.112
X-79.933 Y-43.371
X-79.873 Y-42.629
X-79.827 Y-41.885
X-79.797 Y-41.141
X-79.782 Y-40.396
Y-39.651
X-79.797 Y-38.906
X-79.827 Y-38.161
X-79.872 Y-37.417
X-79.932 Y-36.675
X-80.007 Y-35.934
X-80.097 Y-35.194
X-80.201 Y-34.456
X-80.321 Y-33.721
X-80.455 Y-32.988
X-80.603 Y-32.258
X-80.767 Y-31.531
X-80.945 Y-30.807
X-81.138 Y-30.088
X-81.346 Y-29.372
X-81.568 Y-28.661
X-81.804 Y-27.955
X-82.055 Y-27.253
X-82.32 Y-26.557
X-82.599 Y-25.866
X-82.892 Y-25.181
X-83.199 Y-24.502
X-83.519 Y-23.829
X-83.852 Y-23.163
X-84.199 Y-22.503
X-84.559 Y-21.851
X-84.932 Y-21.206
X-85.319 Y-20.569
X-85.718 Y-19.94
X-86.13 Y-19.319
X-86.554 Y-18.706
X-86.991 Y-18.103
X-87.439 Y-17.508
X-87.9 Y-16.922
X-88.372 Y-16.346
X-88.856 Y-15.779
X-89.351 Y-15.223
X-89.857 Y-14.676
X-90.374 Y-14.139
X-90.902 Y-13.613
X-91.44 Y-13.098
X-91.988 Y-12.593
X-92.546 Y-12.1
X-93.115 Y-11.619
X-93.693 Y-11.149
X-94.281 Y-10.691
X-94.878 Y-10.245
X-95.483 Y-9.811
X-96.098 Y-9.389
X-96.72 Y-8.98
X-97.351 Y-8.583
X-97.99 Y-8.199
X-98.636 Y-7.828
X-99.289 Y-7.47
X-99.949 Y-7.125
X-100.616 Y-6.793
X-101.29 Y-6.475
X-101.97 Y-6.171
X-102.656 Y-5.881
X-103.348 Y-5.604
X-104.046 Y-5.342
X-104.621 Y-5.138
X-104.702 Y-5.114
X-104.784 Y-5.1
X-104.868 Y-5.095
X-109.542
G3 X-109.663 Y-5.124 I0.011 J-0.317 F3048
G1 X-109.727 Y-5.153 Z-3.492
X-109.788 Y-5.181 Z-3.469
X-109.843 Y-5.206 Z-3.431
X-109.889 Y-5.227 Z-3.38
X-109.923 Y-5.243 Z-3.32
X-109.944 Y-5.252 Z-3.253
X-109.952 Y-5.256 Z-3.182
G0 Z5.08
X-109.189 Y-75.681
Z-2.865
G1 Z-3.182 F3048
X-109.197 Y-75.684 Z-3.253
X-109.219 Y-75.691 Z-3.32
X-109.255 Y-75.703 Z-3.38
X-109.302 Y-75.719 Z-3.431
X-109.36 Y-75.738 Z-3.469
X-109.423 Y-75.759 Z-3.492
X-109.49 Y-75.781 Z-3.5
G3 X-109.473 Y-75.905 I0.02 J-0.06
G1 X-105.07 F5080
X-104.529 Y-75.877
X-104.04 Y-75.813
X-103.366 Y-75.669
X-102.653 Y-75.455
X-101.952 Y-75.202
X-101.262 Y-74.922
X-100.58 Y-74.621
X-99.906 Y-74.304
X-99.238 Y-73.972
X-98.578 Y-73.627
X-97.925 Y-73.268
X-97.28 Y-72.896
X-96.642 Y-72.512
X-96.011 Y-72.115
X-95.388 Y-71.705
X-94.774 Y-71.284
X-94.168 Y-70.851
X-93.571 Y-70.405
X-92.983 Y-69.948
X-92.404 Y-69.479
X-91.834 Y-68.999
X-91.274 Y-68.507
X-90.723 Y-68.005
X-90.183 Y-67.493
X-89.652 Y-66.969
X-89.132 Y-66.436
X-88.622 Y-65.893
X-88.123 Y-65.34
X-87.635 Y-64.777
X-87.157 Y-64.205
X-86.691 Y-63.623
X-86.237 Y-63.033
X-85.794 Y-62.434
X-85.363 Y-61.826
X-84.944 Y-61.21
X-84.537 Y-60.586
X-84.142 Y-59.954
X-83.76 Y-59.315
X-83.39 Y-58.668
X-83.033 Y-58.014
X-82.688 Y-57.353
X-82.357 Y-56.686
X-82.038 Y-56.013
X-81.732 Y-55.333
X-81.44 Y-54.648
X-81.161 Y-53.957
X-80.895 Y-53.261
X-80.644 Y-52.56
X-80.406 Y-51.854
X-80.182 Y-51.143
X-79.973 Y-50.428
X-79.777 Y-49.709
X-79.596 Y-48.986
X-79.428 Y-48.26
X-79.275 Y-47.531
X-79.136 Y-46.799
X-79.011 Y-46.065
X-78.9 Y-45.328
X-78.803 Y-44.589
X-78.721 Y-43.849
X-78.654 Y-43.107
X-78.6 Y-42.364
X-78.562 Y-41.619
X-78.538 Y-40.875
X-78.528 Y-40.13
X-78.534 Y-39.385
X-78.553 Y-38.64
X-78.587 Y-37.896
X-78.636 Y-37.152
X-78.699 Y-36.41
X-78.777 Y-35.669
X-78.868 Y-34.929
X-78.974 Y-34.192
X-79.095 Y-33.457
X-79.229 Y-32.724
X-79.378 Y-31.994
X-79.541 Y-31.267
X-79.719 Y-30.543
X-79.911 Y-29.823
X-80.117 Y-29.107
X-80.337 Y-28.396
X-80.571 Y-27.688
X-80.819 Y-26.986
X-81.081 Y-26.288
X-81.356 Y-25.596
X-81.645 Y-24.909
X-81.947 Y-24.228
X-82.262 Y-23.552
X-82.59 Y-22.884
X-82.931 Y-22.221
X-83.285 Y-21.565
X-83.651 Y-20.917
X-84.031 Y-20.275
X-84.422 Y-19.642
X-84.826 Y-19.016
X-85.243 Y-18.398
X-85.671 Y-17.788
X-86.111 Y-17.187
X-86.563 Y-16.595
X-87.026 Y-16.011
X-87.501 Y-15.437
X-87.986 Y-14.871
X-88.483 Y-14.316
X-88.99 Y-13.77
X-89.507 Y-13.234
X-90.035 Y-12.708
X-90.573 Y-12.192
X-91.121 Y-11.688
X-91.679 Y-11.194
X-92.246 Y-10.711
X-92.823 Y-10.24
X-93.41 Y-9.78
X-94.005 Y-9.332
X-94.608 Y-8.895
X-95.221 Y-8.47
X-95.841 Y-8.058
X-96.469 Y-7.657
X-97.105 Y-7.268
X-97.748 Y-6.892
X-98.398 Y-6.528
X-99.055 Y-6.177
X-99.719 Y-5.839
X-100.39 Y-5.514
X-101.066 Y-5.202
X-101.168 Y-5.158
X-101.264 Y-5.123
