%
(1001)
(wood-rev2-holes)
(T5  D=3.175 CR=0 - ZMIN=-5 - flat end mill)
G90
G17
G21
G28 G91 Z0
G90

(Drill4 2)
M9
T5 M6
S16000 M3
G54
M7
G0 X-211.5 Y-59.5
Z15.24
Z5.08
Z2
G1 Z-0.794 F304.8
G0 Z5.08
Z1.206
G1 Z-1.587 F304.8
G0 Z5.08
Z0.413
G1 Z-2.381 F304.8
G0 Z5.08
Z-0.381
G1 Z-3.175 F304.8
G0 Z5.08
Z-1.175
G1 Z-3.969 F304.8
G0 Z5.08
Z-1.969
G1 Z-4.762 F304.8
G0 Z5.08
Z-2.762
G1 Z-5 F304.8
G0 Z5.08
Y-21.5
Z2
G1 Z-0.794 F304.8
G0 Z5.08
Z1.206
G1 Z-1.587 F304.8
G0 Z5.08
Z0.413
G1 Z-2.381 F304.8
G0 Z5.08
Z-0.381
G1 Z-3.175 F304.8
G0 Z5.08
Z-1.175
G1 Z-3.969 F304.8
G0 Z5.08
Z-1.969
G1 Z-4.762 F304.8
G0 Z5.08
Z-2.762
G1 Z-5 F304.8
G0 Z5.08
X-116.5 Y-40.5
Z2
G1 Z-0.794 F304.8
G0 Z5.08
Z1.206
G1 Z-1.587 F304.8
G0 Z5.08
Z0.413
G1 Z-2.381 F304.8
G0 Z5.08
Z-0.381
G1 Z-3.175 F304.8
G0 Z5.08
Z-1.175
G1 Z-3.969 F304.8
G0 Z5.08
Z-1.969
G1 Z-4.762 F304.8
G0 Z5.08
Z-2.762
G1 Z-5 F304.8
G0 Z5.08
X-21.5 Y-21.5
Z2
G1 Z-0.794 F304.8
G0 Z5.08
Z1.206
G1 Z-1.587 F304.8
G0 Z5.08
Z0.413
G1 Z-2.381 F304.8
G0 Z5.08
Z-0.381
G1 Z-3.175 F304.8
G0 Z5.08
Z-1.175
G1 Z-3.969 F304.8
G0 Z5.08
Z-1.969
G1 Z-4.762 F304.8
G0 Z5.08
Z-2.762
G1 Z-5 F304.8
G0 Z5.08
Y-59.5
Z2
G1 Z-0.794 F304.8
G0 Z5.08
Z1.206
G1 Z-1.587 F304.8
G0 Z5.08
Z0.413
G1 Z-2.381 F304.8
G0 Z5.08
Z-0.381
G1 Z-3.175 F304.8
G0 Z5.08
Z-1.175
G1 Z-3.969 F304.8
G0 Z5.08
Z-1.969
G1 Z-4.762 F304.8
G0 Z5.08
Z-2.762
G1 Z-5 F304.8
G0 Z5.08
Z15.24

(2D Contour3 6)
M9
X-211.417 Y-21.5
Z15.24
Z5.08
G1 Z1 F762
Z-5
G3 X-211.583 I-0.083 J0
X-211.417 I0.083 J0
G0 Z15.24

(2D Contour3 7)
M9
X-211.417 Y-59.5
Z15.24
Z5.08
G1 Z1 F762
Z-5
G3 X-211.583 I-0.083 J0
X-211.417 I0.083 J0
G0 Z15.24

(2D Contour3 8)
M9
X-116.418 Y-40.5
Z15.24
Z5.08
G1 Z1 F762
Z-5
G3 X-116.582 I-0.082 J0
X-116.418 I0.082 J0
G0 Z15.24

(2D Contour3 9)
M9
X-21.417 Y-21.5
Z15.24
Z5.08
G1 Z1 F762
Z-5
G3 X-21.583 I-0.083 J0
X-21.417 I0.083 J0
G0 Z15.24

(2D Contour3 10)
M9
X-21.417 Y-59.5
Z15.24
Z5.08
G1 Z1 F762
Z-5
G3 X-21.583 I-0.083 J0
X-21.417 I0.083 J0
G0 Z15.24
M9
G28 G91 Z0
G28 X0 Y0
M30
%
