%
(1001)
(planck-wood-top-rev3)
(T5  D=3.175 CR=0 - ZMIN=-10.5 - flat end mill)
G90
G17
G21
G28 G91 Z0
G90

(2D Adaptive7)
M9
T5 M6
S16000 M3
G54
M7
G0 X-116.244 Y-41.986
Z15.24
Z5.08
Z2.858
G1 Z2.54 F2032
G3 X-116.756 Y-39.014 Z2.375 I-0.256 J1.486 F762
X-116.244 Y-41.986 Z2.209 I0.256 J-1.486
X-116.756 Y-39.014 Z2.044 I-0.256 J1.486
X-116.244 Y-41.986 Z1.878 I0.256 J-1.486
X-116.756 Y-39.014 Z1.713 I-0.256 J1.486
X-116.244 Y-41.986 Z1.547 I0.256 J-1.486
X-116.756 Y-39.014 Z1.382 I-0.256 J1.486
X-116.244 Y-41.986 Z1.216 I0.256 J-1.486
X-116.756 Y-39.014 Z1.051 I-0.256 J1.486
X-116.244 Y-41.986 Z0.885 I0.256 J-1.486
X-116.756 Y-39.014 Z0.72 I-0.256 J1.486
X-116.244 Y-41.986 Z0.555 I0.256 J-1.486
X-116.756 Y-39.014 Z0.389 I-0.256 J1.486
X-116.244 Y-41.986 Z0.224 I0.256 J-1.486
X-116.756 Y-39.014 Z0.058 I-0.256 J1.486
X-116.244 Y-41.986 Z-0.107 I0.256 J-1.486
X-116.756 Y-39.014 Z-0.273 I-0.256 J1.486
X-116.244 Y-41.986 Z-0.438 I0.256 J-1.486
X-116.756 Y-39.014 Z-0.604 I-0.256 J1.486
X-116.244 Y-41.986 Z-0.769 I0.256 J-1.486
X-116.756 Y-39.014 Z-0.934 I-0.256 J1.486
X-116.244 Y-41.986 Z-1.1 I0.256 J-1.486
X-116.756 Y-39.014 Z-1.265 I-0.256 J1.486
X-116.244 Y-41.986 Z-1.431 I0.256 J-1.486
X-116.756 Y-39.014 Z-1.596 I-0.256 J1.486
X-116.244 Y-41.986 Z-1.762 I0.256 J-1.486
X-116.756 Y-39.014 Z-1.927 I-0.256 J1.486
X-116.244 Y-41.986 Z-2.093 I0.256 J-1.486
X-116.756 Y-39.014 Z-2.258 I-0.256 J1.486
X-116.244 Y-41.986 Z-2.424 I0.256 J-1.486
X-116.756 Y-39.014 Z-2.589 I-0.256 J1.486
X-116.244 Y-41.986 Z-2.754 I0.256 J-1.486
X-116.756 Y-39.014 Z-2.92 I-0.256 J1.486
X-116.244 Y-41.986 Z-3.085 I0.256 J-1.486
X-116.756 Y-39.014 Z-3.251 I-0.256 J1.486
X-116.244 Y-41.986 Z-3.416 I0.256 J-1.486
X-114.992 Y-40.5 Z-3.49 I-0.256 J1.486
X-118.008 I-1.508 J0
X-114.992 I1.508 J0
G1 X-114.972 Y-39.755 F5080
X-114.967 Y-39.662
X-114.976 Y-39.51
X-115.011 Y-39.362
X-115.068 Y-39.22
X-115.142 Y-39.088
X-115.232 Y-38.964
X-115.335 Y-38.851
X-115.448 Y-38.75
X-115.571 Y-38.659
X-115.701 Y-38.58
X-115.838 Y-38.514
X-115.98 Y-38.459
X-116.126 Y-38.416
X-116.276 Y-38.385
X-116.427 Y-38.367
X-116.579 Y-38.36
X-116.732 Y-38.365
X-116.883 Y-38.381
X-117.033 Y-38.409
X-117.18 Y-38.448
X-117.324 Y-38.498
X-117.464 Y-38.558
X-117.6 Y-38.628
X-117.729 Y-38.708
X-117.853 Y-38.797
X-117.97 Y-38.895
X-118.08 Y-39.001
X-118.182 Y-39.114
X-118.275 Y-39.234
X-118.36 Y-39.361
X-118.436 Y-39.493
X-118.502 Y-39.63
X-118.559 Y-39.772
X-118.605 Y-39.917
X-118.641 Y-40.065
X-118.667 Y-40.215
X-118.682 Y-40.367
X-118.686 Y-40.519
X-118.68 Y-40.671
X-118.663 Y-40.823
X-118.635 Y-40.973
X-118.597 Y-41.12
X-118.549 Y-41.265
X-118.491 Y-41.406
X-118.423 Y-41.542
X-118.346 Y-41.674
X-118.26 Y-41.799
X-118.165 Y-41.919
X-118.062 Y-42.031
X-117.952 Y-42.137
X-117.835 Y-42.234
X-117.711 Y-42.322
X-117.581 Y-42.402
X-117.446 Y-42.473
X-117.306 Y-42.534
X-117.163 Y-42.585
X-117.016 Y-42.626
X-116.867 Y-42.657
X-116.716 Y-42.678
X-116.564 Y-42.687
X-116.411 Y-42.686
X-116.259 Y-42.675
X-116.109 Y-42.653
X-115.96 Y-42.62
X-115.813 Y-42.578
X-115.67 Y-42.525
X-115.531 Y-42.462
X-115.397 Y-42.39
X-115.268 Y-42.309
X-115.145 Y-42.219
X-115.029 Y-42.12
X-114.92 Y-42.014
X-114.818 Y-41.9
X-114.725 Y-41.78
X-114.64 Y-41.653
X-114.564 Y-41.521
X-114.483 Y-41.353
X-114.395 Y-41.138
X-114.304 Y-40.861
X-114.241 Y-40.615
X-114.204 Y-40.416
X-114.181 Y-40.225
X-114.172 Y-40.047
X-114.175 Y-39.884
X-114.189 Y-39.72
X-114.213 Y-39.563
X-114.246 Y-39.414
X-114.29 Y-39.264
X-114.343 Y-39.12
X-114.405 Y-38.981
X-114.478 Y-38.845
X-114.56 Y-38.712
X-114.65 Y-38.587
X-114.748 Y-38.469
X-114.857 Y-38.353
X-114.976 Y-38.244
X-115.101 Y-38.143
X-115.232 Y-38.051
X-115.373 Y-37.966
X-115.522 Y-37.888
X-115.678 Y-37.821
X-115.839 Y-37.763
X-116.004 Y-37.716
X-116.172 Y-37.681
X-116.346 Y-37.656
X-116.523 Y-37.643
X-116.703 Y-37.641
X-116.885 Y-37.652
X-117.066 Y-37.676
X-117.246 Y-37.711
X-117.424 Y-37.759
X-117.599 Y-37.818
X-117.771 Y-37.89
X-117.939 Y-37.974
X-118.101 Y-38.069
X-118.258 Y-38.176
X-118.408 Y-38.293
X-118.551 Y-38.421
X-118.685 Y-38.559
X-118.81 Y-38.706
X-118.925 Y-38.862
X-119.03 Y-39.025
X-119.124 Y-39.195
X-119.206 Y-39.371
X-119.276 Y-39.553
X-119.334 Y-39.739
X-119.379 Y-39.928
X-119.412 Y-40.121
X-119.432 Y-40.315
X-119.438 Y-40.51
X-119.431 Y-40.706
X-119.412 Y-40.901
X-119.379 Y-41.095
X-119.333 Y-41.286
X-119.274 Y-41.474
X-119.203 Y-41.657
X-119.12 Y-41.836
X-119.025 Y-42.008
X-118.918 Y-42.174
X-118.8 Y-42.333
X-118.672 Y-42.483
X-118.534 Y-42.625
X-118.387 Y-42.756
X-118.232 Y-42.878
X-118.068 Y-42.989
X-117.898 Y-43.089
X-117.721 Y-43.177
X-117.538 Y-43.253
X-117.352 Y-43.317
X-117.161 Y-43.368
X-116.967 Y-43.406
X-116.771 Y-43.431
X-116.575 Y-43.442
X-116.377 Y-43.441
X-116.181 Y-43.426
X-115.985 Y-43.398
X-115.792 Y-43.357
X-115.603 Y-43.303
X-115.417 Y-43.237
X-115.236 Y-43.158
X-115.06 Y-43.067
X-114.891 Y-42.964
X-114.729 Y-42.851
X-114.575 Y-42.726
X-114.425 Y-42.587
X-114.276 Y-42.43
X-114.134 Y-42.257
X-113.994 Y-42.063
X-113.862 Y-41.849
X-113.743 Y-41.626
X-113.64 Y-41.396
X-113.554 Y-41.163
X-113.486 Y-40.931
X-113.434 Y-40.699
X-113.398 Y-40.469
X-113.379 Y-40.243
X-113.375 Y-40.02
X-113.386 Y-39.8
X-113.411 Y-39.585
X-113.45 Y-39.373
X-113.503 Y-39.166
X-113.569 Y-38.964
X-113.649 Y-38.768
X-113.742 Y-38.577
X-113.847 Y-38.392
X-113.964 Y-38.216
X-114.094 Y-38.046
X-114.235 Y-37.886
X-114.388 Y-37.734
X-114.551 Y-37.592
X-114.724 Y-37.461
X-114.907 Y-37.341
X-115.098 Y-37.232
X-115.297 Y-37.137
X-115.504 Y-37.054
X-115.718 Y-36.985
X-115.937 Y-36.93
X-116.161 Y-36.889
X-116.389 Y-36.864
X-116.62 Y-36.854
X-116.851 Y-36.859
X-117.084 Y-36.88
X-117.315 Y-36.917
X-117.545 Y-36.969
X-117.773 Y-37.037
X-117.996 Y-37.121
X-118.214 Y-37.22
X-118.427 Y-37.334
X-118.632 Y-37.463
X-118.828 Y-37.606
X-119.016 Y-37.762
X-119.193 Y-37.93
X-119.358 Y-38.111
X-119.512 Y-38.303
X-119.653 Y-38.506
X-119.78 Y-38.717
X-119.892 Y-38.937
X-119.99 Y-39.165
X-120.073 Y-39.399
X-120.14 Y-39.638
X-120.19 Y-39.882
X-120.224 Y-40.128
X-120.242 Y-40.377
Y-40.627
X-120.227 Y-40.876
X-120.194 Y-41.124
X-120.144 Y-41.37
X-120.079 Y-41.611
X-119.997 Y-41.848
X-119.899 Y-42.08
X-119.786 Y-42.304
X-119.658 Y-42.52
X-119.516 Y-42.727
X-119.36 Y-42.925
X-119.191 Y-43.111
X-119.01 Y-43.286
X-118.818 Y-43.448
X-118.615 Y-43.597
X-118.403 Y-43.732
X-118.182 Y-43.853
X-117.953 Y-43.958
X-117.718 Y-44.048
X-117.478 Y-44.122
X-117.233 Y-44.179
X-116.985 Y-44.22
X-116.734 Y-44.245
X-116.483 Y-44.252
X-116.231 Y-44.242
X-115.981 Y-44.216
X-115.733 Y-44.173
X-115.489 Y-44.113
X-115.249 Y-44.037
X-115.014 Y-43.945
X-114.785 Y-43.837
X-114.561 Y-43.712
X-114.342 Y-43.571
X-114.129 Y-43.411
X-113.921 Y-43.232
X-113.722 Y-43.036
X-113.533 Y-42.825
X-113.357 Y-42.598
X-113.195 Y-42.357
X-113.049 Y-42.104
X-112.919 Y-41.842
X-112.808 Y-41.573
X-112.716 Y-41.299
X-112.644 Y-41.022
X-112.59 Y-40.743
X-112.556 Y-40.463
X-112.54 Y-40.185
X-112.544 Y-39.908
X-112.565 Y-39.634
X-112.605 Y-39.363
X-112.663 Y-39.097
X-112.738 Y-38.836
X-112.83 Y-38.581
X-112.939 Y-38.333
X-113.065 Y-38.093
X-113.206 Y-37.862
X-113.363 Y-37.641
X-113.535 Y-37.43
X-113.72 Y-37.231
X-113.92 Y-37.044
X-114.132 Y-36.871
X-114.356 Y-36.711
X-114.591 Y-36.567
X-114.837 Y-36.437
X-115.092 Y-36.324
X-115.355 Y-36.228
X-115.625 Y-36.15
X-115.902 Y-36.089
X-116.183 Y-36.047
X-116.467 Y-36.024
X-116.754 Y-36.02
X-117.042 Y-36.035
X-117.33 Y-36.07
X-117.615 Y-36.124
X-117.898 Y-36.198
X-118.177 Y-36.291
X-118.45 Y-36.402
X-118.716 Y-36.533
X-118.973 Y-36.681
X-119.221 Y-36.847
X-119.458 Y-37.03
X-119.682 Y-37.229
X-119.894 Y-37.443
X-120.091 Y-37.671
X-120.272 Y-37.913
X-120.438 Y-38.167
X-120.586 Y-38.431
X-120.716 Y-38.706
X-120.828 Y-38.989
X-120.92 Y-39.279
X-120.993 Y-39.575
X-121.047 Y-39.876
X-121.079 Y-40.18
X-121.092 Y-40.486
X-121.083 Y-40.793
X-121.055 Y-41.098
X-121.005 Y-41.401
X-120.936 Y-41.7
X-120.846 Y-41.994
X-120.737 Y-42.282
X-120.609 Y-42.562
X-120.462 Y-42.833
X-120.297 Y-43.093
X-120.115 Y-43.342
X-119.917 Y-43.578
X-119.703 Y-43.8
X-119.475 Y-44.008
X-119.233 Y-44.199
X-118.979 Y-44.375
X-118.714 Y-44.532
X-118.439 Y-44.672
X-118.155 Y-44.793
X-117.863 Y-44.894
X-117.566 Y-44.976
X-117.263 Y-45.037
X-116.957 Y-45.078
X-116.649 Y-45.099
X-116.341 Y-45.098
X-116.033 Y-45.077
X-115.727 Y-45.036
X-115.424 Y-44.974
X-115.125 Y-44.891
X-114.831 Y-44.788
X-114.542 Y-44.665
X-114.258 Y-44.52
X-113.981 Y-44.355
X-113.713 Y-44.169
X-113.454 Y-43.963
X-113.207 Y-43.738
X-112.973 Y-43.494
X-112.755 Y-43.232
X-112.553 Y-42.956
X-112.37 Y-42.665
X-112.206 Y-42.362
X-112.063 Y-42.05
X-111.942 Y-41.729
X-111.844 Y-41.402
X-111.767 Y-41.071
X-111.713 Y-40.736
X-111.682 Y-40.401
X-111.674 Y-40.065
X-111.688 Y-39.731
X-111.724 Y-39.4
X-111.782 Y-39.073
X-111.862 Y-38.752
X-111.963 Y-38.437
X-112.085 Y-38.13
X-112.227 Y-37.832
X-112.389 Y-37.544
X-112.57 Y-37.268
X-112.769 Y-37.004
X-112.986 Y-36.753
X-113.219 Y-36.518
X-113.469 Y-36.297
X-113.733 Y-36.094
X-114.011 Y-35.908
X-114.303 Y-35.741
X-114.605 Y-35.593
X-114.918 Y-35.466
X-115.24 Y-35.359
X-115.57 Y-35.274
X-115.906 Y-35.211
X-116.247 Y-35.17
X-116.591 Y-35.153
X-116.937 Y-35.158
X-117.283 Y-35.187
X-117.628 Y-35.239
X-117.969 Y-35.315
X-118.306 Y-35.413
X-118.637 Y-35.535
X-118.96 Y-35.679
X-119.274 Y-35.844
X-119.577 Y-36.031
X-119.867 Y-36.239
X-120.144 Y-36.466
X-120.405 Y-36.712
X-120.65 Y-36.975
X-120.877 Y-37.254
X-121.085 Y-37.549
X-121.273 Y-37.858
X-121.44 Y-38.179
X-121.586 Y-38.511
X-121.709 Y-38.853
X-121.809 Y-39.202
X-121.885 Y-39.558
X-121.938 Y-39.918
X-121.966 Y-40.282
X-121.969 Y-40.647
X-121.949 Y-41.012
X-121.903 Y-41.375
X-121.834 Y-41.734
X-121.74 Y-42.088
X-121.623 Y-42.435
X-121.483 Y-42.774
X-121.32 Y-43.103
X-121.135 Y-43.42
X-120.929 Y-43.724
X-120.704 Y-44.014
X-120.459 Y-44.288
X-120.197 Y-44.545
X-119.917 Y-44.784
X-119.623 Y-45.004
X-119.314 Y-45.203
X-118.992 Y-45.382
X-118.66 Y-45.538
X-118.317 Y-45.672
X-117.966 Y-45.782
X-117.609 Y-45.869
X-117.247 Y-45.931
X-116.881 Y-45.969
X-116.513 Y-45.982
X-116.145 Y-45.971
X-115.778 Y-45.935
X-115.413 Y-45.874
X-115.052 Y-45.788
X-114.695 Y-45.678
X-114.344 Y-45.543
X-114.001 Y-45.384
X-113.666 Y-45.201
X-113.342 Y-44.994
X-113.03 Y-44.763
X-112.731 Y-44.511
X-112.448 Y-44.236
X-112.182 Y-43.942
X-111.936 Y-43.628
X-111.71 Y-43.298
X-111.506 Y-42.952
X-111.326 Y-42.594
X-111.171 Y-42.225
X-111.041 Y-41.846
X-110.937 Y-41.461
X-110.859 Y-41.07
X-110.808 Y-40.676
X-110.783 Y-40.281
X-110.785 Y-39.886
X-110.814 Y-39.494
X-110.868 Y-39.104
X-110.948 Y-38.721
X-111.054 Y-38.344
X-111.185 Y-37.975
X-111.34 Y-37.616
X-111.519 Y-37.269
X-111.72 Y-36.934
X-111.944 Y-36.613
X-112.189 Y-36.308
X-112.455 Y-36.02
X-112.739 Y-35.749
X-113.042 Y-35.498
X-113.362 Y-35.267
X-113.697 Y-35.057
X-114.047 Y-34.87
X-114.409 Y-34.707
X-114.783 Y-34.567
X-115.166 Y-34.453
X-115.557 Y-34.364
X-115.955 Y-34.302
X-116.358 Y-34.266
X-116.763 Y-34.258
X-117.169 Y-34.277
X-117.575 Y-34.323
X-117.977 Y-34.396
X-118.375 Y-34.497
X-118.767 Y-34.624
X-119.15 Y-34.778
X-119.523 Y-34.958
X-119.885 Y-35.163
X-120.232 Y-35.392
X-120.564 Y-35.645
X-120.879 Y-35.92
X-121.176 Y-36.216
X-121.452 Y-36.532
X-121.707 Y-36.866
X-121.94 Y-37.218
X-122.148 Y-37.584
X-122.332 Y-37.965
X-122.49 Y-38.357
X-122.622 Y-38.76
X-122.726 Y-39.171
X-122.803 Y-39.588
X-122.851 Y-40.01
X-122.871 Y-40.435
X-122.863 Y-40.861
X-122.826 Y-41.285
X-122.76 Y-41.706
X-122.667 Y-42.122
X-122.545 Y-42.531
X-122.397 Y-42.932
X-122.221 Y-43.321
X-122.02 Y-43.698
X-121.794 Y-44.061
X-121.544 Y-44.408
X-121.271 Y-44.738
X-120.977 Y-45.048
X-120.662 Y-45.338
X-120.329 Y-45.607
X-119.978 Y-45.852
X-119.611 Y-46.073
X-119.231 Y-46.27
X-118.838 Y-46.44
X-118.435 Y-46.584
X-118.022 Y-46.7
X-117.603 Y-46.788
X-117.179 Y-46.848
X-116.751 Y-46.88
X-116.322 Y-46.882
X-115.893 Y-46.856
X-115.465 Y-46.801
X-115.041 Y-46.717
X-114.621 Y-46.604
X-114.208 Y-46.463
X-113.803 Y-46.293
X-113.408 Y-46.095
X-113.024 Y-45.87
X-112.654 Y-45.618
X-112.3 Y-45.339
X-111.963 Y-45.036
X-111.646 Y-44.709
X-111.35 Y-44.361
X-111.077 Y-43.992
X-110.829 Y-43.605
X-110.608 Y-43.201
X-110.414 Y-42.784
X-110.248 Y-42.355
X-110.112 Y-41.916
X-110.006 Y-41.469
X-109.93 Y-41.018
X-109.884 Y-40.563
X-109.87 Y-40.107
X-109.886 Y-39.651
X-109.932 Y-39.199
X-110.009 Y-38.752
X-110.115 Y-38.311
X-110.25 Y-37.879
X-110.414 Y-37.457
X-110.606 Y-37.047
X-110.825 Y-36.651
X-111.07 Y-36.271
X-111.341 Y-35.907
X-111.635 Y-35.562
X-111.952 Y-35.237
X-112.291 Y-34.934
X-112.65 Y-34.654
X-113.028 Y-34.398
X-113.423 Y-34.167
X-113.834 Y-33.963
X-114.258 Y-33.787
X-114.695 Y-33.639
X-115.141 Y-33.52
X-115.596 Y-33.432
X-116.057 Y-33.373
X-116.522 Y-33.346
X-116.99 Y-33.351
X-117.457 Y-33.386
X-117.922 Y-33.453
X-118.383 Y-33.552
X-118.837 Y-33.681
X-119.283 Y-33.841
X-119.718 Y-34.031
X-120.141 Y-34.251
X-120.548 Y-34.499
X-120.939 Y-34.774
X-121.312 Y-35.075
X-121.664 Y-35.402
X-121.993 Y-35.752
X-122.299 Y-36.123
X-122.58 Y-36.515
X-122.835 Y-36.926
X-123.061 Y-37.353
X-123.259 Y-37.796
X-123.426 Y-38.25
X-123.563 Y-38.716
X-123.668 Y-39.19
X-123.742 Y-39.671
X-123.783 Y-40.156
X-123.791 Y-40.643
X-123.767 Y-41.13
X-123.709 Y-41.614
X-123.62 Y-42.094
X-123.498 Y-42.567
X-123.345 Y-43.031
X-123.161 Y-43.484
X-122.947 Y-43.923
X-122.704 Y-44.348
X-122.433 Y-44.755
X-122.135 Y-45.143
X-121.812 Y-45.511
X-121.464 Y-45.856
X-121.094 Y-46.177
X-120.704 Y-46.472
X-120.294 Y-46.741
X-119.867 Y-46.982
X-119.425 Y-47.193
X-118.97 Y-47.374
X-118.503 Y-47.525
X-118.028 Y-47.644
X-117.545 Y-47.73
X-117.057 Y-47.784
X-116.566 Y-47.805
X-116.074 Y-47.794
X-115.583 Y-47.749
X-115.094 Y-47.671
X-114.61 Y-47.56
X-114.132 Y-47.416
X-113.663 Y-47.239
X-113.205 Y-47.031
X-112.759 Y-46.791
X-112.329 Y-46.52
X-111.915 Y-46.219
X-111.521 Y-45.89
X-111.148 Y-45.534
X-110.798 Y-45.152
X-110.475 Y-44.746
X-110.178 Y-44.319
X-109.911 Y-43.872
X-109.674 Y-43.408
X-109.468 Y-42.929
X-109.296 Y-42.437
X-109.156 Y-41.936
X-109.051 Y-41.426
X-108.981 Y-40.912
X-108.945 Y-40.394
X-108.944 Y-39.876
X-108.977 Y-39.36
X-109.046 Y-38.848
X-109.148 Y-38.341
X-109.284 Y-37.844
X-109.453 Y-37.357
X-109.654 Y-36.882
X-109.886 Y-36.422
X-110.149 Y-35.978
X-110.442 Y-35.553
X-110.762 Y-35.149
X-111.109 Y-34.766
X-111.481 Y-34.407
X-111.878 Y-34.074
X-112.296 Y-33.767
X-112.735 Y-33.488
X-113.192 Y-33.24
X-113.667 Y-33.021
X-114.155 Y-32.835
X-114.657 Y-32.682
X-115.168 Y-32.562
X-115.688 Y-32.477
X-116.213 Y-32.427
X-116.742 Y-32.412
X-117.273 Y-32.433
X-117.801 Y-32.489
X-118.326 Y-32.581
X-118.845 Y-32.708
X-119.356 Y-32.871
X-119.855 Y-33.067
X-120.342 Y-33.297
X-120.812 Y-33.56
X-121.265 Y-33.854
X-121.698 Y-34.179
X-122.109 Y-34.533
X-122.495 Y-34.914
X-122.856 Y-35.32
X-123.19 Y-35.751
X-123.494 Y-36.204
X-123.767 Y-36.676
X-124.008 Y-37.167
X-124.216 Y-37.673
X-124.39 Y-38.192
X-124.529 Y-38.723
X-124.632 Y-39.262
X-124.698 Y-39.807
X-124.728 Y-40.356
X-124.721 Y-40.906
X-124.677 Y-41.455
X-124.596 Y-42
X-124.479 Y-42.538
X-124.325 Y-43.068
X-124.137 Y-43.586
X-123.914 Y-44.091
X-123.658 Y-44.579
X-123.369 Y-45.05
X-123.049 Y-45.5
X-122.7 Y-45.928
X-122.322 Y-46.332
X-121.919 Y-46.71
X-121.49 Y-47.059
X-121.04 Y-47.379
X-120.568 Y-47.668
X-120.079 Y-47.925
X-119.573 Y-48.149
X-119.053 Y-48.338
X-118.522 Y-48.492
X-117.981 Y-48.61
X-117.433 Y-48.691
X-116.88 Y-48.736
X-116.324 Y-48.743
X-115.769 Y-48.713
X-115.215 Y-48.645
X-114.666 Y-48.54
X-114.123 Y-48.399
X-113.588 Y-48.22
X-113.065 Y-48.005
X-112.556 Y-47.754
X-112.062 Y-47.469
X-111.586 Y-47.149
X-111.131 Y-46.797
X-110.699 Y-46.414
X-110.292 Y-46.001
X-109.913 Y-45.561
X-109.564 Y-45.095
X-109.246 Y-44.606
X-108.962 Y-44.097
X-108.712 Y-43.569
X-108.498 Y-43.026
X-108.321 Y-42.469
X-108.182 Y-41.903
X-108.082 Y-41.329
X-108.02 Y-40.75
X-107.997 Y-40.168
X-108.013 Y-39.588
X-108.069 Y-39.01
X-108.162 Y-38.437
X-108.294 Y-37.873
X-108.464 Y-37.319
X-108.67 Y-36.778
X-108.911 Y-36.252
X-109.188 Y-35.743
X-109.498 Y-35.254
X-109.841 Y-34.787
X-110.214 Y-34.343
X-110.617 Y-33.925
X-111.048 Y-33.535
X-111.504 Y-33.174
X-111.984 Y-32.843
X-112.486 Y-32.546
X-113.008 Y-32.282
X-113.547 Y-32.053
X-114.102 Y-31.861
X-114.669 Y-31.706
X-115.247 Y-31.589
X-115.832 Y-31.511
X-116.423 Y-31.472
X-117.016 Y-31.474
X-117.609 Y-31.515
X-118.199 Y-31.596
X-118.784 Y-31.716
X-119.361 Y-31.876
X-119.926 Y-32.075
X-120.478 Y-32.311
X-121.014 Y-32.585
X-121.532 Y-32.895
X-122.028 Y-33.239
X-122.501 Y-33.616
X-122.948 Y-34.025
X-123.367 Y-34.464
X-123.756 Y-34.93
X-124.114 Y-35.422
X-124.438 Y-35.938
X-124.728 Y-36.474
X-124.98 Y-37.03
X-125.196 Y-37.602
X-125.372 Y-38.187
X-125.509 Y-38.784
X-125.606 Y-39.389
X-125.661 Y-39.999
X-125.676 Y-40.612
X-125.65 Y-41.226
X-125.582 Y-41.836
X-125.474 Y-42.441
X-125.325 Y-43.037
X-125.136 Y-43.623
X-124.909 Y-44.194
X-124.643 Y-44.749
X-124.341 Y-45.286
X-124.003 Y-45.801
X-123.632 Y-46.292
X-123.228 Y-46.757
X-122.794 Y-47.194
X-122.331 Y-47.602
X-121.842 Y-47.977
X-121.329 Y-48.319
X-120.794 Y-48.625
X-120.24 Y-48.895
X-119.668 Y-49.127
X-119.082 Y-49.321
X-118.485 Y-49.474
X-117.878 Y-49.588
X-117.264 Y-49.66
X-116.646 Y-49.691
X-116.026 Y-49.68
X-115.407 Y-49.628
X-114.791 Y-49.534
X-114.182 Y-49.399
X-113.581 Y-49.222
X-112.991 Y-49.005
X-112.415 Y-48.748
X-111.856 Y-48.452
X-111.316 Y-48.117
X-110.797 Y-47.746
X-110.303 Y-47.339
X-109.836 Y-46.899
X-109.398 Y-46.427
X-108.993 Y-45.926
X-108.621 Y-45.398
X-108.285 Y-44.846
X-107.986 Y-44.271
X-107.727 Y-43.678
X-107.508 Y-43.069
X-107.331 Y-42.447
X-107.196 Y-41.814
X-107.104 Y-41.175
X-107.054 Y-40.531
X-107.049 Y-39.886
X-107.086 Y-39.242
X-107.167 Y-38.603
X-107.29 Y-37.971
X-107.455 Y-37.349
X-107.661 Y-36.74
X-107.908 Y-36.146
X-108.194 Y-35.57
X-108.518 Y-35.015
X-108.879 Y-34.482
X-109.275 Y-33.975
X-109.705 Y-33.494
X-110.166 Y-33.044
X-110.657 Y-32.625
X-111.175 Y-32.239
X-111.72 Y-31.888
X-112.287 Y-31.575
X-112.875 Y-31.299
X-113.481 Y-31.063
X-114.103 Y-30.869
X-114.737 Y-30.716
X-115.382 Y-30.605
X-116.033 Y-30.538
X-116.69 Y-30.515
X-117.347 Y-30.536
X-118.003 Y-30.602
X-118.654 Y-30.711
X-119.298 Y-30.864
X-119.931 Y-31.061
X-120.55 Y-31.299
X-121.154 Y-31.58
X-121.738 Y-31.9
X-122.3 Y-32.26
X-122.837 Y-32.657
X-123.347 Y-33.09
X-123.828 Y-33.557
X-124.277 Y-34.056
X-124.692 Y-34.585
X-125.071 Y-35.141
X-125.412 Y-35.721
X-125.714 Y-36.324
X-125.975 Y-36.946
X-126.193 Y-37.585
X-126.369 Y-38.238
X-126.5 Y-38.901
X-126.587 Y-39.572
X-126.628 Y-40.248
X-126.624 Y-40.926
X-126.575 Y-41.602
X-126.48 Y-42.274
X-126.34 Y-42.938
X-126.156 Y-43.591
X-125.928 Y-44.231
X-125.658 Y-44.855
X-125.346 Y-45.459
X-124.995 Y-46.041
X-124.605 Y-46.598
X-124.179 Y-47.128
X-123.718 Y-47.628
X-123.224 Y-48.096
X-122.7 Y-48.53
X-122.148 Y-48.928
X-121.57 Y-49.288
X-120.969 Y-49.609
X-120.348 Y-49.888
X-119.71 Y-50.126
X-119.057 Y-50.32
X-118.392 Y-50.469
X-117.717 Y-50.574
X-117.037 Y-50.634
X-116.353 Y-50.648
X-115.669 Y-50.615
X-114.987 Y-50.537
X-114.31 Y-50.413
X-113.642 Y-50.243
X-112.984 Y-50.028
X-112.34 Y-49.769
X-111.713 Y-49.466
X-111.106 Y-49.121
X-110.522 Y-48.734
X-109.963 Y-48.308
X-109.432 Y-47.844
X-108.933 Y-47.344
X-108.467 Y-46.81
X-108.038 Y-46.246
X-107.646 Y-45.653
X-107.295 Y-45.035
X-106.987 Y-44.394
X-106.722 Y-43.734
X-106.501 Y-43.058
X-106.327 Y-42.369
X-106.2 Y-41.67
X-106.119 Y-40.964
X-106.087 Y-40.255
X-106.102 Y-39.545
X-106.164 Y-38.839
X-106.274 Y-38.139
X-106.43 Y-37.449
X-106.632 Y-36.77
X-106.879 Y-36.107
X-107.171 Y-35.462
X-107.504 Y-34.838
X-107.88 Y-34.238
X-108.294 Y-33.663
X-108.747 Y-33.118
X-109.235 Y-32.604
X-109.758 Y-32.123
X-110.312 Y-31.679
X-110.895 Y-31.271
X-111.505 Y-30.904
X-112.139 Y-30.577
X-112.795 Y-30.294
X-113.469 Y-30.055
X-114.159 Y-29.861
X-114.862 Y-29.714
X-115.574 Y-29.614
X-116.293 Y-29.562
X-117.014 Y-29.559
X-117.736 Y-29.603
X-118.454 Y-29.697
X-119.165 Y-29.839
X-119.867 Y-30.028
X-120.555 Y-30.264
X-121.227 Y-30.547
X-121.88 Y-30.874
X-122.51 Y-31.246
X-123.115 Y-31.659
X-123.691 Y-32.112
X-124.237 Y-32.604
X-124.748 Y-33.132
X-125.224 Y-33.693
X-125.661 Y-34.286
X-126.058 Y-34.908
X-126.413 Y-35.556
X-126.724 Y-36.226
X-126.989 Y-36.916
X-127.208 Y-37.624
X-127.378 Y-38.344
X-127.5 Y-39.075
X-127.573 Y-39.814
X-127.596 Y-40.555
X-127.569 Y-41.297
X-127.493 Y-42.036
X-127.367 Y-42.769
X-127.192 Y-43.491
X-126.969 Y-44.201
X-126.698 Y-44.894
X-126.382 Y-45.567
X-126.021 Y-46.219
X-125.617 Y-46.844
X-125.172 Y-47.441
X-124.687 Y-48.007
X-124.166 Y-48.54
X-123.61 Y-49.036
X-123.022 Y-49.494
X-122.405 Y-49.911
X-121.761 Y-50.286
X-121.094 Y-50.617
X-120.406 Y-50.902
X-119.7 Y-51.141
X-118.98 Y-51.332
X-118.248 Y-51.474
X-117.509 Y-51.567
X-116.765 Y-51.61
X-116.02 Y-51.603
X-115.277 Y-51.547
X-114.54 Y-51.442
X-113.811 Y-51.288
X-113.093 Y-51.086
X-112.391 Y-50.837
X-111.707 Y-50.542
X-111.043 Y-50.203
X-110.404 Y-49.821
X-109.79 Y-49.399
X-109.205 Y-48.937
X-108.651 Y-48.439
X-108.131 Y-47.905
X-107.647 Y-47.339
X-107.2 Y-46.743
X-106.793 Y-46.119
X-106.428 Y-45.469
X-106.105 Y-44.798
X-105.826 Y-44.107
X-105.592 Y-43.399
X-105.405 Y-42.678
X-105.264 Y-41.947
X-105.17 Y-41.208
X-105.125 Y-40.464
X-105.127 Y-39.719
X-105.177 Y-38.976
X-105.276 Y-38.237
X-105.421 Y-37.506
X-105.614 Y-36.787
X-105.853 Y-36.081
X-106.136 Y-35.392
X-106.464 Y-34.723
X-106.834 Y-34.076
X-107.246 Y-33.455
X-107.696 Y-32.862
X-108.184 Y-32.298
X-108.707 Y-31.768
X-109.263 Y-31.272
X-109.85 Y-30.813
X-110.466 Y-30.393
X-111.107 Y-30.014
X-111.772 Y-29.677
X-112.457 Y-29.384
X-113.159 Y-29.136
X-113.876 Y-28.933
X-114.605 Y-28.776
X-115.341 Y-28.667
X-116.084 Y-28.604
X-116.829 Y-28.588
X-117.573 Y-28.62
X-118.314 Y-28.699
X-119.049 Y-28.824
X-119.774 Y-28.995
X-120.486 Y-29.212
X-121.184 Y-29.473
X-121.864 Y-29.777
X-122.524 Y-30.123
X-123.161 Y-30.51
X-123.772 Y-30.936
X-124.355 Y-31.401
X-124.906 Y-31.901
X-125.426 Y-32.436
X-125.911 Y-33.001
X-126.36 Y-33.596
X-126.771 Y-34.217
X-127.143 Y-34.863
X-127.474 Y-35.53
X-127.763 Y-36.217
X-128.009 Y-36.92
X-128.212 Y-37.637
X-128.37 Y-38.365
X-128.483 Y-39.102
X-128.549 Y-39.844
X-128.568 Y-40.589
X-128.54 Y-41.333
X-128.466 Y-42.075
X-128.346 Y-42.81
X-128.181 Y-43.537
X-127.972 Y-44.252
X-127.72 Y-44.953
X-127.425 Y-45.637
X-127.088 Y-46.302
X-126.712 Y-46.945
X-126.297 Y-47.563
X-125.844 Y-48.155
X-125.355 Y-48.717
X-124.831 Y-49.247
X-124.276 Y-49.744
X-123.691 Y-50.205
X-123.078 Y-50.629
X-122.441 Y-51.016
X-121.782 Y-51.362
X-121.102 Y-51.667
X-120.405 Y-51.93
X-119.693 Y-52.151
X-118.969 Y-52.327
X-118.236 Y-52.458
X-117.496 Y-52.544
X-116.752 Y-52.582
X-116.007 Y-52.575
X-115.263 Y-52.521
X-114.525 Y-52.422
X-113.794 Y-52.279
X-113.073 Y-52.091
X-112.364 Y-51.86
X-111.671 Y-51.587
X-110.996 Y-51.273
X-110.34 Y-50.919
X-109.707 Y-50.526
X-109.098 Y-50.096
X-108.517 Y-49.63
X-107.966 Y-49.129
X-107.446 Y-48.595
X-106.959 Y-48.032
X-106.506 Y-47.44
X-106.089 Y-46.822
X-105.71 Y-46.181
X-105.37 Y-45.518
X-105.069 Y-44.837
X-104.809 Y-44.138
X-104.591 Y-43.426
X-104.415 Y-42.702
X-104.282 Y-41.969
X-104.195 Y-41.229
X-104.152 Y-40.485
X-104.154 Y-39.74
X-104.2 Y-38.996
X-104.291 Y-38.257
X-104.424 Y-37.524
X-104.601 Y-36.8
X-104.821 Y-36.088
X-105.082 Y-35.39
X-105.384 Y-34.709
X-105.726 Y-34.047
X-106.107 Y-33.407
X-106.525 Y-32.79
X-106.98 Y-32.2
X-107.469 Y-31.638
X-107.992 Y-31.107
X-108.545 Y-30.608
X-109.127 Y-30.143
X-109.735 Y-29.712
X-110.368 Y-29.319
X-111.023 Y-28.964
X-111.698 Y-28.648
X-112.39 Y-28.373
X-113.097 Y-28.139
X-113.817 Y-27.947
X-114.547 Y-27.797
X-115.285 Y-27.693
X-116.028 Y-27.632
X-116.772 Y-27.615
X-117.517 Y-27.642
X-118.259 Y-27.713
X-118.995 Y-27.826
X-119.724 Y-27.981
X-120.442 Y-28.179
X-121.148 Y-28.417
X-121.839 Y-28.696
X-122.513 Y-29.014
X-123.167 Y-29.37
X-123.8 Y-29.764
X-124.407 Y-30.195
X-124.988 Y-30.662
X-125.541 Y-31.162
X-126.063 Y-31.693
X-126.554 Y-32.253
X-127.012 Y-32.841
X-127.436 Y-33.454
X-127.824 Y-34.09
X-128.175 Y-34.747
X-128.489 Y-35.423
X-128.763 Y-36.115
X-128.998 Y-36.823
X-129.192 Y-37.542
X-129.344 Y-38.271
X-129.453 Y-39.008
X-129.518 Y-39.751
X-129.54 Y-40.495
X-129.519 Y-41.24
X-129.455 Y-41.982
X-129.349 Y-42.72
X-129.202 Y-43.45
X-129.014 Y-44.171
X-128.785 Y-44.88
X-128.516 Y-45.575
X-128.209 Y-46.254
X-127.863 Y-46.914
X-127.481 Y-47.554
X-127.062 Y-48.17
X-126.608 Y-48.76
X-126.119 Y-49.323
X-125.6 Y-49.857
X-125.05 Y-50.36
X-124.473 Y-50.831
X-123.87 Y-51.269
X-123.243 Y-51.672
X-122.595 Y-52.038
X-121.927 Y-52.368
X-121.241 Y-52.66
X-120.54 Y-52.912
X-119.826 Y-53.125
X-119.101 Y-53.296
X-118.367 Y-53.424
X-117.627 Y-53.509
X-116.883 Y-53.552
X-116.138 Y-53.551
X-115.394 Y-53.509
X-114.654 Y-53.424
X-113.919 Y-53.299
X-113.193 Y-53.132
X-112.477 Y-52.925
X-111.774 Y-52.679
X-111.086 Y-52.394
X-110.414 Y-52.072
X-109.762 Y-51.712
X-109.131 Y-51.315
X-108.523 Y-50.884
X-107.942 Y-50.419
X-107.387 Y-49.921
X-106.86 Y-49.394
X-106.364 Y-48.838
X-105.899 Y-48.256
X-105.467 Y-47.649
X-105.069 Y-47.019
X-104.706 Y-46.368
X-104.38 Y-45.699
X-104.09 Y-45.012
X-103.838 Y-44.311
X-103.625 Y-43.597
X-103.453 Y-42.872
X-103.322 Y-42.139
X-103.232 Y-41.399
X-103.184 Y-40.656
X-103.177 Y-39.911
X-103.211 Y-39.166
X-103.285 Y-38.425
X-103.4 Y-37.689
X-103.555 Y-36.96
X-103.75 Y-36.241
X-103.984 Y-35.533
X-104.255 Y-34.84
X-104.565 Y-34.162
X-104.912 Y-33.502
X-105.295 Y-32.864
X-105.714 Y-32.248
X-106.167 Y-31.656
X-106.652 Y-31.09
X-107.168 Y-30.553
X-107.712 Y-30.044
X-108.283 Y-29.566
X-108.88 Y-29.12
X-109.5 Y-28.707
X-110.142 Y-28.328
X-110.804 Y-27.986
X-111.483 Y-27.68
X-112.178 Y-27.411
X-112.887 Y-27.182
X-113.608 Y-26.993
X-114.338 Y-26.844
X-115.075 Y-26.736
X-115.817 Y-26.669
X-116.562 Y-26.643
X-117.307 Y-26.656
X-118.05 Y-26.71
X-118.789 Y-26.804
X-119.522 Y-26.937
X-120.247 Y-27.109
X-120.961 Y-27.32
X-121.664 Y-27.569
X-122.352 Y-27.854
X-123.024 Y-28.177
X-123.676 Y-28.536
X-124.308 Y-28.931
X-124.917 Y-29.36
X-125.502 Y-29.822
X-126.061 Y-30.314
X-126.592 Y-30.837
X-127.095 Y-31.386
X-127.568 Y-31.962
X-128.01 Y-32.562
X-128.419 Y-33.185
X-128.795 Y-33.828
X-129.137 Y-34.49
X-129.443 Y-35.169
X-129.712 Y-35.864
X-129.944 Y-36.572
X-130.137 Y-37.292
X-130.29 Y-38.021
X-130.404 Y-38.757
X-130.477 Y-39.499
X-130.511 Y-40.243
X-130.505 Y-40.988
X-130.459 Y-41.732
X-130.374 Y-42.472
X-130.251 Y-43.207
X-130.089 Y-43.934
X-129.889 Y-44.652
X-129.651 Y-45.358
X-129.377 Y-46.051
X-129.066 Y-46.728
X-128.719 Y-47.387
X-128.337 Y-48.027
X-127.921 Y-48.645
X-127.472 Y-49.239
X-126.992 Y-49.809
X-126.482 Y-50.353
X-125.944 Y-50.868
X-125.38 Y-51.355
X-124.791 Y-51.811
X-124.179 Y-52.235
X-123.545 Y-52.627
X-122.892 Y-52.985
X-122.221 Y-53.309
X-121.533 Y-53.596
X-120.831 Y-53.846
X-120.117 Y-54.058
X-119.392 Y-54.231
X-118.659 Y-54.365
X-117.92 Y-54.46
X-117.177 Y-54.515
X-116.432 Y-54.53
X-115.688 Y-54.506
X-114.945 Y-54.444
X-114.207 Y-54.342
X-113.475 Y-54.203
X-112.752 Y-54.026
X-112.038 Y-53.811
X-111.337 Y-53.56
X-110.65 Y-53.271
X-109.979 Y-52.947
X-109.326 Y-52.588
X-108.693 Y-52.196
X-108.081 Y-51.77
X-107.493 Y-51.313
X-106.929 Y-50.826
X-106.391 Y-50.31
X-105.88 Y-49.768
X-105.398 Y-49.2
X-104.946 Y-48.608
X-104.525 Y-47.993
X-104.135 Y-47.358
X-103.778 Y-46.704
X-103.455 Y-46.033
X-103.168 Y-45.345
X-102.917 Y-44.644
X-102.703 Y-43.93
X-102.526 Y-43.206
X-102.387 Y-42.474
X-102.287 Y-41.736
X-102.224 Y-40.994
X-102.2 Y-40.249
X-102.214 Y-39.504
X-102.266 Y-38.761
X-102.355 Y-38.021
X-102.482 Y-37.287
X-102.647 Y-36.56
X-102.848 Y-35.843
X-103.085 Y-35.137
X-103.36 Y-34.444
X-103.67 Y-33.766
X-104.015 Y-33.106
X-104.393 Y-32.464
X-104.805 Y-31.843
X-105.249 Y-31.245
X-105.722 Y-30.67
X-106.225 Y-30.12
X-106.755 Y-29.596
X-107.311 Y-29.1
X-107.892 Y-28.633
X-108.496 Y-28.197
X-109.121 Y-27.791
X-109.766 Y-27.418
X-110.429 Y-27.079
X-111.109 Y-26.775
X-111.804 Y-26.507
X-112.512 Y-26.275
X-113.231 Y-26.08
X-113.96 Y-25.922
X-114.695 Y-25.802
X-115.435 Y-25.72
X-116.179 Y-25.675
X-116.924 Y-25.668
X-117.669 Y-25.699
X-118.411 Y-25.767
X-119.148 Y-25.871
X-119.88 Y-26.013
X-120.603 Y-26.19
X-121.317 Y-26.405
X-122.019 Y-26.655
X-122.707 Y-26.941
X-123.379 Y-27.261
X-124.035 Y-27.615
X-124.671 Y-28.003
X-125.287 Y-28.422
X-125.881 Y-28.872
X-126.451 Y-29.351
X-126.997 Y-29.859
X-127.517 Y-30.393
X-128.009 Y-30.952
X-128.473 Y-31.535
X-128.908 Y-32.14
X-129.312 Y-32.766
X-129.685 Y-33.411
X-130.024 Y-34.074
X-130.33 Y-34.753
X-130.602 Y-35.447
X-130.838 Y-36.154
X-131.039 Y-36.871
X-131.203 Y-37.598
X-131.33 Y-38.332
X-131.42 Y-39.072
X-131.474 Y-39.815
X-131.49 Y-40.56
X-131.469 Y-41.305
X-131.412 Y-42.047
X-131.318 Y-42.787
X-131.188 Y-43.52
X-131.021 Y-44.246
X-130.819 Y-44.963
X-130.581 Y-45.669
X-130.308 Y-46.363
X-130 Y-47.042
X-129.66 Y-47.704
X-129.286 Y-48.349
X-128.881 Y-48.974
X-128.445 Y-49.578
X-127.98 Y-50.16
X-127.486 Y-50.718
X-126.965 Y-51.25
X-126.418 Y-51.757
X-125.847 Y-52.236
X-125.254 Y-52.686
X-124.639 Y-53.106
X-124.003 Y-53.495
X-123.349 Y-53.852
X-122.678 Y-54.177
X-121.992 Y-54.467
X-121.292 Y-54.723
X-120.581 Y-54.943
X-119.859 Y-55.128
X-119.129 Y-55.277
X-118.392 Y-55.389
X-117.651 Y-55.464
X-116.907 Y-55.502
X-116.162 Y-55.504
X-115.418 Y-55.47
X-114.676 Y-55.399
X-113.939 Y-55.292
X-113.207 Y-55.149
X-112.484 Y-54.969
X-111.771 Y-54.755
X-111.069 Y-54.505
X-110.38 Y-54.222
X-109.705 Y-53.905
X-109.047 Y-53.555
X-108.407 Y-53.174
X-107.787 Y-52.761
X-107.187 Y-52.319
X-106.61 Y-51.848
X-106.056 Y-51.35
X-105.526 Y-50.826
X-105.023 Y-50.277
X-104.546 Y-49.704
X-104.098 Y-49.109
X-103.679 Y-48.493
X-103.29 Y-47.857
X-102.933 Y-47.204
X-102.607 Y-46.533
X-102.315 Y-45.848
X-102.056 Y-45.149
X-101.831 Y-44.439
X-101.641 Y-43.719
X-101.486 Y-42.99
X-101.366 Y-42.255
X-101.282 Y-41.514
X-101.234 Y-40.771
X-101.221 Y-40.026
X-101.244 Y-39.281
X-101.302 Y-38.538
X-101.396 Y-37.799
X-101.526 Y-37.066
X-101.691 Y-36.339
X-101.891 Y-35.621
X-102.125 Y-34.914
X-102.393 Y-34.219
X-102.695 Y-33.538
X-103.029 Y-32.872
X-103.396 Y-32.223
X-103.793 Y-31.593
X-104.22 Y-30.982
X-104.677 Y-30.393
X-105.161 Y-29.827
X-105.671 Y-29.285
X-106.207 Y-28.767
X-106.767 Y-28.275
X-107.35 Y-27.812
X-107.955 Y-27.377
X-108.581 Y-26.972
X-109.225 Y-26.597
X-109.886 Y-26.254
X-110.564 Y-25.944
X-111.255 Y-25.666
X-111.959 Y-25.423
X-112.674 Y-25.213
X-113.398 Y-25.038
X-114.13 Y-24.899
X-114.868 Y-24.794
X-115.61 Y-24.724
X-116.354 Y-24.69
X-117.099 Y-24.691
X-117.843 Y-24.727
X-118.585 Y-24.798
X-119.322 Y-24.905
X-120.054 Y-25.046
X-120.778 Y-25.222
X-121.493 Y-25.432
X-122.197 Y-25.676
X-122.888 Y-25.953
X-123.566 Y-26.262
X-124.229 Y-26.603
X-124.874 Y-26.976
X-125.501 Y-27.378
X-126.108 Y-27.81
X-126.694 Y-28.27
X-127.258 Y-28.758
X-127.798 Y-29.271
X-128.314 Y-29.808
X-128.803 Y-30.37
X-129.266 Y-30.954
X-129.7 Y-31.559
X-130.106 Y-32.184
X-130.482 Y-32.827
X-130.828 Y-33.487
X-131.142 Y-34.163
X-131.424 Y-34.852
X-131.674 Y-35.554
X-131.891 Y-36.267
X-132.073 Y-36.99
X-132.222 Y-37.72
X-132.336 Y-38.456
X-132.416 Y-39.197
X-132.461 Y-39.94
X-132.471 Y-40.685
X-132.446 Y-41.43
X-132.386 Y-42.173
X-132.292 Y-42.912
X-132.163 Y-43.646
X-132 Y-44.373
X-131.804 Y-45.091
X-131.574 Y-45.8
X-131.311 Y-46.497
X-131.016 Y-47.181
X-130.69 Y-47.851
X-130.332 Y-48.505
X-129.945 Y-49.141
X-129.528 Y-49.759
X-129.083 Y-50.356
X-128.61 Y-50.932
X-128.111 Y-51.486
X-127.587 Y-52.015
X-127.039 Y-52.519
X-126.467 Y-52.997
X-125.874 Y-53.448
X-125.261 Y-53.871
X-124.628 Y-54.265
X-123.978 Y-54.629
X-123.312 Y-54.962
X-122.631 Y-55.264
X-121.936 Y-55.534
X-121.23 Y-55.772
X-120.513 Y-55.976
X-119.788 Y-56.146
X-119.056 Y-56.283
X-118.318 Y-56.385
X-117.576 Y-56.453
X-116.831 Y-56.487
X-116.086 Y-56.486
X-115.342 Y-56.449
X-114.6 Y-56.379
X-113.863 Y-56.274
X-113.131 Y-56.135
X-112.406 Y-55.963
X-111.69 Y-55.757
X-110.984 Y-55.519
X-110.29 Y-55.248
X-109.608 Y-54.946
X-108.942 Y-54.613
X-108.291 Y-54.25
X-107.658 Y-53.858
X-107.044 Y-53.436
X-106.449 Y-52.988
X-105.875 Y-52.512
X-105.324 Y-52.011
X-104.796 Y-51.485
X-104.293 Y-50.935
X-103.816 Y-50.363
X-103.365 Y-49.77
X-102.941 Y-49.157
X-102.546 Y-48.526
X-102.18 Y-47.877
X-101.843 Y-47.212
X-101.537 Y-46.533
X-101.262 Y-45.84
X-101.019 Y-45.136
X-100.808 Y-44.422
X-100.63 Y-43.698
X-100.484 Y-42.967
X-100.372 Y-42.231
X-100.293 Y-41.49
X-100.248 Y-40.746
X-100.238 Y-40.001
X-100.261 Y-39.257
X-100.317 Y-38.514
X-100.408 Y-37.774
X-100.531 Y-37.039
X-100.688 Y-36.311
X-100.878 Y-35.591
X-101.1 Y-34.879
X-101.354 Y-34.179
X-101.639 Y-33.491
X-101.956 Y-32.816
X-102.303 Y-32.157
X-102.679 Y-31.514
X-103.084 Y-30.888
X-103.517 Y-30.282
X-103.977 Y-29.696
X-104.463 Y-29.132
X-104.975 Y-28.59
X-105.511 Y-28.072
X-106.07 Y-27.579
X-106.65 Y-27.112
X-107.251 Y-26.672
X-107.871 Y-26.259
X-108.51 Y-25.875
X-109.165 Y-25.52
X-109.835 Y-25.195
X-110.52 Y-24.901
X-111.217 Y-24.638
X-111.925 Y-24.407
X-112.643 Y-24.208
X-113.369 Y-24.041
X-114.102 Y-23.907
X-114.841 Y-23.807
X-115.583 Y-23.74
X-116.327 Y-23.707
X-117.072
X-117.816 Y-23.74
X-118.558 Y-23.807
X-119.297 Y-23.907
X-120.03 Y-24.039
X-120.757 Y-24.204
X-121.475 Y-24.401
X-122.184 Y-24.63
X-122.882 Y-24.89
X-123.568 Y-25.18
X-124.241 Y-25.501
X-124.898 Y-25.852
X-125.539 Y-26.232
X-126.163 Y-26.64
X-126.767 Y-27.075
X-127.352 Y-27.537
X-127.915 Y-28.025
X-128.455 Y-28.538
X-128.973 Y-29.074
X-129.466 Y-29.633
X-129.934 Y-30.212
X-130.376 Y-30.812
X-130.791 Y-31.431
X-131.179 Y-32.067
X-131.538 Y-32.72
X-131.868 Y-33.388
X-132.169 Y-34.069
X-132.439 Y-34.764
X-132.678 Y-35.469
X-132.887 Y-36.185
X-133.063 Y-36.909
X-133.207 Y-37.64
X-133.318 Y-38.376
X-133.396 Y-39.117
X-133.442 Y-39.861
X-133.454 Y-40.606
X-133.434 Y-41.351
X-133.381 Y-42.094
X-133.295 Y-42.834
X-133.176 Y-43.57
X-133.026 Y-44.299
X-132.844 Y-45.022
X-132.63 Y-45.736
X-132.386 Y-46.439
X-132.111 Y-47.132
X-131.806 Y-47.811
X-131.471 Y-48.477
X-131.108 Y-49.128
X-130.716 Y-49.761
X-130.296 Y-50.377
X-129.85 Y-50.973
X-129.377 Y-51.549
X-128.879 Y-52.104
X-128.358 Y-52.636
X-127.813 Y-53.145
X-127.247 Y-53.629
X-126.66 Y-54.088
X-126.054 Y-54.521
X-125.429 Y-54.927
X-124.787 Y-55.305
X-124.13 Y-55.655
X-123.457 Y-55.976
X-122.771 Y-56.267
X-122.073 Y-56.528
X-121.365 Y-56.758
X-120.647 Y-56.957
X-119.921 Y-57.124
X-119.188 Y-57.259
X-118.45 Y-57.36
X-117.708 Y-57.43
X-116.964 Y-57.466
X-116.219 Y-57.47
X-115.474 Y-57.442
X-114.732 Y-57.381
X-113.993 Y-57.287
X-113.258 Y-57.162
X-112.53 Y-57.005
X-111.809 Y-56.817
X-111.097 Y-56.597
X-110.395 Y-56.348
X-109.704 Y-56.068
X-109.027 Y-55.758
X-108.363 Y-55.42
X-107.714 Y-55.053
X-107.083 Y-54.658
X-106.469 Y-54.236
X-105.874 Y-53.787
X-105.299 Y-53.314
X-104.744 Y-52.816
X-104.212 Y-52.294
X-103.703 Y-51.75
X-103.218 Y-51.185
X-102.757 Y-50.6
X-102.322 Y-49.995
X-101.912 Y-49.372
X-101.53 Y-48.733
X-101.176 Y-48.077
X-100.849 Y-47.408
X-100.552 Y-46.724
X-100.284 Y-46.029
X-100.045 Y-45.323
X-99.838 Y-44.608
X-99.662 Y-43.884
X-99.517 Y-43.153
X-99.404 Y-42.417
X-99.322 Y-41.676
X-99.273 Y-40.933
X-99.255 Y-40.188
X-99.269 Y-39.443
X-99.315 Y-38.699
X-99.392 Y-37.958
X-99.501 Y-37.221
X-99.641 Y-36.489
X-99.812 Y-35.764
X-100.014 Y-35.047
X-100.246 Y-34.339
X-100.509 Y-33.642
X-100.8 Y-32.956
X-101.121 Y-32.284
X-101.471 Y-31.626
X-101.849 Y-30.984
X-102.254 Y-30.358
X-102.686 Y-29.751
X-103.143 Y-29.163
X-103.625 Y-28.595
X-104.131 Y-28.048
X-104.66 Y-27.524
X-105.211 Y-27.022
X-105.783 Y-26.544
X-106.375 Y-26.092
X-106.985 Y-25.664
X-107.613 Y-25.263
X-108.258 Y-24.89
X-108.917 Y-24.544
X-109.591 Y-24.226
X-110.278 Y-23.937
X-110.977 Y-23.678
X-111.686 Y-23.45
X-112.404 Y-23.252
X-113.131 Y-23.085
X-113.863 Y-22.949
X-114.601 Y-22.845
X-115.342 Y-22.772
X-116.086 Y-22.731
X-116.831 Y-22.721
X-117.576 Y-22.742
X-118.319 Y-22.795
X-119.06 Y-22.879
X-119.796 Y-22.994
X-120.526 Y-23.14
X-121.25 Y-23.316
X-121.966 Y-23.522
X-122.673 Y-23.758
X-123.369 Y-24.024
X-124.054 Y-24.318
X-124.725 Y-24.642
X-125.381 Y-24.993
X-126.023 Y-25.373
X-126.647 Y-25.779
X-127.254 Y-26.211
X-127.842 Y-26.669
X-128.411 Y-27.151
X-128.958 Y-27.656
X-129.484 Y-28.184
X-129.987 Y-28.733
X-130.468 Y-29.303
X-130.924 Y-29.892
X-131.355 Y-30.499
X-131.76 Y-31.124
X-132.14 Y-31.766
X-132.492 Y-32.422
X-132.817 Y-33.092
X-133.114 Y-33.776
X-133.382 Y-34.471
X-133.62 Y-35.177
X-133.828 Y-35.893
X-134.006 Y-36.616
X-134.154 Y-37.346
X-134.271 Y-38.082
X-134.357 Y-38.822
X-134.412 Y-39.565
X-134.436 Y-40.31
X-134.429 Y-41.055
X-134.391 Y-41.799
X-134.322 Y-42.541
X-134.223 Y-43.279
X-134.093 Y-44.013
X-133.933 Y-44.741
X-133.743 Y-45.461
X-133.524 Y-46.173
X-133.275 Y-46.876
X-132.998 Y-47.567
X-132.691 Y-48.246
X-132.356 Y-48.911
X-131.994 Y-49.563
X-131.605 Y-50.198
X-131.19 Y-50.817
X-130.749 Y-51.417
X-130.284 Y-51.999
X-129.794 Y-52.561
X-129.282 Y-53.102
X-128.748 Y-53.622
X-128.193 Y-54.119
X-127.618 Y-54.592
X-127.023 Y-55.042
X-126.411 Y-55.466
X-125.782 Y-55.865
X-125.137 Y-56.238
X-124.477 Y-56.584
X-123.803 Y-56.902
X-123.117 Y-57.191
X-122.418 Y-57.452
X-121.71 Y-57.683
X-120.993 Y-57.885
X-120.268 Y-58.056
X-119.536 Y-58.197
X-118.8 Y-58.308
X-118.059 Y-58.388
X-117.315 Y-58.437
X-116.571 Y-58.455
X-115.826 Y-58.443
X-115.082 Y-58.4
X-114.34 Y-58.326
X-113.603 Y-58.223
X-112.87 Y-58.089
X-112.143 Y-57.925
X-111.423 Y-57.732
X-110.712 Y-57.509
X-110.011 Y-57.257
X-109.321 Y-56.976
X-108.643 Y-56.667
X-107.978 Y-56.331
X-107.328 Y-55.968
X-106.693 Y-55.578
X-106.074 Y-55.162
X-105.474 Y-54.722
X-104.891 Y-54.257
X-104.328 Y-53.769
X-103.786 Y-53.258
X-103.264 Y-52.726
X-102.765 Y-52.173
X-102.288 Y-51.601
X-101.835 Y-51.009
X-101.406 Y-50.4
X-101.001 Y-49.774
X-100.623 Y-49.133
X-100.271 Y-48.476
X-99.946 Y-47.805
X-99.649 Y-47.122
X-99.38 Y-46.427
X-99.139 Y-45.722
X-98.927 Y-45.008
X-98.744 Y-44.286
X-98.591 Y-43.557
X-98.467 Y-42.822
X-98.374 Y-42.083
X-98.31 Y-41.34
X-98.277 Y-40.596
X-98.273 Y-39.851
X-98.3 Y-39.106
X-98.356 Y-38.363
X-98.443 Y-37.623
X-98.559 Y-36.887
X-98.704 Y-36.157
X-98.879 Y-35.432
X-99.083 Y-34.716
X-99.317 Y-34.008
X-99.579 Y-33.311
X-99.869 Y-32.625
X-100.186 Y-31.951
X-100.531 Y-31.29
X-100.903 Y-30.645
X-101.301 Y-30.014
X-101.723 Y-29.401
X-102.171 Y-28.805
X-102.642 Y-28.228
X-103.136 Y-27.67
X-103.652 Y-27.133
X-104.189 Y-26.617
X-104.747 Y-26.123
X-105.324 Y-25.651
X-105.92 Y-25.204
X-106.533 Y-24.78
X-107.163 Y-24.382
X-107.808 Y-24.01
X-108.468 Y-23.665
X-109.142 Y-23.347
X-109.828 Y-23.056
X-110.525 Y-22.793
X-111.232 Y-22.559
X-111.949 Y-22.354
X-112.673 Y-22.177
X-113.403 Y-22.03
X-114.139 Y-21.913
X-114.879 Y-21.825
X-115.621 Y-21.767
X-116.366 Y-21.739
X-117.111 Y-21.74
X-117.855 Y-21.771
X-118.598 Y-21.832
X-119.338 Y-21.922
X-120.073 Y-22.041
X-120.803 Y-22.19
X-121.527 Y-22.368
X-122.242 Y-22.575
X-122.949 Y-22.81
X-123.647 Y-23.073
X-124.333 Y-23.363
X-125.006 Y-23.681
X-125.667 Y-24.026
X-126.313 Y-24.397
X-126.944 Y-24.794
X-127.558 Y-25.215
X-128.155 Y-25.661
X-128.734 Y-26.13
X-129.294 Y-26.621
X-129.834 Y-27.135
X-130.353 Y-27.669
X-130.851 Y-28.223
X-131.327 Y-28.797
X-131.779 Y-29.389
X-132.208 Y-29.998
X-132.612 Y-30.624
X-132.991 Y-31.266
X-133.344 Y-31.922
X-133.672 Y-32.591
X-133.972 Y-33.273
X-134.245 Y-33.966
X-134.491 Y-34.669
X-134.708 Y-35.382
X-134.897 Y-36.103
X-135.058 Y-36.83
X-135.189 Y-37.564
X-135.291 Y-38.302
X-135.364 Y-39.043
X-135.408 Y-39.787
X-135.423 Y-40.532
X-135.408 Y-41.277
X-135.364 Y-42.02
X-135.291 Y-42.762
X-135.188 Y-43.5
X-135.056 Y-44.233
X-134.896 Y-44.961
X-134.707 Y-45.681
X-134.49 Y-46.394
X-134.244 Y-47.098
X-133.972 Y-47.791
X-133.672 Y-48.473
X-133.345 Y-49.143
X-132.993 Y-49.799
X-132.615 Y-50.441
X-132.211 Y-51.068
X-131.784 Y-51.678
X-131.332 Y-52.271
X-130.858 Y-52.845
X-130.361 Y-53.401
X-129.843 Y-53.936
X-129.305 Y-54.451
X-128.746 Y-54.944
X-128.169 Y-55.415
X-127.573 Y-55.863
X-126.961 Y-56.287
X-126.332 Y-56.686
X-125.688 Y-57.061
X-125.029 Y-57.409
X-124.358 Y-57.732
X-123.674 Y-58.028
X-122.979 Y-58.297
X-122.274 Y-58.538
X-121.56 Y-58.752
X-120.839 Y-58.937
X-120.11 Y-59.093
X-119.376 Y-59.221
X-118.638 Y-59.32
X-117.896 Y-59.389
X-117.152 Y-59.43
X-116.407 Y-59.442
X-115.662 Y-59.424
X-114.918 Y-59.378
X-114.177 Y-59.302
X-113.44 Y-59.197
X-112.707 Y-59.063
X-111.979 Y-58.901
X-111.259 Y-58.711
X-110.547 Y-58.493
X-109.843 Y-58.247
X-109.15 Y-57.974
X-108.468 Y-57.674
X-107.798 Y-57.348
X-107.141 Y-56.996
X-106.499 Y-56.619
X-105.871 Y-56.217
X-105.26 Y-55.791
X-104.665 Y-55.342
X-104.089 Y-54.87
X-103.531 Y-54.377
X-102.992 Y-53.862
X-102.473 Y-53.327
X-101.976 Y-52.772
X-101.501 Y-52.199
X-101.048 Y-51.607
X-100.618 Y-50.998
X-100.212 Y-50.374
X-99.83 Y-49.734
X-99.473 Y-49.08
X-99.142 Y-48.412
X-98.837 Y-47.733
X-98.558 Y-47.042
X-98.305 Y-46.341
X-98.08 Y-45.631
X-97.882 Y-44.912
X-97.713 Y-44.187
X-97.571 Y-43.455
X-97.457 Y-42.719
X-97.372 Y-41.979
X-97.315 Y-41.236
X-97.287 Y-40.492
Y-39.746
X-97.316 Y-39.002
X-97.374 Y-38.259
X-97.46 Y-37.519
X-97.574 Y-36.783
X-97.717 Y-36.052
X-97.888 Y-35.326
X-98.086 Y-34.608
X-98.312 Y-33.898
X-98.565 Y-33.198
X-98.845 Y-32.507
X-99.151 Y-31.828
X-99.483 Y-31.161
X-99.841 Y-30.507
X-100.224 Y-29.868
X-100.63 Y-29.244
X-101.061 Y-28.635
X-101.514 Y-28.044
X-101.99 Y-27.471
X-102.488 Y-26.916
X-103.006 Y-26.381
X-103.545 Y-25.867
X-104.103 Y-25.373
X-104.68 Y-24.902
X-105.274 Y-24.452
X-105.885 Y-24.026
X-106.513 Y-23.624
X-107.155 Y-23.246
X-107.811 Y-22.893
X-108.48 Y-22.566
X-109.162 Y-22.265
X-109.854 Y-21.989
X-110.557 Y-21.741
X-111.268 Y-21.52
X-111.987 Y-21.326
X-112.714 Y-21.16
X-113.446 Y-21.022
X-114.183 Y-20.911
X-114.923 Y-20.829
X-115.666 Y-20.775
X-116.411 Y-20.749
X-117.156 Y-20.753
X-117.9 Y-20.784
X-118.643 Y-20.844
X-119.383 Y-20.931
X-120.119 Y-21.047
X-120.85 Y-21.19
X-121.575 Y-21.362
X-122.293 Y-21.56
X-123.004 Y-21.785
X-123.705 Y-22.037
X-124.396 Y-22.316
X-125.076 Y-22.62
X-125.744 Y-22.95
X-126.399 Y-23.306
X-127.04 Y-23.685
X-127.666 Y-24.089
X-128.276 Y-24.516
X-128.87 Y-24.966
X-129.447 Y-25.438
X-130.005 Y-25.931
X-130.544 Y-26.446
X-131.063 Y-26.981
X-131.561 Y-27.534
X-132.039 Y-28.106
X-132.494 Y-28.696
X-132.928 Y-29.302
X-133.337 Y-29.924
X-133.724 Y-30.561
X-134.086 Y-31.212
X-134.424 Y-31.877
X-134.736 Y-32.553
X-135.023 Y-33.241
X-135.284 Y-33.938
X-135.518 Y-34.646
X-135.726 Y-35.361
X-135.907 Y-36.084
X-136.06 Y-36.813
X-136.186 Y-37.547
X-136.285 Y-38.286
X-136.355 Y-39.028
X-136.397 Y-39.772
X-136.411 Y-40.516
X-136.397 Y-41.261
X-136.355 Y-42.005
X-136.286 Y-42.747
X-136.189 Y-43.486
X-136.064 Y-44.22
X-135.911 Y-44.95
X-135.732 Y-45.673
X-135.526 Y-46.389
X-135.293 Y-47.096
X-135.034 Y-47.795
X-134.749 Y-48.483
X-134.438 Y-49.161
X-134.102 Y-49.826
X-133.742 Y-50.478
X-133.358 Y-51.116
X-132.95 Y-51.74
X-132.519 Y-52.347
X-132.065 Y-52.938
X-131.589 Y-53.512
X-131.092 Y-54.067
X-130.574 Y-54.603
X-130.037 Y-55.119
X-129.481 Y-55.615
X-128.907 Y-56.09
X-128.315 Y-56.543
X-127.707 Y-56.973
X-127.084 Y-57.381
X-126.445 Y-57.765
X-125.793 Y-58.125
X-125.128 Y-58.46
X-124.45 Y-58.771
X-123.762 Y-59.055
X-123.063 Y-59.314
X-122.355 Y-59.547
X-121.639 Y-59.753
X-120.916 Y-59.933
X-120.187 Y-60.085
X-119.452 Y-60.21
X-118.714 Y-60.306
X-117.972 Y-60.375
X-117.228 Y-60.416
X-116.483 Y-60.43
X-115.738 Y-60.416
X-114.994 Y-60.374
X-114.252 Y-60.304
X-113.514 Y-60.207
X-112.779 Y-60.082
X-112.05 Y-59.931
X-111.326 Y-59.752
X-110.61 Y-59.547
X-109.902 Y-59.316
X-109.203 Y-59.058
X-108.513 Y-58.775
X-107.835 Y-58.467
X-107.169 Y-58.134
X-106.515 Y-57.776
X-105.875 Y-57.395
X-105.249 Y-56.991
X-104.639 Y-56.563
X-104.045 Y-56.113
X-103.469 Y-55.641
X-102.91 Y-55.148
X-102.369 Y-54.636
X-101.848 Y-54.103
X-101.346 Y-53.552
X-100.865 Y-52.983
X-100.406 Y-52.397
X-99.968 Y-51.794
X-99.552 Y-51.176
X-99.16 Y-50.542
X-98.79 Y-49.895
X-98.445 Y-49.235
X-98.124 Y-48.563
X-97.827 Y-47.879
X-97.556 Y-47.185
X-97.311 Y-46.482
X-97.091 Y-45.77
X-96.897 Y-45.051
X-96.73 Y-44.324
X-96.59 Y-43.593
X-96.477 Y-42.856
X-96.392 Y-42.116
X-96.333 Y-41.373
X-96.301 Y-40.629
X-96.297 Y-39.884
X-96.32 Y-39.139
X-96.37 Y-38.396
X-96.447 Y-37.655
X-96.552 Y-36.917
X-96.683 Y-36.184
X-96.84 Y-35.455
X-97.024 Y-34.733
X-97.235 Y-34.019
X-97.471 Y-33.312
X-97.733 Y-32.614
X-98.02 Y-31.927
X-98.332 Y-31.25
X-98.669 Y-30.586
X-99.03 Y-29.934
X-99.414 Y-29.296
X-99.822 Y-28.672
X-100.253 Y-28.064
X-100.706 Y-27.473
X-101.18 Y-26.898
X-101.674 Y-26.341
X-102.189 Y-25.802
X-102.723 Y-25.283
X-103.276 Y-24.783
X-103.847 Y-24.304
X-104.434 Y-23.846
X-105.038 Y-23.41
X-105.658 Y-22.996
X-106.292 Y-22.605
X-106.94 Y-22.237
X-107.601 Y-21.893
X-108.274 Y-21.574
X-108.959 Y-21.279
X-109.653 Y-21.01
X-110.357 Y-20.765
X-111.069 Y-20.547
X-111.789 Y-20.355
X-112.516 Y-20.19
X-113.248 Y-20.052
X-113.985 Y-19.94
X-114.725 Y-19.855
X-115.468 Y-19.797
X-116.212 Y-19.766
X-116.957 Y-19.762
X-117.702 Y-19.785
X-118.445 Y-19.834
X-119.186 Y-19.911
X-119.924 Y-20.014
X-120.658 Y-20.143
X-121.387 Y-20.299
X-122.109 Y-20.481
X-122.825 Y-20.689
X-123.532 Y-20.922
X-124.231 Y-21.181
X-124.92 Y-21.465
X-125.598 Y-21.773
X-126.265 Y-22.106
X-126.919 Y-22.462
X-127.559 Y-22.843
X-128.186 Y-23.246
X-128.797 Y-23.672
X-129.393 Y-24.12
X-129.972 Y-24.588
X-130.534 Y-25.078
X-131.078 Y-25.587
X-131.603 Y-26.115
X-132.109 Y-26.662
X-132.595 Y-27.227
X-133.061 Y-27.809
X-133.505 Y-28.406
X-133.928 Y-29.02
X-134.329 Y-29.648
X-134.707 Y-30.29
X-135.062 Y-30.945
X-135.393 Y-31.612
X-135.701 Y-32.291
X-135.984 Y-32.98
X-136.242 Y-33.679
X-136.475 Y-34.387
X-136.682 Y-35.103
X-136.863 Y-35.825
X-137.018 Y-36.554
X-137.146 Y-37.288
X-137.249 Y-38.026
X-137.325 Y-38.767
X-137.374 Y-39.511
X-137.397 Y-40.255
X-137.393 Y-41
X-137.362 Y-41.745
X-137.305 Y-42.488
X-137.222 Y-43.228
X-137.112 Y-43.965
X-136.976 Y-44.698
X-136.815 Y-45.425
X-136.627 Y-46.146
X-136.414 Y-46.86
X-136.176 Y-47.566
X-135.913 Y-48.263
X-135.625 Y-48.95
X-135.313 Y-49.627
X-134.976 Y-50.291
X-134.616 Y-50.944
X-134.233 Y-51.582
X-133.827 Y-52.207
X-133.399 Y-52.817
X-132.95 Y-53.412
X-132.479 Y-53.989
X-131.989 Y-54.55
X-131.478 Y-55.093
X-130.949 Y-55.617
X-130.401 Y-56.122
X-129.836 Y-56.607
X-129.253 Y-57.072
X-128.655 Y-57.516
X-128.041 Y-57.939
X-127.413 Y-58.339
X-126.771 Y-58.717
X-126.116 Y-59.072
X-125.449 Y-59.404
X-124.77 Y-59.711
X-124.081 Y-59.994
X-123.382 Y-60.252
X-122.674 Y-60.485
X-121.958 Y-60.692
X-121.236 Y-60.874
X-120.507 Y-61.03
X-119.774 Y-61.16
X-119.036 Y-61.263
X-118.295 Y-61.34
X-117.551 Y-61.391
X-116.807 Y-61.415
X-116.062 Y-61.413
X-115.317 Y-61.384
X-114.574 Y-61.33
X-113.833 Y-61.249
X-113.096 Y-61.141
X-112.363 Y-61.008
X-111.635 Y-60.85
X-110.913 Y-60.665
X-110.198 Y-60.456
X-109.491 Y-60.221
X-108.793 Y-59.962
X-108.104 Y-59.677
X-107.426 Y-59.369
X-106.759 Y-59.036
X-106.104 Y-58.681
X-105.462 Y-58.303
X-104.834 Y-57.902
X-104.22 Y-57.479
X-103.622 Y-57.035
X-103.04 Y-56.571
X-102.474 Y-56.086
X-101.926 Y-55.581
X-101.395 Y-55.058
X-100.883 Y-54.517
X-100.391 Y-53.958
X-99.918 Y-53.382
X-99.466 Y-52.79
X-99.034 Y-52.182
X-98.624 Y-51.56
X-98.236 Y-50.925
X-97.87 Y-50.276
X-97.527 Y-49.614
X-97.207 Y-48.941
X-96.912 Y-48.257
X-96.64 Y-47.563
X-96.393 Y-46.86
X-96.171 Y-46.149
X-95.973 Y-45.431
X-95.801 Y-44.706
X-95.655 Y-43.975
X-95.534 Y-43.24
X-95.439 Y-42.501
X-95.369 Y-41.759
X-95.326 Y-41.016
X-95.308 Y-40.271
X-95.316 Y-39.526
X-95.35 Y-38.782
X-95.41 Y-38.039
X-95.496 Y-37.299
X-95.607 Y-36.562
X-95.744 Y-35.83
X-95.906 Y-35.102
X-96.094 Y-34.381
X-96.306 Y-33.667
X-96.544 Y-32.961
X-96.806 Y-32.264
X-97.093 Y-31.576
X-97.403 Y-30.899
X-97.737 Y-30.233
X-98.094 Y-29.578
X-98.473 Y-28.937
X-98.875 Y-28.31
X-99.299 Y-27.697
X-99.744 Y-27.099
X-100.209 Y-26.517
X-100.694 Y-25.952
X-101.199 Y-25.404
X-101.722 Y-24.873
X-102.263 Y-24.362
X-102.822 Y-23.869
X-103.398 Y-23.396
X-103.99 Y-22.943
X-104.597 Y-22.512
X-105.219 Y-22.101
X-105.855 Y-21.713
X-106.504 Y-21.347
X-107.165 Y-21.004
X-107.838 Y-20.684
X-108.522 Y-20.388
X-109.216 Y-20.116
X-109.918 Y-19.869
X-110.629 Y-19.646
X-111.348 Y-19.448
X-112.072 Y-19.275
X-112.803 Y-19.127
X-113.538 Y-19.005
X-114.276 Y-18.909
X-115.018 Y-18.838
X-115.762 Y-18.792
X-116.507 Y-18.773
X-117.252 Y-18.779
X-117.996 Y-18.81
X-118.739 Y-18.867
X-119.479 Y-18.95
X-120.216 Y-19.058
X-120.95 Y-19.191
X-121.678 Y-19.349
X-122.4 Y-19.533
X-123.115 Y-19.742
X-123.823 Y-19.975
X-124.522 Y-20.232
X-125.212 Y-20.513
X-125.892 Y-20.818
X-126.561 Y-21.146
X-127.218 Y-21.497
X-127.863 Y-21.87
X-128.494 Y-22.266
X-129.111 Y-22.683
X-129.714 Y-23.121
X-130.301 Y-23.579
X-130.873 Y-24.058
X-131.427 Y-24.555
X-131.964 Y-25.072
X-132.483 Y-25.606
X-132.984 Y-26.158
X-133.466 Y-26.726
X-133.927 Y-27.311
X-134.369 Y-27.911
X-134.79 Y-28.526
X-135.189 Y-29.155
X-135.567 Y-29.797
X-135.922 Y-30.452
X-136.255 Y-31.119
X-136.565 Y-31.796
X-136.852 Y-32.484
X-137.115 Y-33.181
X-137.354 Y-33.887
X-137.568 Y-34.6
X-137.758 Y-35.321
X-137.924 Y-36.047
X-138.064 Y-36.779
X-138.179 Y-37.515
X-138.269 Y-38.254
X-138.334 Y-38.997
X-138.374 Y-39.741
X-138.388 Y-40.486
X-138.376 Y-41.231
X-138.34 Y-41.975
X-138.278 Y-42.717
X-138.191 Y-43.457
X-138.079 Y-44.194
X-137.942 Y-44.926
X-137.779 Y-45.653
X-137.592 Y-46.374
X-137.38 Y-47.089
X-137.145 Y-47.796
X-136.886 Y-48.494
X-136.602 Y-49.183
X-136.296 Y-49.862
X-135.966 Y-50.531
X-135.614 Y-51.187
X-135.24 Y-51.831
X-134.844 Y-52.463
X-134.427 Y-53.08
X-133.989 Y-53.682
X-133.53 Y-54.27
X-133.052 Y-54.841
X-132.555 Y-55.396
X-132.039 Y-55.934
X-131.505 Y-56.454
X-130.954 Y-56.955
X-130.387 Y-57.438
X-129.803 Y-57.901
X-129.203 Y-58.343
X-128.589 Y-58.765
X-127.961 Y-59.166
X-127.32 Y-59.545
X-126.666 Y-59.902
X-126 Y-60.237
X-125.324 Y-60.549
X-124.637 Y-60.838
X-123.941 Y-61.103
X-123.236 Y-61.344
X-122.523 Y-61.561
X-121.803 Y-61.754
X-121.077 Y-61.922
X-120.346 Y-62.066
X-119.611 Y-62.184
X-118.871 Y-62.278
X-118.13 Y-62.346
X-117.386 Y-62.389
X-116.641 Y-62.407
X-115.896 Y-62.4
X-115.152 Y-62.368
X-114.409 Y-62.31
X-113.668 Y-62.227
X-112.931 Y-62.119
X-112.198 Y-61.986
X-111.47 Y-61.828
X-110.747 Y-61.646
X-110.031 Y-61.44
X-109.323 Y-61.21
X-108.622 Y-60.956
X-107.931 Y-60.679
X-107.249 Y-60.378
X-106.578 Y-60.055
X-105.918 Y-59.709
X-105.27 Y-59.341
X-104.635 Y-58.952
X-104.013 Y-58.541
X-103.405 Y-58.11
X-102.812 Y-57.659
X-102.235 Y-57.188
X-101.674 Y-56.698
X-101.129 Y-56.19
X-100.601 Y-55.664
X-100.092 Y-55.12
X-99.601 Y-54.56
X-99.129 Y-53.983
X-98.677 Y-53.391
X-98.245 Y-52.784
X-97.833 Y-52.163
X-97.442 Y-51.529
X-97.073 Y-50.882
X-96.725 Y-50.223
X-96.399 Y-49.552
X-96.097 Y-48.872
X-95.817 Y-48.181
X-95.56 Y-47.482
X-95.327 Y-46.774
X-95.117 Y-46.059
X-94.931 Y-45.338
X-94.77 Y-44.61
X-94.633 Y-43.878
X-94.52 Y-43.141
X-94.432 Y-42.402
X-94.369 Y-41.659
X-94.33 Y-40.915
X-94.316 Y-40.17
X-94.327 Y-39.425
X-94.363 Y-38.681
X-94.424 Y-37.938
X-94.509 Y-37.198
X-94.619 Y-36.461
X-94.754 Y-35.729
X-94.913 Y-35.001
X-95.096 Y-34.278
X-95.303 Y-33.563
X-95.533 Y-32.854
X-95.788 Y-32.154
X-96.065 Y-31.463
X-96.366 Y-30.781
X-96.689 Y-30.109
X-97.034 Y-29.449
X-97.401 Y-28.801
X-97.79 Y-28.165
X-98.199 Y-27.543
X-98.629 Y-26.934
X-99.079 Y-26.34
X-99.549 Y-25.762
X-100.037 Y-25.199
X-100.544 Y-24.653
X-101.069 Y-24.124
X-101.612 Y-23.614
X-102.171 Y-23.122
X-102.746 Y-22.648
X-103.337 Y-22.194
X-103.942 Y-21.76
X-104.562 Y-21.346
X-105.195 Y-20.953
X-105.841 Y-20.582
X-106.499 Y-20.232
X-107.168 Y-19.904
X-107.848 Y-19.599
X-108.537 Y-19.317
X-109.235 Y-19.057
X-109.942 Y-18.821
X-110.656 Y-18.609
X-111.377 Y-18.42
X-112.104 Y-18.256
X-112.835 Y-18.116
X-113.571 Y-17.999
X-114.311 Y-17.908
X-115.053 Y-17.84
X-115.797 Y-17.798
X-116.542 Y-17.78
X-117.287 Y-17.787
X-118.031 Y-17.819
X-118.774 Y-17.875
X-119.515 Y-17.955
X-120.252 Y-18.06
X-120.986 Y-18.189
X-121.715 Y-18.342
X-122.439 Y-18.519
X-123.157 Y-18.72
X-123.867 Y-18.944
X-124.57 Y-19.192
X-125.264 Y-19.462
X-125.949 Y-19.755
X-126.624 Y-20.071
X-127.288 Y-20.409
X-127.941 Y-20.768
X-128.581 Y-21.149
X-129.209 Y-21.55
X-129.823 Y-21.972
X-130.423 Y-22.414
X-131.008 Y-22.875
X-131.578 Y-23.356
X-132.131 Y-23.855
X-132.667 Y-24.372
X-133.186 Y-24.906
X-133.688 Y-25.457
X-134.171 Y-26.024
X-134.636 Y-26.607
X-135.081 Y-27.204
X-135.507 Y-27.816
X-135.912 Y-28.441
X-136.296 Y-29.079
X-136.66 Y-29.729
X-137.002 Y-30.391
X-137.322 Y-31.064
X-137.62 Y-31.747
X-137.896 Y-32.439
X-138.149 Y-33.14
X-138.379 Y-33.848
X-138.586 Y-34.564
X-138.769 Y-35.286
X-138.929 Y-36.014
X-139.064 Y-36.747
X-139.176 Y-37.483
X-139.264 Y-38.223
X-139.327 Y-38.966
X-139.365 Y-39.71
X-139.379 Y-40.455
X-139.369 Y-41.2
X-139.335 Y-41.944
X-139.277 Y-42.687
X-139.194 Y-43.427
X-139.087 Y-44.164
X-138.957 Y-44.898
X-138.802 Y-45.627
X-138.624 Y-46.35
X-138.422 Y-47.068
X-138.197 Y-47.778
X-137.95 Y-48.481
X-137.679 Y-49.175
X-137.387 Y-49.86
X-137.071 Y-50.535
X-136.734 Y-51.2
X-136.376 Y-51.853
X-135.997 Y-52.494
X-135.597 Y-53.123
X-135.176 Y-53.738
X-134.736 Y-54.339
X-134.276 Y-54.925
X-133.798 Y-55.496
X-133.3 Y-56.051
X-132.785 Y-56.589
X-132.253 Y-57.111
X-131.704 Y-57.615
X-131.139 Y-58.1
X-130.559 Y-58.568
X-129.964 Y-59.016
X-129.354 Y-59.444
X-128.731 Y-59.852
X-128.095 Y-60.24
X-127.446 Y-60.607
X-126.786 Y-60.953
X-126.116 Y-61.277
X-125.435 Y-61.579
X-124.744 Y-61.859
X-124.045 Y-62.117
X-123.338 Y-62.351
X-122.623 Y-62.563
X-121.902 Y-62.751
X-121.176 Y-62.915
X-120.444 Y-63.056
X-119.708 Y-63.173
X-118.969 Y-63.265
X-118.227 Y-63.333
X-117.483 Y-63.377
X-116.738 Y-63.397
X-115.993 Y-63.393
X-115.249 Y-63.365
X-114.505 Y-63.313
X-113.764 Y-63.237
X-113.026 Y-63.136
X-112.291 Y-63.012
X-111.561 Y-62.864
X-110.836 Y-62.693
X-110.117 Y-62.499
X-109.404 Y-62.281
X-108.699 Y-62.041
X-108.002 Y-61.778
X-107.314 Y-61.492
X-106.635 Y-61.185
X-105.966 Y-60.856
X-105.309 Y-60.506
X-104.663 Y-60.134
X-104.029 Y-59.743
X-103.408 Y-59.331
X-102.802 Y-58.898
X-102.209 Y-58.447
X-101.631 Y-57.976
X-101.069 Y-57.488
X-100.522 Y-56.981
X-99.992 Y-56.458
X-99.479 Y-55.918
X-98.983 Y-55.361
X-98.506 Y-54.789
X-98.047 Y-54.202
X-97.607 Y-53.601
X-97.187 Y-52.986
X-96.786 Y-52.358
X-96.406 Y-51.717
X-96.046 Y-51.065
X-95.707 Y-50.401
X-95.39 Y-49.727
X-95.094 Y-49.043
X-94.82 Y-48.35
X-94.569 Y-47.649
X-94.34 Y-46.94
X-94.133 Y-46.224
X-93.95 Y-45.502
X-93.79 Y-44.774
X-93.654 Y-44.042
X-93.541 Y-43.305
X-93.452 Y-42.565
X-93.386 Y-41.823
X-93.344 Y-41.079
X-93.326 Y-40.334
X-93.331 Y-39.589
X-93.361 Y-38.845
X-93.414 Y-38.102
X-93.491 Y-37.361
X-93.591 Y-36.622
X-93.715 Y-35.888
X-93.862 Y-35.157
X-94.032 Y-34.432
X-94.225 Y-33.712
X-94.441 Y-32.999
X-94.68 Y-32.294
X-94.941 Y-31.596
X-95.224 Y-30.907
X-95.529 Y-30.227
X-95.856 Y-29.557
X-96.204 Y-28.898
X-96.573 Y-28.251
X-96.962 Y-27.616
X-97.372 Y-26.994
X-97.802 Y-26.385
X-98.25 Y-25.79
X-98.718 Y-25.21
X-99.203 Y-24.645
X-99.707 Y-24.095
X-100.228 Y-23.563
X-100.765 Y-23.047
X-101.319 Y-22.548
X-101.888 Y-22.068
X-102.473 Y-21.606
X-103.071 Y-21.162
X-103.684 Y-20.738
X-104.31 Y-20.333
X-104.948 Y-19.949
X-105.598 Y-19.585
X-106.26 Y-19.243
X-106.932 Y-18.921
X-107.614 Y-18.621
X-108.305 Y-18.343
X-109.004 Y-18.086
X-109.712 Y-17.853
X-110.427 Y-17.642
X-111.148 Y-17.454
X-111.874 Y-17.29
X-112.606 Y-17.149
X-113.341 Y-17.03
X-114.08 Y-16.936
X-114.822 Y-16.864
X-115.566 Y-16.816
X-116.31 Y-16.792
X-117.055
X-117.8 Y-16.815
X-118.544 Y-16.861
X-119.285 Y-16.931
X-120.025 Y-17.024
X-120.761 Y-17.141
X-121.493 Y-17.28
X-122.22 Y-17.442
X-122.941 Y-17.628
X-123.657 Y-17.836
X-124.365 Y-18.066
X-125.066 Y-18.318
X-125.759 Y-18.593
X-126.443 Y-18.889
X-127.117 Y-19.206
X-127.78 Y-19.545
X-128.433 Y-19.905
X-129.073 Y-20.286
X-129.701 Y-20.686
X-130.317 Y-21.106
X-130.919 Y-21.546
X-131.506 Y-22.003
X-132.08 Y-22.48
X-132.637 Y-22.974
X-133.179 Y-23.485
X-133.704 Y-24.013
X-134.213 Y-24.558
X-134.705 Y-25.118
X-135.178 Y-25.693
X-135.634 Y-26.282
X-136.071 Y-26.886
X-136.488 Y-27.503
X-136.886 Y-28.133
X-137.265 Y-28.775
X-137.623 Y-29.428
X-137.96 Y-30.092
X-138.277 Y-30.767
X-138.573 Y-31.45
X-138.847 Y-32.143
X-139.098 Y-32.845
X-139.328 Y-33.554
X-139.535 Y-34.269
X-139.719 Y-34.991
X-139.881 Y-35.718
X-140.02 Y-36.45
X-140.136 Y-37.186
X-140.229 Y-37.926
X-140.298 Y-38.667
X-140.345 Y-39.411
X-140.368 Y-40.156
X-140.367 Y-40.901
X-140.344 Y-41.646
X-140.297 Y-42.389
X-140.227 Y-43.131
X-140.134 Y-43.87
X-140.018 Y-44.606
X-139.879 Y-45.338
X-139.718 Y-46.065
X-139.534 Y-46.787
X-139.327 Y-47.503
X-139.099 Y-48.212
X-138.848 Y-48.914
X-138.576 Y-49.608
X-138.281 Y-50.292
X-137.966 Y-50.967
X-137.629 Y-51.632
X-137.272 Y-52.285
X-136.894 Y-52.928
X-136.497 Y-53.558
X-136.08 Y-54.176
X-135.645 Y-54.78
X-135.19 Y-55.37
X-134.717 Y-55.946
X-134.226 Y-56.507
X-133.718 Y-57.052
X-133.194 Y-57.581
X-132.653 Y-58.093
X-132.096 Y-58.589
X-131.525 Y-59.066
X-130.938 Y-59.526
X-130.338 Y-59.967
X-129.724 Y-60.39
X-129.098 Y-60.793
X-128.459 Y-61.176
X-127.808 Y-61.54
X-127.147 Y-61.883
X-126.475 Y-62.205
X-125.794 Y-62.506
X-125.103 Y-62.785
X-124.404 Y-63.043
X-123.697 Y-63.279
X-122.983 Y-63.492
X-122.263 Y-63.683
X-121.537 Y-63.852
X-120.807 Y-63.998
X-120.072 Y-64.121
X-119.334 Y-64.221
X-118.592 Y-64.298
X-117.849 Y-64.351
X-117.105 Y-64.382
X-116.36 Y-64.389
X-115.615 Y-64.374
X-114.871 Y-64.335
X-114.128 Y-64.274
X-113.388 Y-64.189
X-112.651 Y-64.081
X-111.917 Y-63.951
X-111.188 Y-63.798
X-110.464 Y-63.623
X-109.746 Y-63.425
X-109.034 Y-63.205
X-108.329 Y-62.964
X-107.632 Y-62.7
X-106.944 Y-62.414
X-106.265 Y-62.108
X-105.595 Y-61.781
X-104.936 Y-61.433
X-104.288 Y-61.065
X-103.652 Y-60.678
X-103.028 Y-60.271
X-102.417 Y-59.844
X-101.819 Y-59.399
X-101.236 Y-58.936
X-100.667 Y-58.455
X-100.113 Y-57.957
X-99.574 Y-57.443
X-99.051 Y-56.912
X-98.545 Y-56.365
X-98.056 Y-55.803
X-97.585 Y-55.226
X-97.131 Y-54.635
X-96.696 Y-54.03
X-96.279 Y-53.412
X-95.881 Y-52.782
X-95.503 Y-52.14
X-95.145 Y-51.487
X-94.807 Y-50.823
X-94.49 Y-50.149
X-94.194 Y-49.465
X-93.919 Y-48.773
X-93.665 Y-48.072
X-93.432 Y-47.364
X-93.222 Y-46.65
X-93.033 Y-45.929
X-92.867 Y-45.203
X-92.723 Y-44.472
X-92.601 Y-43.737
X-92.503 Y-42.998
X-92.426 Y-42.257
X-92.373 Y-41.514
X-92.342 Y-40.769
X-92.334 Y-40.024
X-92.348 Y-39.279
X-92.386 Y-38.535
X-92.446 Y-37.793
X-92.529 Y-37.052
X-92.634 Y-36.315
X-92.762 Y-35.581
X-92.912 Y-34.851
X-93.084 Y-34.126
X-93.279 Y-33.407
X-93.496 Y-32.694
X-93.734 Y-31.988
X-93.995 Y-31.29
X-94.276 Y-30.6
X-94.578 Y-29.919
X-94.901 Y-29.248
X-95.244 Y-28.586
X-95.608 Y-27.936
X-95.992 Y-27.297
X-96.395 Y-26.671
X-96.817 Y-26.057
X-97.257 Y-25.456
X-97.716 Y-24.869
X-98.192 Y-24.296
X-98.686 Y-23.738
X-99.196 Y-23.195
X-99.723 Y-22.668
X-100.266 Y-22.158
X-100.824 Y-21.664
X-101.397 Y-21.188
X-101.984 Y-20.729
X-102.585 Y-20.289
X-103.199 Y-19.867
X-103.826 Y-19.464
X-104.465 Y-19.081
X-105.115 Y-18.717
X-105.776 Y-18.374
X-106.448 Y-18.051
X-107.129 Y-17.748
X-107.819 Y-17.467
X-108.517 Y-17.206
X-109.222 Y-16.968
X-109.935 Y-16.751
X-110.654 Y-16.556
X-111.379 Y-16.383
X-112.109 Y-16.232
X-112.843 Y-16.103
X-113.58 Y-15.997
X-114.32 Y-15.913
X-115.063 Y-15.852
X-115.807 Y-15.813
X-116.552 Y-15.797
X-117.297 Y-15.804
X-118.041 Y-15.833
X-118.785 Y-15.885
X-119.526 Y-15.959
X-120.265 Y-16.055
X-121 Y-16.173
X-121.732 Y-16.314
X-122.459 Y-16.478
X-123.181 Y-16.663
X-123.896 Y-16.87
X-124.605 Y-17.099
X-125.307 Y-17.349
X-126.001 Y-17.619
X-126.687 Y-17.911
X-127.363 Y-18.224
X-128.03 Y-18.557
X-128.686 Y-18.91
X-129.331 Y-19.283
X-129.964 Y-19.675
X-130.586 Y-20.086
X-131.195 Y-20.516
X-131.79 Y-20.963
X-132.372 Y-21.429
X-132.939 Y-21.912
X-133.491 Y-22.412
X-134.028 Y-22.928
X-134.55 Y-23.461
X-135.055 Y-24.008
X-135.543 Y-24.571
X-136.015 Y-25.148
X-136.469 Y-25.739
X-136.904 Y-26.343
X-137.321 Y-26.961
X-137.72 Y-27.59
X-138.099 Y-28.232
X-138.459 Y-28.884
X-138.799 Y-29.547
X-139.119 Y-30.22
X-139.419 Y-30.902
X-139.698 Y-31.593
X-139.956 Y-32.292
X-140.193 Y-32.998
X-140.408 Y-33.711
X-140.602 Y-34.431
X-140.775 Y-35.155
X-140.925 Y-35.885
X-141.054 Y-36.619
X-141.16 Y-37.356
X-141.244 Y-38.097
X-141.306 Y-38.839
X-141.345 Y-39.583
X-141.362 Y-40.328
X-141.357 Y-41.073
X-141.33 Y-41.818
X-141.28 Y-42.561
X-141.209 Y-43.303
X-141.114 Y-44.042
X-140.998 Y-44.778
X-140.859 Y-45.51
X-140.698 Y-46.237
X-140.516 Y-46.96
X-140.312 Y-47.676
X-140.087 Y-48.387
X-139.841 Y-49.09
X-139.574 Y-49.785
X-139.286 Y-50.473
X-138.978 Y-51.151
X-138.649 Y-51.819
X-138.3 Y-52.478
X-137.932 Y-53.126
X-137.544 Y-53.762
X-137.138 Y-54.387
X-136.713 Y-54.999
X-136.27 Y-55.598
X-135.81 Y-56.183
X-135.331 Y-56.755
X-134.836 Y-57.311
X-134.325 Y-57.853
X-133.798 Y-58.379
X-133.255 Y-58.89
X-132.697 Y-59.384
X-132.124 Y-59.86
X-131.537 Y-60.319
X-130.937 Y-60.761
X-130.324 Y-61.184
X-129.698 Y-61.589
X-129.061 Y-61.975
X-128.413 Y-62.342
X-127.753 Y-62.689
X-127.084 Y-63.016
X-126.405 Y-63.323
X-125.717 Y-63.61
X-125.021 Y-63.875
X-124.318 Y-64.12
X-123.607 Y-64.344
X-122.89 Y-64.546
X-122.167 Y-64.727
X-121.439 Y-64.886
X-120.707 Y-65.023
X-119.971 Y-65.139
X-119.232 Y-65.232
X-118.49 Y-65.303
X-117.747 Y-65.351
X-117.002 Y-65.378
X-116.257 Y-65.383
X-115.512 Y-65.365
X-114.768 Y-65.325
X-114.026 Y-65.263
X-113.285 Y-65.178
X-112.548 Y-65.071
X-111.814 Y-64.943
X-111.084 Y-64.792
X-110.359 Y-64.621
X-109.64 Y-64.428
X-108.926 Y-64.213
X-108.219 Y-63.977
X-107.52 Y-63.721
X-106.828 Y-63.443
X-106.145 Y-63.146
X-105.472 Y-62.828
X-104.807 Y-62.49
X-104.154 Y-62.133
X-103.51 Y-61.757
X-102.879 Y-61.361
X-102.259 Y-60.948
X-101.652 Y-60.516
X-101.058 Y-60.066
X-100.478 Y-59.599
X-99.911 Y-59.115
X-99.359 Y-58.614
X-98.822 Y-58.098
X-98.301 Y-57.566
X-97.796 Y-57.018
X-97.307 Y-56.456
X-96.835 Y-55.879
X-96.38 Y-55.289
X-95.943 Y-54.686
X-95.523 Y-54.07
X-95.122 Y-53.443
X-94.739 Y-52.803
X-94.376 Y-52.153
X-94.032 Y-51.492
X-93.707 Y-50.821
X-93.403 Y-50.141
X-93.118 Y-49.453
X-92.854 Y-48.756
X-92.611 Y-48.052
X-92.388 Y-47.341
X-92.186 Y-46.624
X-92.006 Y-45.901
X-91.846 Y-45.173
X-91.709 Y-44.441
X-91.593 Y-43.705
X-91.499 Y-42.966
X-91.426 Y-42.224
X-91.375 Y-41.481
X-91.346 Y-40.736
X-91.339 Y-39.991
X-91.354 Y-39.246
X-91.392 Y-38.502
X-91.451 Y-37.76
X-91.532 Y-37.019
X-91.634 Y-36.281
X-91.758 Y-35.546
X-91.903 Y-34.815
X-92.07 Y-34.089
X-92.259 Y-33.368
X-92.468 Y-32.654
X-92.699 Y-31.945
X-92.95 Y-31.244
X-93.222 Y-30.55
X-93.514 Y-29.864
X-93.826 Y-29.188
X-94.157 Y-28.521
X-94.509 Y-27.864
X-94.879 Y-27.217
X-95.268 Y-26.582
X-95.676 Y-25.958
X-96.102 Y-25.347
X-96.546 Y-24.749
X-97.007 Y-24.164
X-97.485 Y-23.592
X-97.98 Y-23.035
X-98.492 Y-22.493
X-99.019 Y-21.967
X-99.561 Y-21.456
X-100.118 Y-20.961
X-100.689 Y-20.483
X-101.275 Y-20.021
X-101.873 Y-19.577
X-102.484 Y-19.151
X-103.107 Y-18.743
X-103.743 Y-18.354
X-104.389 Y-17.983
X-105.046 Y-17.632
X-105.713 Y-17.3
X-106.39 Y-16.988
X-107.075 Y-16.695
X-107.768 Y-16.423
X-108.47 Y-16.172
X-109.178 Y-15.941
X-109.893 Y-15.731
X-110.614 Y-15.542
X-111.34 Y-15.374
X-112.07 Y-15.228
X-112.805 Y-15.103
X-113.543 Y-14.999
X-114.283 Y-14.917
X-115.026 Y-14.858
X-115.77 Y-14.819
X-116.515 Y-14.803
X-117.26 Y-14.809
X-118.004 Y-14.836
X-118.748 Y-14.885
X-119.49 Y-14.955
X-120.229 Y-15.047
X-120.965 Y-15.16
X-121.698 Y-15.295
X-122.427 Y-15.451
X-123.15 Y-15.628
X-123.869 Y-15.826
X-124.581 Y-16.045
X-125.286 Y-16.285
X-125.985 Y-16.544
X-126.675 Y-16.824
X-127.357 Y-17.124
X-128.03 Y-17.444
X-128.693 Y-17.783
X-129.346 Y-18.142
X-129.989 Y-18.519
X-130.62 Y-18.915
X-131.24 Y-19.329
X-131.847 Y-19.76
X-132.441 Y-20.21
X-133.022 Y-20.676
X-133.589 Y-21.16
X-134.142 Y-21.659
X-134.68 Y-22.175
X-135.203 Y-22.705
X-135.71 Y-23.251
X-136.202 Y-23.811
X-136.677 Y-24.385
X-137.135 Y-24.973
X-137.576 Y-25.573
X-137.999 Y-26.186
X-138.405 Y-26.811
X-138.792 Y-27.448
X-139.16 Y-28.095
X-139.51 Y-28.753
X-139.841 Y-29.421
X-140.153 Y-30.098
X-140.445 Y-30.783
X-140.716 Y-31.477
X-140.968 Y-32.178
X-141.199 Y-32.886
X-141.41 Y-33.601
X-141.6 Y-34.321
X-141.769 Y-35.047
X-141.917 Y-35.777
X-142.044 Y-36.511
X-142.149 Y-37.249
X-142.233 Y-37.989
X-142.295 Y-38.732
X-142.336 Y-39.476
X-142.355 Y-40.221
X-142.353 Y-40.966
X-142.33 Y-41.71
X-142.285 Y-42.454
X-142.219 Y-43.196
X-142.131 Y-43.936
X-142.022 Y-44.673
X-141.891 Y-45.407
X-141.74 Y-46.136
X-141.568 Y-46.861
X-141.375 Y-47.581
X-141.161 Y-48.294
X-140.927 Y-49.002
X-140.673 Y-49.702
X-140.398 Y-50.395
X-140.104 Y-51.079
X-139.79 Y-51.755
X-139.457 Y-52.421
X-139.105 Y-53.078
X-138.734 Y-53.724
X-138.344 Y-54.359
X-137.937 Y-54.983
X-137.511 Y-55.594
X-137.067 Y-56.193
X-136.607 Y-56.779
X-136.13 Y-57.351
X-135.636 Y-57.909
X-135.127 Y-58.453
X-134.603 Y-58.982
X-134.063 Y-59.496
X-133.509 Y-59.994
X-132.94 Y-60.476
X-132.358 Y-60.941
X-131.763 Y-61.389
X-131.155 Y-61.82
X-130.535 Y-62.233
X-129.904 Y-62.628
X-129.261 Y-63.005
X-128.608 Y-63.364
X-127.945 Y-63.704
X-127.272 Y-64.024
X-126.59 Y-64.325
X-125.9 Y-64.606
X-125.203 Y-64.867
X-124.498 Y-65.108
X-123.786 Y-65.328
X-123.068 Y-65.528
X-122.345 Y-65.707
X-121.617 Y-65.865
X-120.885 Y-66.002
X-120.148 Y-66.118
X-119.409 Y-66.212
X-118.668 Y-66.285
X-117.925 Y-66.337
X-117.18 Y-66.368
X-116.435 Y-66.377
X-115.69 Y-66.365
X-114.946 Y-66.331
X-114.203 Y-66.276
X-113.462 Y-66.2
X-112.723 Y-66.102
X-111.988 Y-65.984
X-111.256 Y-65.844
X-110.528 Y-65.684
X-109.805 Y-65.503
X-109.088 Y-65.301
X-108.377 Y-65.08
X-107.672 Y-64.837
X-106.975 Y-64.575
X-106.285 Y-64.293
X-105.604 Y-63.991
X-104.931 Y-63.671
X-104.268 Y-63.331
X-103.615 Y-62.972
X-102.973 Y-62.595
X-102.342 Y-62.199
X-101.722 Y-61.785
X-101.114 Y-61.354
X-100.519 Y-60.906
X-99.937 Y-60.441
X-99.368 Y-59.96
X-98.813 Y-59.463
X-98.272 Y-58.95
X-97.746 Y-58.423
X-97.236 Y-57.88
X-96.741 Y-57.323
X-96.262 Y-56.752
X-95.8 Y-56.168
X-95.354 Y-55.571
X-94.925 Y-54.962
X-94.514 Y-54.341
X-94.12 Y-53.708
X-93.744 Y-53.065
X-93.387 Y-52.411
X-93.048 Y-51.747
X-92.729 Y-51.074
X-92.428 Y-50.392
X-92.147 Y-49.702
X-91.886 Y-49.005
X-91.644 Y-48.3
X-91.423 Y-47.588
X-91.222 Y-46.871
X-91.041 Y-46.148
X-90.882 Y-45.42
X-90.743 Y-44.688
X-90.624 Y-43.953
X-90.527 Y-43.214
X-90.45 Y-42.473
X-90.394 Y-41.73
X-90.359 Y-40.986
X-90.346 Y-40.241
X-90.353 Y-39.496
X-90.382 Y-38.751
X-90.432 Y-38.008
X-90.503 Y-37.266
X-90.594 Y-36.527
X-90.707 Y-35.79
X-90.84 Y-35.057
X-90.994 Y-34.328
X-91.168 Y-33.604
X-91.363 Y-32.885
X-91.578 Y-32.171
X-91.813 Y-31.464
X-92.068 Y-30.764
X-92.343 Y-30.072
X-92.637 Y-29.387
X-92.95 Y-28.711
X-93.283 Y-28.044
X-93.634 Y-27.388
X-94.005 Y-26.741
X-94.393 Y-26.105
X-94.799 Y-25.481
X-95.223 Y-24.868
X-95.664 Y-24.267
X-96.121 Y-23.679
X-96.596 Y-23.104
X-97.086 Y-22.543
X-97.592 Y-21.996
X-98.113 Y-21.464
X-98.649 Y-20.947
X-99.2 Y-20.445
X-99.764 Y-19.958
X-100.342 Y-19.488
X-100.933 Y-19.034
X-101.537 Y-18.598
X-102.152 Y-18.178
X-102.78 Y-17.776
X-103.418 Y-17.392
X-104.067 Y-17.026
X-104.726 Y-16.678
X-105.395 Y-16.35
X-106.072 Y-16.04
X-106.758 Y-15.749
X-107.453 Y-15.479
X-108.154 Y-15.228
X-108.862 Y-14.997
X-109.577 Y-14.786
X-110.297 Y-14.596
X-111.023 Y-14.426
X-111.753 Y-14.276
X-112.487 Y-14.147
X-113.224 Y-14.039
X-113.964 Y-13.951
X-114.706 Y-13.884
X-115.449 Y-13.839
X-116.194 Y-13.814
X-116.939 Y-13.81
X-117.684 Y-13.828
X-118.428 Y-13.865
X-119.171 Y-13.924
X-119.912 Y-14.003
X-120.65 Y-14.103
X-121.385 Y-14.224
X-122.117 Y-14.365
X-122.844 Y-14.527
X-123.566 Y-14.709
X-124.284 Y-14.911
X-124.995 Y-15.133
X-125.7 Y-15.375
X-126.397 Y-15.636
X-127.087 Y-15.918
X-127.769 Y-16.218
X-128.442 Y-16.538
X-129.106 Y-16.876
X-129.76 Y-17.233
X-130.404 Y-17.608
X-131.037 Y-18.001
X-131.659 Y-18.411
X-132.269 Y-18.838
X-132.867 Y-19.283
X-133.452 Y-19.744
X-134.024 Y-20.222
X-134.582 Y-20.715
X-135.127 Y-21.223
X-135.657 Y-21.747
X-136.172 Y-22.285
X-136.673 Y-22.837
X-137.157 Y-23.403
X-137.626 Y-23.982
X-138.078 Y-24.574
X-138.514 Y-25.179
X-138.933 Y-25.795
X-139.334 Y-26.423
X-139.718 Y-27.061
X-140.084 Y-27.71
X-140.432 Y-28.369
X-140.762 Y-29.037
X-141.072 Y-29.714
X-141.364 Y-30.4
X-141.636 Y-31.094
X-141.888 Y-31.795
X-142.121 Y-32.502
X-142.335 Y-33.216
X-142.528 Y-33.936
X-142.702 Y-34.66
X-142.855 Y-35.389
X-142.987 Y-36.123
X-143.1 Y-36.859
X-143.191 Y-37.599
X-143.262 Y-38.34
X-143.312 Y-39.084
X-143.342 Y-39.828
X-143.351 Y-40.573
X-143.339 Y-41.318
X-143.307 Y-42.062
X-143.254 Y-42.806
X-143.18 Y-43.547
X-143.086 Y-44.286
X-142.972 Y-45.022
X-142.837 Y-45.755
X-142.682 Y-46.484
X-142.506 Y-47.208
X-142.311 Y-47.927
X-142.096 Y-48.64
X-141.861 Y-49.347
X-141.606 Y-50.048
X-141.332 Y-50.74
X-141.039 Y-51.425
X-140.727 Y-52.102
X-140.396 Y-52.769
X-140.047 Y-53.428
X-139.68 Y-54.076
X-139.295 Y-54.714
X-138.892 Y-55.341
X-138.472 Y-55.956
X-138.035 Y-56.56
X-137.582 Y-57.151
X-137.112 Y-57.729
X-136.626 Y-58.294
X-136.125 Y-58.845
X-135.609 Y-59.383
X-135.078 Y-59.905
X-134.533 Y-60.413
X-133.974 Y-60.906
X-133.401 Y-61.383
X-132.816 Y-61.844
X-132.218 Y-62.288
X-131.608 Y-62.716
X-130.986 Y-63.127
X-130.354 Y-63.52
X-129.71 Y-63.896
X-129.057 Y-64.253
X-128.393 Y-64.593
X-127.721 Y-64.913
X-127.04 Y-65.215
X-126.35 Y-65.498
X-125.653 Y-65.761
X-124.949 Y-66.006
X-124.239 Y-66.23
X-123.523 Y-66.435
X-122.801 Y-66.62
X-122.074 Y-66.785
X-121.344 Y-66.93
X-120.609 Y-67.054
X-119.871 Y-67.158
X-119.131 Y-67.241
X-118.388 Y-67.304
X-117.644 Y-67.346
X-116.9 Y-67.368
X-116.155 Y-67.369
X-115.41 Y-67.35
X-114.666 Y-67.31
X-113.923 Y-67.249
X-113.183 Y-67.168
X-112.444 Y-67.067
X-111.709 Y-66.945
X-110.978 Y-66.804
X-110.251 Y-66.642
X-109.528 Y-66.46
X-108.811 Y-66.258
X-108.1 Y-66.036
X-107.395 Y-65.795
X-106.697 Y-65.535
X-106.006 Y-65.255
X-105.323 Y-64.957
X-104.649 Y-64.64
X-103.984 Y-64.304
X-103.328 Y-63.951
X-102.682 Y-63.579
X-102.047 Y-63.19
X-101.422 Y-62.783
X-100.809 Y-62.36
X-100.208 Y-61.92
X-99.619 Y-61.463
X-99.043 Y-60.991
X-98.48 Y-60.503
X-97.931 Y-60
X-97.395 Y-59.482
X-96.874 Y-58.949
X-96.367 Y-58.403
X-95.876 Y-57.843
X-95.4 Y-57.269
X-94.94 Y-56.683
X-94.496 Y-56.085
X-94.069 Y-55.475
X-93.659 Y-54.853
X-93.265 Y-54.22
X-92.89 Y-53.577
X-92.532 Y-52.923
X-92.192 Y-52.26
X-91.87 Y-51.588
X-91.567 Y-50.908
X-91.282 Y-50.219
X-91.016 Y-49.523
X-90.769 Y-48.82
X-90.542 Y-48.111
X-90.334 Y-47.395
X-90.146 Y-46.674
X-89.977 Y-45.948
X-89.829 Y-45.218
X-89.7 Y-44.484
X-89.592 Y-43.747
X-89.503 Y-43.008
X-89.435 Y-42.266
X-89.387 Y-41.522
X-89.359 Y-40.778
X-89.351 Y-40.033
X-89.364 Y-39.288
X-89.397 Y-38.543
X-89.45 Y-37.8
X-89.524 Y-37.059
X-89.617 Y-36.319
X-89.731 Y-35.583
X-89.865 Y-34.85
X-90.019 Y-34.121
X-90.193 Y-33.397
X-90.387 Y-32.677
X-90.6 Y-31.963
X-90.832 Y-31.256
X-91.084 Y-30.554
X-91.355 Y-29.86
X-91.644 Y-29.174
X-91.952 Y-28.495
X-92.279 Y-27.825
X-92.624 Y-27.165
X-92.986 Y-26.514
X-93.367 Y-25.874
X-93.765 Y-25.244
X-94.179 Y-24.625
X-94.611 Y-24.017
X-95.059 Y-23.422
X-95.523 Y-22.839
X-96.002 Y-22.269
X-96.497 Y-21.712
X-97.007 Y-21.169
X-97.532 Y-20.64
X-98.071 Y-20.125
X-98.623 Y-19.625
X-99.189 Y-19.141
X-99.768 Y-18.672
X-100.36 Y-18.219
X-100.964 Y-17.783
X-101.579 Y-17.363
X-102.206 Y-16.96
X-102.844 Y-16.575
X-103.492 Y-16.207
X-104.149 Y-15.856
X-104.816 Y-15.524
X-105.492 Y-15.21
X-106.175 Y-14.914
X-106.867 Y-14.637
X-107.566 Y-14.38
X-108.272 Y-14.141
X-108.984 Y-13.922
X-109.702 Y-13.722
X-110.425 Y-13.542
X-111.153 Y-13.382
X-111.884 Y-13.241
X-112.619 Y-13.12
X-113.358 Y-13.019
X-114.098 Y-12.938
X-114.841 Y-12.877
X-115.585 Y-12.837
X-116.33 Y-12.817
X-117.075 Y-12.816
X-117.819 Y-12.836
X-118.563 Y-12.876
X-119.306 Y-12.936
X-120.047 Y-13.016
X-120.785 Y-13.116
X-121.52 Y-13.237
X-122.252 Y-13.377
X-122.98 Y-13.537
X-123.703 Y-13.716
X-124.421 Y-13.915
X-125.134 Y-14.133
X-125.84 Y-14.37
X-126.54 Y-14.626
X-127.232 Y-14.901
X-127.917 Y-15.194
X-128.593 Y-15.506
X-129.261 Y-15.837
X-129.92 Y-16.185
X-130.569 Y-16.551
X-131.208 Y-16.934
X-131.837 Y-17.334
X-132.454 Y-17.751
X-133.06 Y-18.184
X-133.654 Y-18.634
X-134.236 Y-19.1
X-134.805 Y-19.581
X-135.36 Y-20.077
X-135.903 Y-20.588
X-136.431 Y-21.113
X-136.945 Y-21.653
X-137.444 Y-22.206
X-137.928 Y-22.772
X-138.397 Y-23.351
X-138.85 Y-23.943
X-139.287 Y-24.546
X-139.707 Y-25.161
X-140.111 Y-25.788
X-140.498 Y-26.424
X-140.868 Y-27.071
X-141.221 Y-27.727
X-141.555 Y-28.393
X-141.872 Y-29.067
X-142.17 Y-29.75
X-142.45 Y-30.441
X-142.711 Y-31.138
X-142.954 Y-31.843
X-143.177 Y-32.554
X-143.382 Y-33.27
X-143.567 Y-33.992
X-143.732 Y-34.718
X-143.879 Y-35.449
X-144.005 Y-36.183
X-144.112 Y-36.921
X-144.199 Y-37.661
X-144.266 Y-38.403
X-144.313 Y-39.146
X-144.34 Y-39.891
X-144.347 Y-40.636
X-144.334 Y-41.381
X-144.301 Y-42.125
X-144.248 Y-42.868
X-144.176 Y-43.61
X-144.083 Y-44.349
X-143.971 Y-45.085
X-143.839 Y-45.819
X-143.687 Y-46.548
X-143.516 Y-47.273
X-143.326 Y-47.994
X-143.117 Y-48.709
X-142.888 Y-49.418
X-142.64 Y-50.121
X-142.374 Y-50.817
X-142.089 Y-51.505
X-141.786 Y-52.186
X-141.465 Y-52.858
X-141.126 Y-53.521
X-140.769 Y-54.176
X-140.395 Y-54.82
X-140.004 Y-55.454
X-139.597 Y-56.078
X-139.172 Y-56.69
X-138.731 Y-57.291
X-138.274 Y-57.879
X-137.802 Y-58.456
X-137.315 Y-59.019
X-136.812 Y-59.569
X-136.295 Y-60.106
X-135.764 Y-60.628
X-135.219 Y-61.136
X-134.66 Y-61.629
X-134.089 Y-62.107
X-133.505 Y-62.57
X-132.909 Y-63.017
X-132.301 Y-63.447
X-131.682 Y-63.862
X-131.052 Y-64.26
X-130.411 Y-64.641
X-129.761 Y-65.004
X-129.101 Y-65.35
X-128.432 Y-65.678
X-127.755 Y-65.988
X-127.069 Y-66.28
X-126.376 Y-66.554
X-125.676 Y-66.809
X-124.97 Y-67.045
X-124.257 Y-67.263
X-123.539 Y-67.461
X-122.815 Y-67.64
X-122.088 Y-67.799
X-121.356 Y-67.939
X-120.621 Y-68.059
X-119.882 Y-68.16
X-119.142 Y-68.241
X-118.399 Y-68.302
X-117.655 Y-68.343
X-116.91 Y-68.364
X-116.165 Y-68.366
X-115.42 Y-68.347
X-114.676 Y-68.308
X-113.934 Y-68.25
X-113.193 Y-68.172
X-112.454 Y-68.074
X-111.718 Y-67.957
X-110.986 Y-67.821
X-110.257 Y-67.665
X-109.533 Y-67.489
X-108.814 Y-67.294
X-108.1 Y-67.081
X-107.392 Y-66.848
X-106.691 Y-66.597
X-105.997 Y-66.327
X-105.309 Y-66.039
X-104.63 Y-65.733
X-103.959 Y-65.409
X-103.297 Y-65.067
X-102.644 Y-64.708
X-102.001 Y-64.332
X-101.368 Y-63.938
X-100.746 Y-63.529
X-100.135 Y-63.102
X-99.535 Y-62.66
X-98.948 Y-62.202
X-98.372 Y-61.729
X-97.81 Y-61.241
X-97.26 Y-60.737
X-96.724 Y-60.22
X-96.202 Y-59.688
X-95.694 Y-59.143
X-95.201 Y-58.585
X-94.722 Y-58.014
X-94.259 Y-57.43
X-93.811 Y-56.835
X-93.379 Y-56.228
X-92.963 Y-55.609
X-92.564 Y-54.98
X-92.182 Y-54.341
X-91.816 Y-53.692
X-91.468 Y-53.033
X-91.137 Y-52.366
X-90.824 Y-51.69
X-90.528 Y-51.006
X-90.251 Y-50.314
X-89.992 Y-49.616
X-89.751 Y-48.91
X-89.529 Y-48.199
X-89.326 Y-47.482
X-89.142 Y-46.76
X-88.977 Y-46.034
X-88.831 Y-45.303
X-88.704 Y-44.569
X-88.597 Y-43.832
X-88.51 Y-43.092
X-88.442 Y-42.35
X-88.393 Y-41.606
X-88.364 Y-40.862
X-88.355 Y-40.117
X-88.365 Y-39.372
X-88.395 Y-38.627
X-88.445 Y-37.884
X-88.514 Y-37.142
X-88.602 Y-36.402
X-88.71 Y-35.665
X-88.837 Y-34.931
X-88.983 Y-34.2
X-89.149 Y-33.474
X-89.334 Y-32.752
X-89.538 Y-32.036
X-89.76 Y-31.324
X-90.001 Y-30.619
X-90.26 Y-29.921
X-90.538 Y-29.23
X-90.834 Y-28.546
X-91.147 Y-27.87
X-91.479 Y-27.203
X-91.828 Y-26.544
X-92.194 Y-25.895
X-92.577 Y-25.256
X-92.977 Y-24.628
X-93.393 Y-24.01
X-93.825 Y-23.403
X-94.273 Y-22.808
X-94.737 Y-22.225
X-95.216 Y-21.654
X-95.71 Y-21.096
X-96.219 Y-20.552
X-96.742 Y-20.021
X-97.278 Y-19.504
X-97.828 Y-19.001
X-98.39 Y-18.512
X-98.966 Y-18.039
X-99.553 Y-17.581
X-100.153 Y-17.139
X-100.764 Y-16.712
X-101.386 Y-16.302
X-102.018 Y-15.908
X-102.661 Y-15.531
X-103.313 Y-15.171
X-103.975 Y-14.829
X-104.645 Y-14.503
X-105.324 Y-14.196
X-106.01 Y-13.906
X-106.704 Y-13.635
X-107.405 Y-13.381
X-108.112 Y-13.147
X-108.825 Y-12.931
X-109.544 Y-12.734
X-110.267 Y-12.555
X-110.995 Y-12.396
X-111.727 Y-12.256
X-112.462 Y-12.136
X-113.2 Y-12.034
X-113.941 Y-11.952
X-114.683 Y-11.89
X-115.427 Y-11.847
X-116.172 Y-11.823
X-116.917 Y-11.819
X-117.662 Y-11.834
X-118.406 Y-11.869
X-119.149 Y-11.923
X-119.89 Y-11.996
X-120.63 Y-12.089
X-121.366 Y-12.201
X-122.1 Y-12.332
X-122.829 Y-12.482
X-123.555 Y-12.652
X-124.276 Y-12.839
X-124.992 Y-13.046
X-125.702 Y-13.271
X-126.406 Y-13.515
X-127.104 Y-13.776
X-127.794 Y-14.056
X-128.477 Y-14.354
X-129.152 Y-14.67
X-129.819 Y-15.003
X-130.476 Y-15.353
X-131.124 Y-15.72
X-131.763 Y-16.104
X-132.391 Y-16.505
X-133.008 Y-16.922
X-133.615 Y-17.355
X-134.209 Y-17.804
X-134.792 Y-18.268
X-135.363 Y-18.747
X-135.921 Y-19.241
X-136.466 Y-19.749
X-136.998 Y-20.271
X-137.516 Y-20.806
X-138.02 Y-21.355
X-138.509 Y-21.917
X-138.984 Y-22.491
X-139.444 Y-23.077
X-139.888 Y-23.675
X-140.316 Y-24.285
X-140.729 Y-24.905
X-141.126 Y-25.536
X-141.506 Y-26.177
X-141.87 Y-26.827
X-142.216 Y-27.486
X-142.546 Y-28.155
X-142.858 Y-28.831
X-143.152 Y-29.516
X-143.428 Y-30.208
X-143.687 Y-30.907
X-143.927 Y-31.612
X-144.149 Y-32.323
X-144.352 Y-33.04
X-144.537 Y-33.762
X-144.703 Y-34.488
X-144.849 Y-35.218
X-144.977 Y-35.953
X-145.086 Y-36.69
X-145.176 Y-37.429
X-145.246 Y-38.171
X-145.297 Y-38.914
X-145.329 Y-39.659
X-145.342 Y-40.404
X-145.336 Y-41.149
X-145.31 Y-41.893
X-145.265 Y-42.637
X-145.201 Y-43.379
X-145.117 Y-44.12
X-145.014 Y-44.858
X-144.893 Y-45.593
X-144.752 Y-46.324
X-144.593 Y-47.052
X-144.415 Y-47.776
X-144.219 Y-48.494
X-144.004 Y-49.208
X-143.771 Y-49.915
X-143.519 Y-50.617
X-143.249 Y-51.311
X-142.962 Y-51.999
X-142.657 Y-52.678
X-142.334 Y-53.35
X-141.994 Y-54.013
X-141.637 Y-54.667
X-141.263 Y-55.311
X-140.873 Y-55.946
X-140.466 Y-56.57
X-140.043 Y-57.184
X-139.605 Y-57.786
X-139.151 Y-58.377
X-138.682 Y-58.956
X-138.198 Y-59.522
X-137.7 Y-60.076
X-137.188 Y-60.617
X-136.661 Y-61.145
X-136.122 Y-61.658
X-135.569 Y-62.158
X-135.003 Y-62.643
X-134.425 Y-63.113
X-133.836 Y-63.569
X-133.234 Y-64.009
X-132.622 Y-64.433
X-131.999 Y-64.842
X-131.366 Y-65.234
X-130.722 Y-65.61
X-130.07 Y-65.969
X-129.408 Y-66.311
X-128.737 Y-66.636
X-128.059 Y-66.944
X-127.372 Y-67.234
X-126.679 Y-67.506
X-125.978 Y-67.76
X-125.271 Y-67.996
X-124.559 Y-68.213
X-123.841 Y-68.412
X-123.118 Y-68.592
X-122.391 Y-68.754
X-121.659 Y-68.896
X-120.925 Y-69.02
X-120.187 Y-69.125
X-119.447 Y-69.211
X-118.705 Y-69.278
X-117.961 Y-69.325
X-117.217 Y-69.353
X-116.472 Y-69.363
X-115.727 Y-69.352
X-114.982 Y-69.323
X-114.239 Y-69.275
X-113.497 Y-69.207
X-112.757 Y-69.121
X-112.019 Y-69.016
X-111.284 Y-68.891
X-110.553 Y-68.749
X-109.826 Y-68.587
X-109.103 Y-68.407
X-108.385 Y-68.208
X-107.672 Y-67.991
X-106.965 Y-67.755
X-106.265 Y-67.502
X-105.571 Y-67.231
X-104.884 Y-66.942
X-104.205 Y-66.635
X-103.534 Y-66.311
X-102.872 Y-65.97
X-102.218 Y-65.612
X-101.574 Y-65.237
X-100.94 Y-64.846
X-100.316 Y-64.439
X-99.702 Y-64.017
X-99.1 Y-63.578
X-98.509 Y-63.125
X-97.929 Y-62.656
X-97.362 Y-62.173
X-96.808 Y-61.676
X-96.266 Y-61.164
X-95.737 Y-60.639
X-95.222 Y-60.1
X-94.721 Y-59.549
X-94.234 Y-58.985
X-93.762 Y-58.409
X-93.304 Y-57.821
X-92.862 Y-57.222
X-92.435 Y-56.611
X-92.023 Y-55.99
X-91.627 Y-55.359
X-91.248 Y-54.717
X-90.885 Y-54.067
X-90.539 Y-53.407
X-90.209 Y-52.739
X-89.897 Y-52.062
X-89.603 Y-51.378
X-89.325 Y-50.686
X-89.066 Y-49.988
X-88.824 Y-49.283
X-88.601 Y-48.572
X-88.395 Y-47.856
X-88.208 Y-47.135
X-88.039 Y-46.409
X-87.889 Y-45.68
X-87.757 Y-44.946
X-87.644 Y-44.21
X-87.55 Y-43.471
X-87.474 Y-42.73
X-87.418 Y-41.987
X-87.38 Y-41.243
X-87.362 Y-40.498
Y-39.753
X-87.381 Y-39.008
X-87.419 Y-38.264
X-87.476 Y-37.521
X-87.552 Y-36.78
X-87.646 Y-36.041
X-87.759 Y-35.304
X-87.891 Y-34.571
X-88.042 Y-33.841
X-88.211 Y-33.116
X-88.398 Y-32.394
X-88.603 Y-31.678
X-88.827 Y-30.968
X-89.069 Y-30.263
X-89.329 Y-29.565
X-89.606 Y-28.873
X-89.901 Y-28.189
X-90.214 Y-27.512
X-90.543 Y-26.844
X-90.889 Y-26.185
X-91.252 Y-25.534
X-91.632 Y-24.893
X-92.027 Y-24.261
X-92.439 Y-23.64
X-92.866 Y-23.03
X-93.309 Y-22.43
X-93.766 Y-21.843
X-94.239 Y-21.267
X-94.726 Y-20.703
X-95.227 Y-20.152
X-95.742 Y-19.613
X-96.271 Y-19.088
X-96.813 Y-18.576
X-97.367 Y-18.079
X-97.934 Y-17.595
X-98.513 Y-17.126
X-99.104 Y-16.672
X-99.706 Y-16.233
X-100.319 Y-15.81
X-100.942 Y-15.402
X-101.576 Y-15.01
X-102.22 Y-14.635
X-102.873 Y-14.276
X-103.534 Y-13.934
X-104.205 Y-13.608
X-104.883 Y-13.3
X-105.569 Y-13.01
X-106.262 Y-12.736
X-106.962 Y-12.481
X-107.668 Y-12.243
X-108.38 Y-12.023
X-109.097 Y-11.822
X-109.819 Y-11.638
X-110.546 Y-11.473
X-111.277 Y-11.327
X-112.011 Y-11.199
X-112.748 Y-11.089
X-113.487 Y-10.999
X-114.229 Y-10.927
X-114.972 Y-10.874
X-115.716 Y-10.839
X-116.461 Y-10.824
X-117.206 Y-10.827
X-117.951 Y-10.848
X-118.695 Y-10.889
X-119.437 Y-10.948
X-120.178 Y-11.026
X-120.917 Y-11.123
X-121.653 Y-11.238
X-122.386 Y-11.372
X-123.116 Y-11.524
X-123.841 Y-11.694
X-124.562 Y-11.883
X-125.277 Y-12.09
X-125.988 Y-12.315
X-126.692 Y-12.558
X-127.39 Y-12.818
X-128.081 Y-13.096
X-128.766 Y-13.391
X-129.442 Y-13.704
X-130.11 Y-14.033
X-130.77 Y-14.379
X-131.421 Y-14.741
X-132.063 Y-15.12
X-132.694 Y-15.515
X-133.316 Y-15.926
X-133.927 Y-16.352
X-134.527 Y-16.794
X-135.116 Y-17.25
X-135.693 Y-17.721
X-136.259 Y-18.207
X-136.812 Y-18.706
X-137.352 Y-19.219
X-137.879 Y-19.746
X-138.393 Y-20.285
X-138.893 Y-20.837
X-139.379 Y-21.402
X-139.851 Y-21.979
X-140.308 Y-22.567
X-140.751 Y-23.167
X-141.178 Y-23.777
X-141.59 Y-24.398
X-141.985 Y-25.029
X-142.365 Y-25.67
X-142.729 Y-26.32
X-143.077 Y-26.979
X-143.408 Y-27.647
X-143.722 Y-28.322
X-144.019 Y-29.006
X-144.299 Y-29.696
X-144.561 Y-30.393
X-144.806 Y-31.097
X-145.033 Y-31.807
X-145.243 Y-32.522
X-145.434 Y-33.242
X-145.607 Y-33.966
X-145.762 Y-34.695
X-145.899 Y-35.428
X-146.017 Y-36.163
X-146.117 Y-36.902
X-146.199 Y-37.642
X-146.261 Y-38.385
X-146.306 Y-39.128
X-146.332 Y-39.873
X-146.339 Y-40.618
X-146.327 Y-41.363
X-146.297 Y-42.107
X-146.248 Y-42.851
X-146.181 Y-43.593
X-146.095 Y-44.333
X-145.991 Y-45.071
X-145.869 Y-45.806
X-145.728 Y-46.537
X-145.568 Y-47.265
X-145.391 Y-47.989
X-145.195 Y-48.708
X-144.982 Y-49.421
X-144.751 Y-50.13
X-144.502 Y-50.832
X-144.236 Y-51.528
X-143.952 Y-52.217
X-143.652 Y-52.899
X-143.334 Y-53.573
X-143 Y-54.239
X-142.649 Y-54.896
X-142.282 Y-55.544
X-141.899 Y-56.183
X-141.5 Y-56.812
X-141.085 Y-57.431
X-140.655 Y-58.04
X-140.21 Y-58.637
X-139.75 Y-59.223
X-139.275 Y-59.798
X-138.787 Y-60.361
X-138.285 Y-60.911
X-137.769 Y-61.448
X-137.239 Y-61.973
X-136.697 Y-62.484
X-136.143 Y-62.981
X-135.576 Y-63.465
X-134.997 Y-63.934
X-134.406 Y-64.388
X-133.805 Y-64.828
X-133.192 Y-65.252
X-132.569 Y-65.661
X-131.937 Y-66.054
X-131.294 Y-66.431
X-130.643 Y-66.793
X-129.982 Y-67.138
X-129.313 Y-67.466
X-128.637 Y-67.777
X-127.952 Y-68.072
X-127.261 Y-68.349
X-126.562 Y-68.61
X-125.858 Y-68.852
X-125.148 Y-69.077
X-124.432 Y-69.284
X-123.711 Y-69.473
X-122.986 Y-69.644
X-122.257 Y-69.797
X-121.524 Y-69.931
X-120.788 Y-70.048
X-120.05 Y-70.146
X-119.309 Y-70.226
X-118.566 Y-70.287
X-117.822 Y-70.33
X-117.078 Y-70.354
X-116.333 Y-70.359
X-115.588 Y-70.346
X-114.843 Y-70.315
X-114.1 Y-70.265
X-113.358 Y-70.196
X-112.618 Y-70.109
X-111.881 Y-70.004
X-111.146 Y-69.88
X-110.414 Y-69.738
X-109.687 Y-69.578
X-108.963 Y-69.4
X-108.244 Y-69.204
X-107.531 Y-68.991
X-106.822 Y-68.76
X-106.12 Y-68.511
X-105.424 Y-68.245
X-104.735 Y-67.962
X-104.053 Y-67.661
X-103.379 Y-67.344
X-102.713 Y-67.011
X-102.055 Y-66.661
X-101.406 Y-66.294
X-100.766 Y-65.912
X-100.136 Y-65.514
X-99.516 Y-65.101
X-98.907 Y-64.673
X-98.308 Y-64.229
X-97.72 Y-63.772
X-97.144 Y-63.299
X-96.58 Y-62.813
X-96.028 Y-62.313
X-95.488 Y-61.799
X-94.961 Y-61.272
X-94.447 Y-60.732
X-93.947 Y-60.18
X-93.461 Y-59.616
X-92.989 Y-59.04
X-92.531 Y-58.452
X-92.087 Y-57.853
X-91.659 Y-57.243
X-91.245 Y-56.624
X-90.847 Y-55.994
X-90.465 Y-55.354
X-90.099 Y-54.706
X-89.748 Y-54.048
X-89.414 Y-53.382
X-89.096 Y-52.708
X-88.795 Y-52.027
X-88.511 Y-51.338
X-88.244 Y-50.642
X-87.994 Y-49.94
X-87.762 Y-49.233
X-87.547 Y-48.519
X-87.349 Y-47.801
X-87.169 Y-47.078
X-87.007 Y-46.351
X-86.863 Y-45.62
X-86.737 Y-44.885
X-86.629 Y-44.148
X-86.54 Y-43.408
X-86.468 Y-42.667
X-86.415 Y-41.924
X-86.38 Y-41.179
X-86.363 Y-40.434
X-86.365 Y-39.689
X-86.385 Y-38.945
X-86.423 Y-38.201
X-86.48 Y-37.458
X-86.555 Y-36.716
X-86.648 Y-35.977
X-86.759 Y-35.24
X-86.889 Y-34.507
X-87.036 Y-33.776
X-87.201 Y-33.05
X-87.384 Y-32.328
X-87.584 Y-31.61
X-87.803 Y-30.898
X-88.038 Y-30.191
X-88.291 Y-29.49
X-88.562 Y-28.796
X-88.849 Y-28.108
X-89.153 Y-27.428
X-89.474 Y-26.755
X-89.811 Y-26.091
X-90.164 Y-25.435
X-90.533 Y-24.788
X-90.919 Y-24.15
X-91.319 Y-23.522
X-91.735 Y-22.904
X-92.166 Y-22.296
X-92.612 Y-21.699
X-93.073 Y-21.114
X-93.547 Y-20.539
X-94.036 Y-19.977
X-94.538 Y-19.427
X-95.054 Y-18.889
X-95.583 Y-18.365
X-96.125 Y-17.853
X-96.679 Y-17.355
X-97.245 Y-16.871
X-97.823 Y-16.4
X-98.413 Y-15.945
X-99.013 Y-15.503
X-99.624 Y-15.077
X-100.245 Y-14.665
X-100.876 Y-14.269
X-101.517 Y-13.889
X-102.167 Y-13.525
X-102.825 Y-13.176
X-103.492 Y-12.844
X-104.167 Y-12.529
X-104.85 Y-12.23
X-105.539 Y-11.948
X-106.236 Y-11.683
X-106.938 Y-11.435
X-107.647 Y-11.205
X-108.361 Y-10.991
X-109.08 Y-10.796
X-109.803 Y-10.618
X-110.531 Y-10.458
X-111.262 Y-10.315
X-111.997 Y-10.191
X-112.734 Y-10.085
X-113.474 Y-9.996
X-114.216 Y-9.926
X-114.959 Y-9.874
X-115.703 Y-9.841
X-116.448 Y-9.826
X-117.193 Y-9.828
X-117.938 Y-9.849
X-118.682 Y-9.889
X-119.425 Y-9.946
X-120.166 Y-10.021
X-120.905 Y-10.115
X-121.642 Y-10.226
X-122.376 Y-10.355
X-123.106 Y-10.502
X-123.833 Y-10.667
X-124.555 Y-10.849
X-125.273 Y-11.049
X-125.986 Y-11.267
X-126.693 Y-11.502
X-127.394 Y-11.754
X-128.089 Y-12.023
X-128.777 Y-12.309
X-129.458 Y-12.611
X-130.131 Y-12.93
X-130.796 Y-13.265
X-131.454 Y-13.616
X-132.102 Y-13.984
X-132.741 Y-14.366
X-133.371 Y-14.765
X-133.99 Y-15.178
X-134.6 Y-15.607
X-135.199 Y-16.05
X-135.787 Y-16.508
X-136.363 Y-16.98
X-136.928 Y-17.466
X-137.481 Y-17.965
X-138.021 Y-18.478
X-138.549 Y-19.004
X-139.064 Y-19.542
X-139.566 Y-20.093
X-140.054 Y-20.656
X-140.529 Y-21.23
X-140.989 Y-21.816
X-141.435 Y-22.413
X-141.867 Y-23.02
X-142.284 Y-23.638
X-142.685 Y-24.265
X-143.071 Y-24.902
X-143.442 Y-25.549
X-143.797 Y-26.204
X-144.136 Y-26.867
X-144.459 Y-27.539
X-144.765 Y-28.218
X-145.055 Y-28.904
X-145.329 Y-29.597
X-145.585 Y-30.297
X-145.825 Y-31.002
X-146.047 Y-31.714
X-146.252 Y-32.43
X-146.439 Y-33.151
X-146.609 Y-33.876
X-146.762 Y-34.606
X-146.896 Y-35.338
X-147.013 Y-36.074
X-147.112 Y-36.813
X-147.193 Y-37.553
X-147.256 Y-38.296
X-147.301 Y-39.04
X-147.328 Y-39.784
X-147.336 Y-40.529
X-147.327 Y-41.274
X-147.3 Y-42.019
X-147.255 Y-42.762
X-147.192 Y-43.505
X-147.111 Y-44.245
X-147.012 Y-44.984
X-146.895 Y-45.72
X-146.761 Y-46.453
X-146.609 Y-47.182
X-146.439 Y-47.907
X-146.252 Y-48.629
X-146.047 Y-49.345
X-145.825 Y-50.056
X-145.586 Y-50.762
X-145.331 Y-51.462
X-145.058 Y-52.155
X-144.769 Y-52.842
X-144.463 Y-53.521
X-144.141 Y-54.193
X-143.802 Y-54.857
X-143.448 Y-55.512
X-143.078 Y-56.159
X-142.693 Y-56.797
X-142.292 Y-57.425
X-141.876 Y-58.043
X-141.445 Y-58.651
X-140.999 Y-59.248
X-140.54 Y-59.834
X-140.066 Y-60.409
X-139.578 Y-60.972
X-139.077 Y-61.524
X-138.563 Y-62.063
X-138.036 Y-62.589
X-137.496 Y-63.103
X-136.944 Y-63.604
X-136.38 Y-64.091
X-135.805 Y-64.564
X-135.218 Y-65.023
X-134.621 Y-65.468
X-134.012 Y-65.899
X-133.394 Y-66.314
X-132.766 Y-66.715
X-132.128 Y-67.1
X-131.481 Y-67.47
X-130.826 Y-67.824
X-130.162 Y-68.162
X-129.49 Y-68.484
X-128.811 Y-68.79
X-128.124 Y-69.079
X-127.431 Y-69.352
X-126.731 Y-69.608
X-126.025 Y-69.847
X-125.314 Y-70.069
X-124.597 Y-70.273
X-123.876 Y-70.46
X-123.151 Y-70.63
X-122.421 Y-70.782
X-121.689 Y-70.916
X-120.953 Y-71.033
X-120.214 Y-71.131
X-119.473 Y-71.212
X-118.731 Y-71.275
X-117.987 Y-71.32
X-117.243 Y-71.347
X-116.498 Y-71.357
X-115.753 Y-71.348
X-115.008 Y-71.321
X-114.264 Y-71.277
X-113.522 Y-71.214
X-112.781 Y-71.134
X-112.043 Y-71.036
X-111.307 Y-70.92
X-110.574 Y-70.787
X-109.844 Y-70.636
X-109.118 Y-70.467
X-108.397 Y-70.281
X-107.68 Y-70.078
X-106.968 Y-69.858
X-106.262 Y-69.621
X-105.561 Y-69.367
X-104.867 Y-69.096
X-104.18 Y-68.809
X-103.499 Y-68.505
X-102.827 Y-68.185
X-102.162 Y-67.849
X-101.505 Y-67.498
X-100.857 Y-67.13
X-100.218 Y-66.747
X-99.588 Y-66.349
X-98.968 Y-65.936
X-98.358 Y-65.508
X-97.759 Y-65.065
X-97.17 Y-64.609
X-96.592 Y-64.138
X-96.026 Y-63.654
X-95.471 Y-63.156
X-94.929 Y-62.646
X-94.399 Y-62.122
X-93.881 Y-61.586
X-93.376 Y-61.038
X-92.885 Y-60.478
X-92.407 Y-59.906
X-91.943 Y-59.323
X-91.493 Y-58.729
X-91.057 Y-58.125
X-90.636 Y-57.511
X-90.23 Y-56.886
X-89.838 Y-56.252
X-89.462 Y-55.609
X-89.101 Y-54.958
X-88.755 Y-54.297
X-88.426 Y-53.629
X-88.112 Y-52.953
X-87.815 Y-52.27
X-87.534 Y-51.58
X-87.269 Y-50.884
X-87.021 Y-50.181
X-86.79 Y-49.473
X-86.576 Y-48.759
X-86.38 Y-48.04
X-86.2 Y-47.317
X-86.038 Y-46.59
X-85.893 Y-45.859
X-85.765 Y-45.125
X-85.655 Y-44.388
X-85.563 Y-43.649
X-85.488 Y-42.908
X-85.431 Y-42.165
X-85.391 Y-41.421
X-85.369 Y-40.676
X-85.365 Y-39.931
X-85.379 Y-39.186
X-85.411 Y-38.442
X-85.46 Y-37.698
X-85.527 Y-36.956
X-85.611 Y-36.216
X-85.713 Y-35.478
X-85.833 Y-34.742
X-85.969 Y-34.01
X-86.124 Y-33.281
X-86.295 Y-32.556
X-86.484 Y-31.835
X-86.69 Y-31.119
X-86.913 Y-30.408
X-87.152 Y-29.703
X-87.409 Y-29.003
X-87.682 Y-28.31
X-87.971 Y-27.623
X-88.277 Y-26.944
X-88.598 Y-26.272
X-88.936 Y-25.608
X-89.29 Y-24.952
X-89.659 Y-24.305
X-90.044 Y-23.667
X-90.443 Y-23.038
X-90.858 Y-22.419
X-91.287 Y-21.81
X-91.73 Y-21.211
X-92.188 Y-20.623
X-92.659 Y-20.046
X-93.144 Y-19.481
X-93.643 Y-18.927
X-94.154 Y-18.385
X-94.678 Y-17.855
X-95.215 Y-17.339
X-95.764 Y-16.835
X-96.324 Y-16.344
X-96.897 Y-15.867
X-97.48 Y-15.403
X-98.074 Y-14.954
X-98.679 Y-14.518
X-99.293 Y-14.097
X-99.918 Y-13.691
X-100.552 Y-13.3
X-101.195 Y-12.924
X-101.847 Y-12.563
X-102.508 Y-12.218
X-103.176 Y-11.889
X-103.852 Y-11.576
X-104.535 Y-11.279
X-105.226 Y-10.998
X-105.922 Y-10.734
X-106.625 Y-10.487
X-107.334 Y-10.256
X-108.047 Y-10.043
X-108.766 Y-9.846
X-109.489 Y-9.666
X-110.216 Y-9.504
X-110.947 Y-9.359
X-111.681 Y-9.231
X-112.418 Y-9.121
X-113.157 Y-9.028
X-113.899 Y-8.953
X-114.641 Y-8.895
X-115.385 Y-8.855
X-116.13 Y-8.833
X-116.875 Y-8.828
X-117.62 Y-8.841
X-118.365 Y-8.871
X-119.108 Y-8.919
X-119.85 Y-8.985
X-120.591 Y-9.068
X-121.329 Y-9.168
X-122.065 Y-9.286
X-122.797 Y-9.421
X-123.527 Y-9.573
X-124.252 Y-9.742
X-124.974 Y-9.929
X-125.69 Y-10.132
X-126.402 Y-10.352
X-127.109 Y-10.589
X-127.809 Y-10.843
X-128.504 Y-11.113
X-129.191 Y-11.399
X-129.872 Y-11.702
X-130.545 Y-12.021
X-131.211 Y-12.356
X-131.869 Y-12.706
X-132.518 Y-13.071
X-133.158 Y-13.452
X-133.79 Y-13.848
X-134.411 Y-14.258
X-135.023 Y-14.684
X-135.625 Y-15.123
X-136.216 Y-15.576
X-136.797 Y-16.044
X-137.366 Y-16.525
X-137.923 Y-17.019
X-138.469 Y-17.526
X-139.003 Y-18.046
X-139.524 Y-18.578
X-140.033 Y-19.122
X-140.529 Y-19.678
X-141.012 Y-20.246
X-141.481 Y-20.825
X-141.936 Y-21.414
X-142.378 Y-22.014
X-142.805 Y-22.624
X-143.218 Y-23.245
X-143.617 Y-23.874
X-144 Y-24.513
X-144.369 Y-25.161
X-144.722 Y-25.817
X-145.059 Y-26.481
X-145.381 Y-27.153
X-145.687 Y-27.832
X-145.977 Y-28.519
X-146.25 Y-29.212
X-146.508 Y-29.911
X-146.748 Y-30.616
X-146.973 Y-31.327
X-147.18 Y-32.042
X-147.371 Y-32.762
X-147.544 Y-33.487
X-147.701 Y-34.215
X-147.84 Y-34.947
X-147.963 Y-35.682
X-148.068 Y-36.42
X-148.155 Y-37.16
X-148.225 Y-37.902
X-148.278 Y-38.645
X-148.313 Y-39.389
X-148.331 Y-40.134
Y-40.879
X-148.314 Y-41.624
X-148.28 Y-42.368
X-148.228 Y-43.111
X-148.159 Y-43.853
X-148.073 Y-44.593
X-147.969 Y-45.331
X-147.848 Y-46.066
X-147.71 Y-46.798
X-147.554 Y-47.527
X-147.382 Y-48.252
X-147.193 Y-48.972
X-146.987 Y-49.689
X-146.764 Y-50.399
X-146.525 Y-51.105
X-146.269 Y-51.805
X-145.996 Y-52.498
X-145.708 Y-53.185
X-145.403 Y-53.865
X-145.083 Y-54.538
X-144.747 Y-55.203
X-144.396 Y-55.86
X-144.029 Y-56.509
X-143.647 Y-57.148
X-143.251 Y-57.779
X-142.839 Y-58.4
X-142.414 Y-59.012
X-141.974 Y-59.613
X-141.52 Y-60.204
X-141.052 Y-60.784
X-140.571 Y-61.352
X-140.076 Y-61.91
X-139.569 Y-62.456
X-139.049 Y-62.989
X-138.517 Y-63.511
X-137.973 Y-64.02
X-137.417 Y-64.516
X-136.85 Y-64.999
X-136.271 Y-65.468
X-135.682 Y-65.924
X-135.082 Y-66.366
X-134.472 Y-66.794
X-133.852 Y-67.207
X-133.223 Y-67.606
X-132.584 Y-67.99
X-131.937 Y-68.359
X-131.281 Y-68.713
X-130.617 Y-69.051
X-129.946 Y-69.374
X-129.267 Y-69.68
X-128.581 Y-69.971
X-127.888 Y-70.246
X-127.189 Y-70.504
X-126.485 Y-70.746
X-125.775 Y-70.972
X-125.059 Y-71.18
X-124.339 Y-71.372
X-123.615 Y-71.547
X-122.887 Y-71.706
X-122.156 Y-71.846
X-121.421 Y-71.97
X-120.683 Y-72.077
X-119.944 Y-72.166
X-119.202 Y-72.238
X-118.459 Y-72.293
X-117.715 Y-72.33
X-116.97 Y-72.35
X-116.225 Y-72.353
X-115.48 Y-72.338
X-114.736 Y-72.306
X-113.992 Y-72.257
X-113.25 Y-72.19
X-112.51 Y-72.106
X-111.772 Y-72.005
X-111.036 Y-71.887
X-110.304 Y-71.752
X-109.574 Y-71.599
X-108.849 Y-71.43
X-108.127 Y-71.243
X-107.411 Y-71.04
X-106.699 Y-70.82
X-105.992 Y-70.584
X-105.291 Y-70.332
X-104.596 Y-70.063
X-103.908 Y-69.778
X-103.226 Y-69.477
X-102.551 Y-69.161
X-101.884 Y-68.829
X-101.225 Y-68.481
X-100.575 Y-68.119
X-99.932 Y-67.741
X-99.299 Y-67.348
X-98.675 Y-66.941
X-98.061 Y-66.52
X-97.456 Y-66.084
X-96.862 Y-65.635
X-96.278 Y-65.172
X-95.706 Y-64.695
X-95.144 Y-64.205
X-94.594 Y-63.703
X-94.055 Y-63.188
X-93.529 Y-62.661
X-93.015 Y-62.121
X-92.514 Y-61.57
X-92.025 Y-61.008
X-91.55 Y-60.434
X-91.088 Y-59.85
X-90.639 Y-59.255
X-90.205 Y-58.649
X-89.784 Y-58.034
X-89.378 Y-57.41
X-88.987 Y-56.776
X-88.61 Y-56.133
X-88.248 Y-55.481
X-87.902 Y-54.822
X-87.57 Y-54.154
X-87.255 Y-53.48
X-86.954 Y-52.798
X-86.67 Y-52.109
X-86.402 Y-51.414
X-86.149 Y-50.713
X-85.913 Y-50.006
X-85.694 Y-49.294
X-85.491 Y-48.578
X-85.304 Y-47.856
X-85.134 Y-47.131
X-84.981 Y-46.402
X-84.845 Y-45.669
X-84.726 Y-44.934
X-84.624 Y-44.196
X-84.539 Y-43.455
X-84.47 Y-42.713
X-84.419 Y-41.97
X-84.385 Y-41.226
X-84.369 Y-40.481
Y-39.736
X-84.387 Y-38.991
X-84.422 Y-38.247
X-84.474 Y-37.504
X-84.543 Y-36.762
X-84.629 Y-36.022
X-84.732 Y-35.284
X-84.852 Y-34.548
X-84.989 Y-33.816
X-85.143 Y-33.087
X-85.314 Y-32.362
X-85.502 Y-31.641
X-85.706 Y-30.924
X-85.927 Y-30.213
X-86.164 Y-29.506
X-86.417 Y-28.806
X-86.686 Y-28.111
X-86.971 Y-27.423
X-87.272 Y-26.741
X-87.589 Y-26.067
X-87.921 Y-25.4
X-88.269 Y-24.741
X-88.631 Y-24.09
X-89.009 Y-23.448
X-89.401 Y-22.814
X-89.808 Y-22.19
X-90.229 Y-21.575
X-90.665 Y-20.971
X-91.114 Y-20.376
X-91.576 Y-19.792
X-92.052 Y-19.219
X-92.541 Y-18.657
X-93.043 Y-18.106
X-93.557 Y-17.567
X-94.084 Y-17.04
X-94.623 Y-16.525
X-95.173 Y-16.023
X-95.735 Y-15.534
X-96.308 Y-15.057
X-96.892 Y-14.595
X-97.486 Y-14.145
X-98.091 Y-13.71
X-98.705 Y-13.289
X-99.33 Y-12.882
X-99.963 Y-12.489
X-100.605 Y-12.112
X-101.256 Y-11.749
X-101.915 Y-11.401
X-102.581 Y-11.068
X-103.255 Y-10.751
X-103.937 Y-10.449
X-104.625 Y-10.164
X-105.319 Y-9.894
X-106.02 Y-9.64
X-106.726 Y-9.403
X-107.438 Y-9.182
X-108.154 Y-8.977
X-108.875 Y-8.789
X-109.6 Y-8.618
X-110.329 Y-8.463
X-111.061 Y-8.325
X-111.796 Y-8.203
X-112.534 Y-8.099
X-113.274 Y-8.012
X-114.015 Y-7.941
X-114.759 Y-7.888
X-115.503 Y-7.851
X-116.248 Y-7.832
X-116.993 Y-7.83
X-117.738 Y-7.845
X-118.482 Y-7.877
X-119.225 Y-7.926
X-119.968 Y-7.992
X-120.708 Y-8.075
X-121.446 Y-8.175
X-122.182 Y-8.292
X-122.915 Y-8.426
X-123.645 Y-8.576
X-124.371 Y-8.744
X-125.093 Y-8.927
X-125.811 Y-9.127
X-126.524 Y-9.344
X-127.231 Y-9.576
X-127.934 Y-9.825
X-128.63 Y-10.09
X-129.32 Y-10.37
X-130.004 Y-10.667
X-130.68 Y-10.979
X-131.35 Y-11.306
X-132.011 Y-11.649
X-132.665 Y-12.007
X-133.31 Y-12.379
X-133.947 Y-12.766
X-134.574 Y-13.168
X-135.193 Y-13.584
X-135.801 Y-14.014
X-136.4 Y-14.457
X-136.988 Y-14.914
X-137.566 Y-15.385
X-138.133 Y-15.868
X-138.688 Y-16.365
X-139.232 Y-16.874
X-139.765 Y-17.395
X-140.285 Y-17.928
X-140.793 Y-18.473
X-141.289 Y-19.029
X-141.771 Y-19.597
X-142.241 Y-20.175
X-142.697 Y-20.764
X-143.14 Y-21.364
X-143.569 Y-21.973
X-143.984 Y-22.591
X-144.385 Y-23.219
X-144.772 Y-23.856
X-145.144 Y-24.502
X-145.501 Y-25.156
X-145.843 Y-25.817
X-146.17 Y-26.487
X-146.482 Y-27.164
X-146.778 Y-27.847
X-147.059 Y-28.538
X-147.324 Y-29.234
X-147.573 Y-29.936
X-147.805 Y-30.644
X-148.022 Y-31.357
