%
(1001)
(wood-rev2-noholes-top0)
(T5  D=3.175 CR=0 - ZMIN=-10.5 - flat end mill)
G90
G17
G21
G28 G91 Z0
G90

(2D Adaptive4 2)
M9
T5 M6
S16000 M3
G54
M9
G0 X-58.437 Y-42.006
Z15.24
Z5.08
Z2.858
G1 Z2.54 F5080
G3 X-58.613 Y-38.994 Z2.375 I-0.088 J1.506
X-58.437 Y-42.006 Z2.209 I0.088 J-1.506
X-58.613 Y-38.994 Z2.044 I-0.088 J1.506
X-58.437 Y-42.006 Z1.878 I0.088 J-1.506
X-58.613 Y-38.994 Z1.713 I-0.088 J1.506
X-58.437 Y-42.006 Z1.547 I0.088 J-1.506
X-58.613 Y-38.994 Z1.382 I-0.088 J1.506
X-58.437 Y-42.006 Z1.216 I0.088 J-1.506
X-58.613 Y-38.994 Z1.051 I-0.088 J1.506
X-58.437 Y-42.006 Z0.885 I0.088 J-1.506
X-58.613 Y-38.994 Z0.72 I-0.088 J1.506
X-58.437 Y-42.006 Z0.555 I0.088 J-1.506
X-58.613 Y-38.994 Z0.389 I-0.088 J1.506
X-58.437 Y-42.006 Z0.224 I0.088 J-1.506
X-58.613 Y-38.994 Z0.058 I-0.088 J1.506
X-58.437 Y-42.006 Z-0.107 I0.088 J-1.506
X-58.613 Y-38.994 Z-0.273 I-0.088 J1.506
X-58.437 Y-42.006 Z-0.438 I0.088 J-1.506
X-58.613 Y-38.994 Z-0.604 I-0.088 J1.506
X-58.437 Y-42.006 Z-0.769 I0.088 J-1.506
X-58.613 Y-38.994 Z-0.934 I-0.088 J1.506
X-58.437 Y-42.006 Z-1.1 I0.088 J-1.506
X-58.613 Y-38.994 Z-1.265 I-0.088 J1.506
X-58.437 Y-42.006 Z-1.431 I0.088 J-1.506
X-58.613 Y-38.994 Z-1.596 I-0.088 J1.506
X-58.437 Y-42.006 Z-1.762 I0.088 J-1.506
X-58.613 Y-38.994 Z-1.927 I-0.088 J1.506
X-58.437 Y-42.006 Z-2.093 I0.088 J-1.506
X-58.613 Y-38.994 Z-2.258 I-0.088 J1.506
X-58.437 Y-42.006 Z-2.424 I0.088 J-1.506
X-58.613 Y-38.994 Z-2.589 I-0.088 J1.506
X-58.437 Y-42.006 Z-2.754 I0.088 J-1.506
X-58.613 Y-38.994 Z-2.92 I-0.088 J1.506
X-58.437 Y-42.006 Z-3.085 I0.088 J-1.506
X-57.017 Y-40.5 Z-3.165 I-0.088 J1.506
X-60.033 I-1.508 J0
X-57.017 I1.508 J0
G1 X-56.998 Y-39.755
X-56.976 Y-39.665
X-56.962 Y-39.513
X-56.977 Y-39.361
X-57.015 Y-39.213
X-57.072 Y-39.072
X-57.147 Y-38.939
X-57.236 Y-38.816
X-57.337 Y-38.702
X-57.449 Y-38.599
X-57.571 Y-38.507
X-57.7 Y-38.425
X-57.835 Y-38.356
X-57.976 Y-38.298
X-58.125 Y-38.25
X-58.28 Y-38.213
X-58.442 Y-38.189
X-58.608 Y-38.177
X-58.777 Y-38.179
X-58.948 Y-38.194
X-59.12 Y-38.224
X-59.291 Y-38.268
X-59.46 Y-38.326
X-59.626 Y-38.398
X-59.786 Y-38.484
X-59.94 Y-38.583
X-60.087 Y-38.695
X-60.225 Y-38.82
X-60.353 Y-38.956
X-60.471 Y-39.102
X-60.577 Y-39.258
X-60.67 Y-39.422
X-60.75 Y-39.594
X-60.816 Y-39.772
X-60.868 Y-39.956
X-60.905 Y-40.143
X-60.927 Y-40.334
X-60.934 Y-40.525
X-60.925 Y-40.717
X-60.9 Y-40.908
X-60.861 Y-41.096
X-60.806 Y-41.281
X-60.737 Y-41.461
X-60.654 Y-41.635
X-60.556 Y-41.802
X-60.446 Y-41.961
X-60.323 Y-42.11
X-60.188 Y-42.249
X-60.043 Y-42.377
X-59.888 Y-42.492
X-59.724 Y-42.595
X-59.552 Y-42.685
X-59.374 Y-42.76
X-59.19 Y-42.821
X-59.002 Y-42.867
X-58.81 Y-42.898
X-58.617 Y-42.913
X-58.423 Y-42.912
X-58.23 Y-42.896
X-58.039 Y-42.865
X-57.851 Y-42.819
X-57.667 Y-42.757
X-57.488 Y-42.681
X-57.317 Y-42.591
X-57.153 Y-42.487
X-56.998 Y-42.37
X-56.853 Y-42.242
X-56.718 Y-42.102
X-56.595 Y-41.952
X-56.485 Y-41.792
X-56.38 Y-41.611
X-56.267 Y-41.373
X-56.116 Y-40.976
X-56.023 Y-40.656
X-55.967 Y-40.385
X-55.936 Y-40.135
X-55.926 Y-39.899
X-55.934 Y-39.677
X-55.959 Y-39.465
X-56.001 Y-39.26
X-56.058 Y-39.06
X-56.131 Y-38.864
X-56.22 Y-38.675
X-56.324 Y-38.494
X-56.443 Y-38.321
X-56.576 Y-38.157
X-56.723 Y-38.002
X-56.884 Y-37.858
X-57.059 Y-37.725
X-57.246 Y-37.605
X-57.445 Y-37.5
X-57.656 Y-37.409
X-57.876 Y-37.334
X-58.104 Y-37.276
X-58.34 Y-37.236
X-58.581 Y-37.215
X-58.826 Y-37.214
X-59.072 Y-37.232
X-59.319 Y-37.27
X-59.564 Y-37.329
X-59.806 Y-37.408
X-60.042 Y-37.506
X-60.271 Y-37.624
X-60.492 Y-37.761
X-60.702 Y-37.917
X-60.9 Y-38.089
X-61.084 Y-38.278
X-61.254 Y-38.482
X-61.407 Y-38.699
X-61.542 Y-38.93
X-61.66 Y-39.171
X-61.758 Y-39.421
X-61.835 Y-39.68
X-61.892 Y-39.944
X-61.927 Y-40.213
X-61.941 Y-40.484
X-61.933 Y-40.756
X-61.903 Y-41.026
X-61.851 Y-41.294
X-61.778 Y-41.557
X-61.684 Y-41.814
X-61.57 Y-42.062
X-61.436 Y-42.301
X-61.283 Y-42.528
X-61.112 Y-42.743
X-60.925 Y-42.943
X-60.722 Y-43.128
X-60.504 Y-43.295
X-60.274 Y-43.445
X-60.033 Y-43.576
X-59.781 Y-43.687
X-59.522 Y-43.778
X-59.256 Y-43.847
X-58.985 Y-43.895
X-58.711 Y-43.921
X-58.436 Y-43.926
X-58.162 Y-43.907
X-57.89 Y-43.867
X-57.622 Y-43.806
X-57.359 Y-43.723
X-57.105 Y-43.619
X-56.859 Y-43.495
X-56.624 Y-43.351
X-56.401 Y-43.19
X-56.19 Y-43.009
X-55.985 Y-42.802
X-55.77 Y-42.548
X-55.572 Y-42.271
X-55.39 Y-41.968
X-55.232 Y-41.649
X-55.102 Y-41.324
X-55.001 Y-40.998
X-54.928 Y-40.674
X-54.884 Y-40.355
X-54.865 Y-40.039
X-54.872 Y-39.728
X-54.903 Y-39.422
X-54.958 Y-39.122
X-55.037 Y-38.83
X-55.138 Y-38.546
X-55.261 Y-38.273
X-55.406 Y-38.01
X-55.571 Y-37.759
X-55.757 Y-37.522
X-55.962 Y-37.299
X-56.186 Y-37.092
X-56.428 Y-36.903
X-56.686 Y-36.732
X-56.959 Y-36.581
X-57.245 Y-36.451
X-57.544 Y-36.344
X-57.853 Y-36.261
X-58.171 Y-36.202
X-58.495 Y-36.168
X-58.823 Y-36.161
X-59.153 Y-36.18
X-59.482 Y-36.225
X-59.809 Y-36.298
X-60.132 Y-36.397
X-60.447 Y-36.523
X-60.753 Y-36.674
X-61.047 Y-36.85
X-61.328 Y-37.05
X-61.593 Y-37.274
X-61.84 Y-37.519
X-62.068 Y-37.784
X-62.274 Y-38.067
X-62.458 Y-38.367
X-62.618 Y-38.682
X-62.752 Y-39.01
X-62.859 Y-39.349
X-62.94 Y-39.695
X-62.992 Y-40.048
X-63.016 Y-40.404
X-63.011 Y-40.762
X-62.978 Y-41.119
X-62.916 Y-41.472
X-62.826 Y-41.82
X-62.708 Y-42.159
X-62.563 Y-42.488
X-62.391 Y-42.805
X-62.195 Y-43.107
X-61.975 Y-43.393
X-61.733 Y-43.66
X-61.47 Y-43.908
X-61.188 Y-44.133
X-60.889 Y-44.335
X-60.574 Y-44.512
X-60.246 Y-44.664
X-59.907 Y-44.788
X-59.558 Y-44.886
X-59.203 Y-44.955
X-58.844 Y-44.995
X-58.483 Y-45.006
X-58.121 Y-44.988
X-57.763 Y-44.941
X-57.409 Y-44.866
X-57.062 Y-44.762
X-56.725 Y-44.631
X-56.398 Y-44.473
X-56.082 Y-44.288
X-55.772 Y-44.07
X-55.471 Y-43.821
X-55.182 Y-43.539
X-54.91 Y-43.228
X-54.661 Y-42.891
X-54.437 Y-42.533
X-54.243 Y-42.158
X-54.081 Y-41.771
X-53.952 Y-41.376
X-53.855 Y-40.975
X-53.792 Y-40.571
X-53.762 Y-40.167
X-53.764 Y-39.766
X-53.798 Y-39.369
X-53.863 Y-38.978
X-53.959 Y-38.596
X-54.085 Y-38.224
X-54.24 Y-37.864
X-54.423 Y-37.517
X-54.634 Y-37.187
X-54.871 Y-36.874
X-55.133 Y-36.58
X-55.419 Y-36.307
X-55.727 Y-36.056
X-56.056 Y-35.83
X-56.404 Y-35.63
X-56.77 Y-35.458
X-57.15 Y-35.314
X-57.543 Y-35.201
X-57.946 Y-35.12
X-58.357 Y-35.07
X-58.773 Y-35.054
X-59.191 Y-35.071
X-59.609 Y-35.122
X-60.024 Y-35.207
X-60.433 Y-35.325
X-60.833 Y-35.477
X-61.221 Y-35.661
X-61.595 Y-35.877
X-61.952 Y-36.123
X-62.289 Y-36.398
X-62.605 Y-36.7
X-62.896 Y-37.027
X-63.16 Y-37.379
X-63.397 Y-37.751
X-63.603 Y-38.142
X-63.778 Y-38.549
X-63.919 Y-38.97
X-64.027 Y-39.402
X-64.1 Y-39.842
X-64.137 Y-40.288
X-64.139 Y-40.735
X-64.104 Y-41.182
X-64.034 Y-41.625
X-63.928 Y-42.061
X-63.787 Y-42.488
X-63.613 Y-42.903
X-63.405 Y-43.302
X-63.167 Y-43.684
X-62.898 Y-44.046
X-62.6 Y-44.385
X-62.277 Y-44.699
X-61.928 Y-44.986
X-61.558 Y-45.245
X-61.169 Y-45.473
X-60.762 Y-45.669
X-60.34 Y-45.832
X-59.907 Y-45.961
X-59.465 Y-46.054
X-59.016 Y-46.112
X-58.565 Y-46.134
X-58.113 Y-46.119
X-57.663 Y-46.068
X-57.219 Y-45.981
X-56.783 Y-45.858
X-56.355 Y-45.7
X-55.937 Y-45.506
X-55.531 Y-45.276
X-55.139 Y-45.011
X-54.762 Y-44.709
X-54.404 Y-44.371
X-54.069 Y-44.001
X-53.763 Y-43.601
X-53.488 Y-43.176
X-53.248 Y-42.73
X-53.045 Y-42.267
X-52.88 Y-41.79
X-52.755 Y-41.304
X-52.67 Y-40.813
X-52.624 Y-40.318
X-52.618 Y-39.825
X-52.652 Y-39.335
X-52.725 Y-38.851
X-52.836 Y-38.376
X-52.984 Y-37.913
X-53.169 Y-37.465
X-53.388 Y-37.032
X-53.642 Y-36.619
X-53.929 Y-36.227
X-54.247 Y-35.859
X-54.594 Y-35.516
X-54.969 Y-35.201
X-55.369 Y-34.916
X-55.793 Y-34.664
X-56.238 Y-34.445
X-56.701 Y-34.261
X-57.18 Y-34.115
X-57.671 Y-34.007
X-58.171 Y-33.938
X-58.678 Y-33.91
X-59.188 Y-33.922
X-59.698 Y-33.976
X-60.204 Y-34.071
X-60.703 Y-34.207
X-61.191 Y-34.383
X-61.666 Y-34.598
X-62.123 Y-34.852
X-62.56 Y-35.143
X-62.974 Y-35.469
X-63.362 Y-35.828
X-63.72 Y-36.219
X-64.047 Y-36.638
X-64.34 Y-37.083
X-64.597 Y-37.551
X-64.816 Y-38.04
X-64.996 Y-38.545
X-65.134 Y-39.064
X-65.231 Y-39.594
X-65.284 Y-40.13
X-65.295 Y-40.67
X-65.262 Y-41.209
X-65.186 Y-41.745
X-65.067 Y-42.273
X-64.906 Y-42.79
X-64.704 Y-43.294
X-64.462 Y-43.779
X-64.182 Y-44.244
X-63.865 Y-44.686
X-63.513 Y-45.1
X-63.129 Y-45.485
X-62.715 Y-45.839
X-62.275 Y-46.158
X-61.809 Y-46.44
X-61.323 Y-46.685
X-60.818 Y-46.89
X-60.299 Y-47.053
X-59.767 Y-47.174
X-59.228 Y-47.253
X-58.684 Y-47.288
X-58.139 Y-47.279
X-57.597 Y-47.226
X-57.059 Y-47.13
X-56.528 Y-46.99
X-56.007 Y-46.807
X-55.498 Y-46.581
X-55.004 Y-46.312
X-54.527 Y-46
X-54.071 Y-45.647
X-53.64 Y-45.254
X-53.238 Y-44.824
X-52.87 Y-44.36
X-52.539 Y-43.866
X-52.248 Y-43.346
X-52 Y-42.804
X-51.796 Y-42.245
X-51.639 Y-41.673
X-51.528 Y-41.092
X-51.464 Y-40.506
X-51.448 Y-39.918
X-51.478 Y-39.334
X-51.556 Y-38.755
X-51.679 Y-38.186
X-51.847 Y-37.63
X-52.059 Y-37.09
X-52.313 Y-36.568
X-52.609 Y-36.069
X-52.943 Y-35.595
X-53.316 Y-35.149
X-53.724 Y-34.733
X-54.165 Y-34.35
X-54.636 Y-34.002
X-55.136 Y-33.693
X-55.661 Y-33.424
X-56.207 Y-33.197
X-56.773 Y-33.014
X-57.353 Y-32.876
X-57.945 Y-32.785
X-58.545 Y-32.742
X-59.149 Y-32.747
X-59.752 Y-32.8
X-60.352 Y-32.902
X-60.944 Y-33.053
X-61.524 Y-33.251
X-62.088 Y-33.496
X-62.632 Y-33.787
X-63.153 Y-34.121
X-63.647 Y-34.497
X-64.11 Y-34.913
X-64.54 Y-35.365
X-64.932 Y-35.852
X-65.286 Y-36.37
X-65.597 Y-36.916
X-65.864 Y-37.486
X-66.084 Y-38.076
X-66.257 Y-38.684
X-66.381 Y-39.304
X-66.454 Y-39.933
X-66.477 Y-40.567
X-66.449 Y-41.201
X-66.37 Y-41.832
X-66.241 Y-42.454
X-66.062 Y-43.065
X-65.834 Y-43.66
X-65.559 Y-44.235
X-65.239 Y-44.786
X-64.875 Y-45.311
X-64.47 Y-45.804
X-64.027 Y-46.264
X-63.548 Y-46.687
X-63.037 Y-47.07
X-62.496 Y-47.411
X-61.929 Y-47.707
X-61.341 Y-47.957
X-60.734 Y-48.159
X-60.113 Y-48.312
X-59.481 Y-48.415
X-58.843 Y-48.466
X-58.203
X-57.563 Y-48.415
X-56.928 Y-48.312
X-56.301 Y-48.158
X-55.684 Y-47.952
X-55.082 Y-47.697
X-54.497 Y-47.391
X-53.934 Y-47.036
X-53.397 Y-46.634
X-52.89 Y-46.187
X-52.418 Y-45.697
X-51.984 Y-45.168
X-51.592 Y-44.604
X-51.246 Y-44.008
X-50.949 Y-43.386
X-50.702 Y-42.743
X-50.509 Y-42.083
X-50.369 Y-41.41
X-50.283 Y-40.73
X-50.253 Y-40.048
X-50.278 Y-39.366
X-50.357 Y-38.691
X-50.489 Y-38.025
X-50.674 Y-37.373
X-50.911 Y-36.739
X-51.198 Y-36.126
X-51.533 Y-35.538
X-51.915 Y-34.979
X-52.34 Y-34.451
X-52.807 Y-33.959
X-53.314 Y-33.504
X-53.856 Y-33.091
X-54.431 Y-32.722
X-55.036 Y-32.399
X-55.667 Y-32.125
X-56.319 Y-31.901
X-56.99 Y-31.731
X-57.674 Y-31.614
X-58.368 Y-31.552
X-59.068 Y-31.546
X-59.767 Y-31.597
X-60.463 Y-31.704
X-61.15 Y-31.866
X-61.824 Y-32.085
X-62.48 Y-32.357
X-63.114 Y-32.682
X-63.721 Y-33.058
X-64.298 Y-33.483
X-64.841 Y-33.953
X-65.345 Y-34.467
X-65.807 Y-35.021
X-66.224 Y-35.611
X-66.593 Y-36.234
X-66.911 Y-36.886
X-67.177 Y-37.562
X-67.387 Y-38.259
X-67.541 Y-38.971
X-67.638 Y-39.694
X-67.677 Y-40.423
X-67.656 Y-41.154
X-67.577 Y-41.881
X-67.44 Y-42.6
X-67.246 Y-43.307
X-66.995 Y-43.996
X-66.689 Y-44.663
X-66.331 Y-45.303
X-65.922 Y-45.914
X-65.466 Y-46.489
X-64.965 Y-47.027
X-64.421 Y-47.522
X-63.84 Y-47.973
X-63.224 Y-48.375
X-62.578 Y-48.727
X-61.906 Y-49.026
X-61.211 Y-49.27
X-60.5 Y-49.457
X-59.775 Y-49.587
X-59.042 Y-49.658
X-58.305 Y-49.67
X-57.568 Y-49.623
X-56.835 Y-49.517
X-56.111 Y-49.352
X-55.4 Y-49.128
X-54.71 Y-48.848
X-54.044 Y-48.514
X-53.406 Y-48.129
X-52.801 Y-47.695
X-52.231 Y-47.215
X-51.7 Y-46.692
X-51.211 Y-46.13
X-50.766 Y-45.532
X-50.368 Y-44.902
X-50.02 Y-44.244
X-49.722 Y-43.561
X-49.477 Y-42.857
X-49.286 Y-42.137
X-49.151 Y-41.404
X-49.072 Y-40.663
X-49.05 Y-39.918
X-49.085 Y-39.174
X-49.177 Y-38.435
X-49.326 Y-37.705
X-49.531 Y-36.989
X-49.791 Y-36.29
X-50.105 Y-35.615
X-50.47 Y-34.965
X-50.884 Y-34.346
X-51.345 Y-33.761
X-51.85 Y-33.213
X-52.396 Y-32.705
X-52.978 Y-32.241
X-53.595 Y-31.823
X-54.242 Y-31.453
X-54.915 Y-31.134
X-55.611 Y-30.867
X-56.325 Y-30.653
X-57.052 Y-30.494
X-57.79 Y-30.39
X-58.534 Y-30.342
X-59.279 Y-30.35
X-60.021 Y-30.413
X-60.757 Y-30.531
X-61.481 Y-30.705
X-62.191 Y-30.933
X-62.881 Y-31.213
X-63.548 Y-31.545
X-64.189 Y-31.924
X-64.801 Y-32.349
X-65.38 Y-32.818
X-65.923 Y-33.328
X-66.428 Y-33.876
X-66.892 Y-34.459
X-67.313 Y-35.074
X-67.687 Y-35.718
X-68.013 Y-36.388
X-68.288 Y-37.081
X-68.511 Y-37.792
X-68.683 Y-38.517
X-68.801 Y-39.252
X-68.867 Y-39.994
X-68.88 Y-40.739
X-68.839 Y-41.483
X-68.745 Y-42.222
X-68.599 Y-42.953
X-68.399 Y-43.671
X-68.146 Y-44.372
X-67.843 Y-45.052
X-67.492 Y-45.71
X-67.095 Y-46.34
X-66.655 Y-46.941
X-66.172 Y-47.509
X-65.651 Y-48.041
X-65.093 Y-48.534
X-64.501 Y-48.987
X-63.877 Y-49.394
X-63.225 Y-49.754
X-62.548 Y-50.066
X-61.851 Y-50.33
X-61.137 Y-50.543
X-60.41 Y-50.705
X-59.673 Y-50.814
X-58.93 Y-50.872
X-58.185 Y-50.877
X-57.442 Y-50.827
X-56.704 Y-50.722
X-55.976 Y-50.564
X-55.261 Y-50.355
X-54.562 Y-50.097
X-53.883 Y-49.791
X-53.226 Y-49.438
X-52.596 Y-49.041
X-51.994 Y-48.601
X-51.426 Y-48.12
X-50.892 Y-47.6
X-50.396 Y-47.044
X-49.939 Y-46.456
X-49.522 Y-45.838
X-49.148 Y-45.194
X-48.817 Y-44.526
X-48.532 Y-43.838
X-48.293 Y-43.132
X-48.105 Y-42.411
X-47.967 Y-41.679
X-47.88 Y-40.939
X-47.842 Y-40.195
X-47.855 Y-39.45
X-47.919 Y-38.708
X-48.032 Y-37.971
X-48.195 Y-37.244
X-48.407 Y-36.53
X-48.669 Y-35.832
X-48.98 Y-35.155
X-49.337 Y-34.502
X-49.739 Y-33.874
X-50.182 Y-33.275
X-50.664 Y-32.707
X-51.184 Y-32.173
X-51.739 Y-31.676
X-52.326 Y-31.217
X-52.944 Y-30.801
X-53.589 Y-30.428
X-54.258 Y-30.101
X-54.948 Y-29.82
X-55.655 Y-29.585
X-56.377 Y-29.398
X-57.109 Y-29.259
X-57.848 Y-29.169
X-58.592 Y-29.128
X-59.337 Y-29.138
X-60.08 Y-29.199
X-60.816 Y-29.31
X-61.544 Y-29.47
X-62.259 Y-29.678
X-62.959 Y-29.933
X-63.641 Y-30.233
X-64.302 Y-30.578
X-64.939 Y-30.964
X-65.549 Y-31.392
X-66.129 Y-31.86
X-66.676 Y-32.366
X-67.189 Y-32.906
X-67.667 Y-33.477
X-68.107 Y-34.079
X-68.507 Y-34.707
X-68.866 Y-35.36
X-69.181 Y-36.035
X-69.452 Y-36.729
X-69.674 Y-37.44
X-69.85 Y-38.165
X-69.978 Y-38.899
X-70.058 Y-39.639
X-70.092 Y-40.384
X-70.078 Y-41.128
X-70.017 Y-41.871
X-69.91 Y-42.608
X-69.755 Y-43.337
X-69.552 Y-44.054
X-69.3 Y-44.755
X-69.004 Y-45.439
X-68.664 Y-46.102
X-68.282 Y-46.742
X-67.861 Y-47.356
X-67.402 Y-47.943
X-66.906 Y-48.5
X-66.377 Y-49.024
X-65.816 Y-49.514
X-65.222 Y-49.964
X-64.6 Y-50.374
X-63.953 Y-50.743
X-63.283 Y-51.069
X-62.593 Y-51.351
X-61.887 Y-51.59
X-61.168 Y-51.784
X-60.438 Y-51.932
X-59.7 Y-52.034
X-58.957 Y-52.088
X-58.212 Y-52.093
X-57.468 Y-52.048
X-56.729 Y-51.955
X-55.997 Y-51.815
X-55.275 Y-51.629
X-54.567 Y-51.398
X-53.874 Y-51.124
X-53.2 Y-50.807
X-52.546 Y-50.45
X-51.917 Y-50.051
X-51.314 Y-49.613
X-50.741 Y-49.137
X-50.199 Y-48.626
X-49.689 Y-48.083
X-49.213 Y-47.509
X-48.773 Y-46.908
X-48.369 Y-46.282
X-48.004 Y-45.633
X-47.678 Y-44.963
X-47.394 Y-44.274
X-47.154 Y-43.569
X-46.959 Y-42.849
X-46.809 Y-42.12
X-46.703 Y-41.382
X-46.643 Y-40.64
X-46.627 Y-39.895
X-46.656 Y-39.15
X-46.73 Y-38.409
X-46.849 Y-37.673
X-47.013 Y-36.946
X-47.224 Y-36.232
X-47.48 Y-35.532
X-47.779 Y-34.85
X-48.12 Y-34.187
X-48.5 Y-33.547
X-48.919 Y-32.93
X-49.375 Y-32.341
X-49.865 Y-31.78
X-50.388 Y-31.249
X-50.943 Y-30.753
X-51.529 Y-30.292
X-52.143 Y-29.87
X-52.782 Y-29.486
X-53.442 Y-29.142
X-54.123 Y-28.838
X-54.82 Y-28.576
X-55.532 Y-28.356
X-56.256 Y-28.178
X-56.989 Y-28.044
X-57.728 Y-27.955
X-58.472 Y-27.912
X-59.217 Y-27.916
X-59.961 Y-27.964
X-60.7 Y-28.058
X-61.432 Y-28.195
X-62.155 Y-28.376
X-62.866 Y-28.599
X-63.562 Y-28.864
X-64.242 Y-29.169
X-64.902 Y-29.515
X-65.539 Y-29.9
X-66.152 Y-30.324
X-66.739 Y-30.783
X-67.297 Y-31.277
X-67.826 Y-31.802
X-68.323 Y-32.357
X-68.788 Y-32.939
X-69.217 Y-33.548
X-69.612 Y-34.18
X-69.968 Y-34.835
X-70.283 Y-35.51
X-70.557 Y-36.202
X-70.788 Y-36.911
X-70.978 Y-37.631
X-71.125 Y-38.362
X-71.229 Y-39.099
X-71.291 Y-39.842
X-71.311 Y-40.587
X-71.288 Y-41.331
X-71.223 Y-42.074
X-71.114 Y-42.811
X-70.961 Y-43.54
X-70.763 Y-44.258
X-70.523 Y-44.964
X-70.243 Y-45.654
X-69.922 Y-46.326
X-69.564 Y-46.979
X-69.168 Y-47.611
X-68.738 Y-48.219
X-68.274 Y-48.802
X-67.777 Y-49.357
X-67.248 Y-49.882
X-66.688 Y-50.374
X-66.1 Y-50.831
X-65.486 Y-51.253
X-64.849 Y-51.639
X-64.19 Y-51.987
X-63.512 Y-52.296
X-62.818 Y-52.566
X-62.109 Y-52.797
X-61.389 Y-52.986
X-60.658 Y-53.134
X-59.921 Y-53.238
X-59.178 Y-53.298
X-58.433 Y-53.313
X-57.688 Y-53.285
X-56.947 Y-53.214
X-56.21 Y-53.1
X-55.482 Y-52.945
X-54.763 Y-52.748
X-54.057 Y-52.511
X-53.365 Y-52.235
X-52.69 Y-51.919
X-52.035 Y-51.565
X-51.401 Y-51.173
X-50.791 Y-50.745
X-50.206 Y-50.283
X-49.649 Y-49.789
X-49.119 Y-49.265
X-48.62 Y-48.712
X-48.152 Y-48.132
X-47.715 Y-47.528
X-47.313 Y-46.901
X-46.947 Y-46.252
X-46.618 Y-45.584
X-46.327 Y-44.898
X-46.075 Y-44.197
X-45.862 Y-43.483
X-45.69 Y-42.758
X-45.558 Y-42.025
X-45.467 Y-41.285
X-45.416 Y-40.542
X-45.406 Y-39.797
X-45.437 Y-39.052
X-45.51 Y-38.311
X-45.625 Y-37.575
X-45.781 Y-36.846
X-45.979 Y-36.128
X-46.217 Y-35.422
X-46.495 Y-34.731
X-46.811 Y-34.056
X-47.164 Y-33.4
X-47.552 Y-32.764
X-47.975 Y-32.15
X-48.432 Y-31.562
X-48.921 Y-31
X-49.441 Y-30.466
X-49.99 Y-29.963
X-50.567 Y-29.492
X-51.17 Y-29.054
X-51.796 Y-28.65
X-52.444 Y-28.282
X-53.111 Y-27.949
X-53.795 Y-27.653
X-54.494 Y-27.395
X-55.206 Y-27.176
X-55.929 Y-26.997
X-56.661 Y-26.859
X-57.4 Y-26.761
X-58.143 Y-26.705
X-58.887 Y-26.69
X-59.632 Y-26.715
X-60.374 Y-26.782
X-61.112 Y-26.889
X-61.842 Y-27.035
X-62.564 Y-27.22
X-63.274 Y-27.445
X-63.971 Y-27.709
X-64.652 Y-28.01
X-65.316 Y-28.349
X-65.96 Y-28.723
X-66.583 Y-29.132
X-67.183 Y-29.574
X-67.758 Y-30.048
X-68.307 Y-30.552
X-68.828 Y-31.084
X-69.321 Y-31.642
X-69.784 Y-32.226
X-70.214 Y-32.834
X-70.611 Y-33.465
X-70.973 Y-34.117
X-71.298 Y-34.787
X-71.586 Y-35.474
X-71.837 Y-36.175
X-72.05 Y-36.889
X-72.225 Y-37.614
X-72.361 Y-38.346
X-72.459 Y-39.085
X-72.518 Y-39.828
X-72.537 Y-40.572
X-72.516 Y-41.317
X-72.456 Y-42.06
X-72.355 Y-42.798
X-72.215 Y-43.53
X-72.036 Y-44.253
X-71.817 Y-44.965
X-71.561 Y-45.665
X-71.269 Y-46.35
X-70.941 Y-47.019
X-70.578 Y-47.67
X-70.182 Y-48.301
X-69.752 Y-48.91
X-69.291 Y-49.495
X-68.799 Y-50.055
X-68.278 Y-50.587
X-67.729 Y-51.091
X-67.154 Y-51.565
X-66.554 Y-52.007
X-65.932 Y-52.416
X-65.289 Y-52.793
X-64.627 Y-53.135
X-63.948 Y-53.442
X-63.254 Y-53.712
X-62.546 Y-53.945
X-61.827 Y-54.14
X-61.099 Y-54.296
X-60.363 Y-54.414
X-59.622 Y-54.492
X-58.878 Y-54.53
X-58.133 Y-54.529
X-57.389 Y-54.488
X-56.648 Y-54.409
X-55.912 Y-54.291
X-55.184 Y-54.134
X-54.465 Y-53.939
X-53.757 Y-53.706
X-53.063 Y-53.436
X-52.383 Y-53.131
X-51.721 Y-52.79
X-51.077 Y-52.415
X-50.454 Y-52.007
X-49.852 Y-51.567
X-49.274 Y-51.097
X-48.721 Y-50.597
X-48.194 Y-50.071
X-47.695 Y-49.518
X-47.225 Y-48.94
X-46.785 Y-48.338
X-46.376 Y-47.716
X-45.999 Y-47.073
X-45.656 Y-46.411
X-45.347 Y-45.733
X-45.073 Y-45.04
X-44.835 Y-44.335
X-44.633 Y-43.617
X-44.467 Y-42.891
X-44.338 Y-42.157
X-44.247 Y-41.418
X-44.194 Y-40.675
X-44.179 Y-39.93
X-44.202 Y-39.185
X-44.263 Y-38.442
X-44.362 Y-37.704
X-44.499 Y-36.972
X-44.673 Y-36.247
X-44.885 Y-35.533
X-45.133 Y-34.83
X-45.416 Y-34.141
X-45.734 Y-33.467
X-46.087 Y-32.811
X-46.473 Y-32.174
X-46.892 Y-31.558
X-47.341 Y-30.963
X-47.82 Y-30.393
X-48.328 Y-29.848
X-48.864 Y-29.33
X-49.425 Y-28.84
X-50.011 Y-28.379
X-50.619 Y-27.949
X-51.248 Y-27.55
X-51.897 Y-27.183
X-52.563 Y-26.85
X-53.246 Y-26.552
X-53.943 Y-26.289
X-54.652 Y-26.061
X-55.372 Y-25.869
X-56.101 Y-25.714
X-56.837 Y-25.596
X-57.577 Y-25.516
X-58.321 Y-25.473
X-59.066 Y-25.467
X-59.811 Y-25.498
X-60.553 Y-25.567
X-61.29 Y-25.674
X-62.021 Y-25.817
X-62.744 Y-25.997
X-63.457 Y-26.214
X-64.158 Y-26.466
X-64.846 Y-26.752
X-65.519 Y-27.073
X-66.174 Y-27.426
X-66.812 Y-27.812
X-67.429 Y-28.229
X-68.025 Y-28.676
X-68.599 Y-29.152
X-69.148 Y-29.656
X-69.671 Y-30.186
X-70.167 Y-30.741
X-70.636 Y-31.321
X-71.076 Y-31.922
X-71.485 Y-32.545
X-71.862 Y-33.187
X-72.208 Y-33.847
X-72.52 Y-34.524
X-72.799 Y-35.215
X-73.043 Y-35.919
X-73.253 Y-36.634
X-73.427 Y-37.358
X-73.564 Y-38.09
X-73.666 Y-38.829
X-73.731 Y-39.571
X-73.761 Y-40.315
X-73.754 Y-41.06
X-73.71 Y-41.804
X-73.631 Y-42.545
X-73.514 Y-43.281
X-73.362 Y-44.01
X-73.174 Y-44.731
X-72.951 Y-45.442
X-72.694 Y-46.141
X-72.402 Y-46.827
X-72.077 Y-47.497
X-71.719 Y-48.151
X-71.33 Y-48.786
X-70.911 Y-49.402
X-70.462 Y-49.997
X-69.985 Y-50.569
X-69.48 Y-51.117
X-68.949 Y-51.64
X-68.394 Y-52.136
X-67.814 Y-52.605
X-67.213 Y-53.045
X-66.59 Y-53.454
X-65.948 Y-53.832
X-65.289 Y-54.178
X-64.613 Y-54.492
X-63.922 Y-54.772
X-63.219 Y-55.018
X-62.505 Y-55.23
X-61.781 Y-55.408
X-61.05 Y-55.549
X-60.312 Y-55.655
X-59.571 Y-55.725
X-58.826 Y-55.759
X-58.081 Y-55.757
X-57.337 Y-55.717
X-56.596 Y-55.641
X-55.859 Y-55.528
X-55.129 Y-55.381
X-54.407 Y-55.198
X-53.694 Y-54.98
X-52.993 Y-54.729
X-52.305 Y-54.444
X-51.63 Y-54.127
X-50.972 Y-53.777
X-50.332 Y-53.397
X-49.71 Y-52.986
X-49.109 Y-52.546
X-48.53 Y-52.078
X-47.974 Y-51.582
X-47.442 Y-51.06
X-46.935 Y-50.514
X-46.454 Y-49.944
X-46.001 Y-49.353
X-45.576 Y-48.741
X-45.18 Y-48.11
X-44.814 Y-47.461
X-44.479 Y-46.796
X-44.175 Y-46.115
X-43.903 Y-45.422
X-43.665 Y-44.716
X-43.461 Y-43.999
X-43.291 Y-43.274
X-43.155 Y-42.541
X-43.053 Y-41.803
X-42.987 Y-41.061
X-42.955 Y-40.317
X-42.958 Y-39.572
X-42.996 Y-38.827
X-43.069 Y-38.086
X-43.176 Y-37.349
X-43.318 Y-36.617
X-43.495 Y-35.894
X-43.707 Y-35.179
X-43.952 Y-34.476
X-44.231 Y-33.785
X-44.542 Y-33.108
X-44.885 Y-32.446
X-45.259 Y-31.802
X-45.663 Y-31.176
X-46.096 Y-30.569
X-46.557 Y-29.984
X-47.044 Y-29.421
X-47.558 Y-28.881
X-48.097 Y-28.366
X-48.659 Y-27.877
X-49.244 Y-27.416
X-49.851 Y-26.984
X-50.477 Y-26.58
X-51.121 Y-26.206
X-51.783 Y-25.863
X-52.46 Y-25.551
X-53.15 Y-25.272
X-53.853 Y-25.024
X-54.566 Y-24.809
X-55.289 Y-24.628
X-56.019 Y-24.481
X-56.756 Y-24.367
X-57.497 Y-24.288
X-58.24 Y-24.244
X-58.985 Y-24.236
X-59.73 Y-24.262
X-60.473 Y-24.322
X-61.211 Y-24.418
X-61.945 Y-24.547
X-62.672 Y-24.71
X-63.391 Y-24.907
X-64.1 Y-25.136
X-64.797 Y-25.398
X-65.482 Y-25.691
X-66.153 Y-26.016
X-66.808 Y-26.371
X-67.445 Y-26.756
X-68.064 Y-27.171
X-68.663 Y-27.614
X-69.242 Y-28.084
X-69.798 Y-28.58
X-70.331 Y-29.1
X-70.84 Y-29.644
X-71.324 Y-30.211
X-71.781 Y-30.799
X-72.211 Y-31.407
X-72.614 Y-32.035
X-72.987 Y-32.679
X-73.33 Y-33.341
X-73.643 Y-34.017
X-73.923 Y-34.707
X-74.171 Y-35.41
X-74.388 Y-36.123
X-74.571 Y-36.845
X-74.721 Y-37.575
X-74.839 Y-38.31
X-74.923 Y-39.051
X-74.974 Y-39.794
X-74.991 Y-40.539
X-74.975 Y-41.284
X-74.926 Y-42.027
X-74.843 Y-42.768
X-74.726 Y-43.503
X-74.575 Y-44.233
X-74.39 Y-44.955
X-74.173 Y-45.668
X-73.924 Y-46.37
X-73.643 Y-47.06
X-73.331 Y-47.736
X-72.989 Y-48.398
X-72.617 Y-49.044
X-72.217 Y-49.673
X-71.79 Y-50.283
X-71.335 Y-50.873
X-70.855 Y-51.443
X-70.349 Y-51.99
X-69.819 Y-52.513
X-69.265 Y-53.011
X-68.689 Y-53.484
X-68.092 Y-53.93
X-67.475 Y-54.348
X-66.84 Y-54.737
X-66.188 Y-55.098
X-65.521 Y-55.429
X-64.839 Y-55.73
X-64.145 Y-56
X-63.439 Y-56.239
X-62.723 Y-56.446
X-61.999 Y-56.621
X-61.267 Y-56.762
X-60.53 Y-56.87
X-59.789 Y-56.943
X-59.045 Y-56.984
X-58.3 Y-56.99
X-57.555 Y-56.963
X-56.812 Y-56.902
X-56.073 Y-56.808
X-55.339 Y-56.681
X-54.611 Y-56.521
X-53.892 Y-56.329
X-53.181 Y-56.106
X-52.481 Y-55.851
X-51.793 Y-55.565
X-51.118 Y-55.248
X-50.459 Y-54.901
X-49.816 Y-54.525
X-49.19 Y-54.121
X-48.582 Y-53.69
X-47.995 Y-53.232
X-47.428 Y-52.748
X-46.883 Y-52.24
X-46.361 Y-51.709
X-45.862 Y-51.155
X-45.388 Y-50.58
X-44.939 Y-49.986
X-44.516 Y-49.372
X-44.121 Y-48.741
X-43.753 Y-48.092
X-43.415 Y-47.429
X-43.106 Y-46.751
X-42.827 Y-46.06
X-42.579 Y-45.357
X-42.362 Y-44.645
X-42.175 Y-43.923
X-42.021 Y-43.194
X-41.898 Y-42.459
X-41.807 Y-41.72
X-41.748 Y-40.977
X-41.722 Y-40.233
X-41.727 Y-39.488
X-41.765 Y-38.744
X-41.837 Y-38.002
X-41.941 Y-37.264
X-42.078 Y-36.532
X-42.246 Y-35.806
X-42.447 Y-35.088
X-42.679 Y-34.38
X-42.942 Y-33.683
X-43.235 Y-32.998
X-43.558 Y-32.327
X-43.91 Y-31.67
X-44.29 Y-31.029
X-44.697 Y-30.406
X-45.132 Y-29.8
X-45.592 Y-29.215
X-46.079 Y-28.65
X-46.59 Y-28.108
X-47.124 Y-27.589
X-47.68 Y-27.093
X-48.258 Y-26.623
X-48.856 Y-26.178
X-49.472 Y-25.76
X-50.106 Y-25.369
X-50.757 Y-25.005
X-51.423 Y-24.671
X-52.102 Y-24.365
X-52.794 Y-24.089
X-53.497 Y-23.843
X-54.211 Y-23.628
X-54.933 Y-23.445
X-55.663 Y-23.293
X-56.398 Y-23.173
X-57.138 Y-23.085
X-57.881 Y-23.029
X-58.625 Y-23.005
X-59.37 Y-23.014
X-60.114 Y-23.055
X-60.856 Y-23.127
X-61.594 Y-23.232
X-62.326 Y-23.368
X-63.052 Y-23.535
X-63.77 Y-23.733
X-64.479 Y-23.962
X-65.178 Y-24.222
X-65.864 Y-24.511
X-66.538 Y-24.83
X-67.197 Y-25.177
X-67.84 Y-25.553
X-68.467 Y-25.955
X-69.077 Y-26.384
X-69.667 Y-26.839
X-70.238 Y-27.318
X-70.787 Y-27.82
X-71.316 Y-28.346
X-71.821 Y-28.893
X-72.304 Y-29.461
X-72.761 Y-30.049
X-73.193 Y-30.656
X-73.598 Y-31.281
X-73.977 Y-31.923
X-74.327 Y-32.58
X-74.65 Y-33.252
X-74.943 Y-33.937
X-75.207 Y-34.634
X-75.441 Y-35.341
X-75.645 Y-36.058
X-75.819 Y-36.782
X-75.962 Y-37.513
X-76.075 Y-38.25
X-76.156 Y-38.991
X-76.207 Y-39.734
X-76.226 Y-40.479
X-76.213 Y-41.224
X-76.168 Y-41.967
X-76.093 Y-42.709
X-75.985 Y-43.446
X-75.847 Y-44.178
X-75.678 Y-44.904
X-75.478 Y-45.621
X-75.248 Y-46.33
X-74.989 Y-47.029
X-74.7 Y-47.715
X-74.383 Y-48.39
X-74.038 Y-49.05
X-73.666 Y-49.696
X-73.267 Y-50.325
X-72.841 Y-50.936
X-72.39 Y-51.529
X-71.915 Y-52.103
X-71.416 Y-52.656
X-70.894 Y-53.188
X-70.349 Y-53.697
X-69.784 Y-54.182
X-69.199 Y-54.644
X-68.595 Y-55.08
X-67.974 Y-55.49
X-67.335 Y-55.875
X-66.681 Y-56.232
X-66.013 Y-56.561
X-65.332 Y-56.862
X-64.638 Y-57.134
X-63.933 Y-57.376
X-63.219 Y-57.589
X-62.497 Y-57.772
X-61.767 Y-57.924
X-61.032 Y-58.044
X-60.293 Y-58.134
X-59.55 Y-58.193
X-58.805 Y-58.221
X-58.06 Y-58.217
X-57.316 Y-58.182
X-56.574 Y-58.117
X-55.835 Y-58.02
X-55.101 Y-57.892
X-54.373 Y-57.734
X-53.652 Y-57.545
X-52.94 Y-57.326
X-52.238 Y-57.078
X-51.546 Y-56.801
X-50.867 Y-56.495
X-50.2 Y-56.162
X-49.549 Y-55.801
X-48.912 Y-55.413
X-48.293 Y-54.999
X-47.69 Y-54.561
X-47.107 Y-54.098
X-46.542 Y-53.611
X-45.998 Y-53.102
X-45.476 Y-52.571
X-44.976 Y-52.019
X-44.499 Y-51.446
X-44.045 Y-50.855
X-43.616 Y-50.246
X-43.212 Y-49.62
X-42.834 Y-48.978
X-42.483 Y-48.321
X-42.158 Y-47.65
X-41.861 Y-46.967
X-41.592 Y-46.272
X-41.351 Y-45.567
X-41.139 Y-44.853
X-40.956 Y-44.131
X-40.803 Y-43.402
X-40.679 Y-42.667
X-40.587 Y-41.928
X-40.524 Y-41.185
X-40.491 Y-40.441
X-40.489 Y-39.696
X-40.517 Y-38.951
X-40.575 Y-38.209
X-40.664 Y-37.469
X-40.783 Y-36.733
X-40.932 Y-36.003
X-41.11 Y-35.28
X-41.318 Y-34.564
X-41.555 Y-33.858
X-41.821 Y-33.162
X-42.115 Y-32.477
X-42.437 Y-31.806
X-42.787 Y-31.148
X-43.163 Y-30.505
X-43.565 Y-29.877
X-43.992 Y-29.267
X-44.444 Y-28.675
X-44.92 Y-28.101
X-45.419 Y-27.548
X-45.94 Y-27.015
X-46.483 Y-26.505
X-47.045 Y-26.016
X-47.627 Y-25.551
X-48.228 Y-25.11
X-48.846 Y-24.694
X-49.48 Y-24.303
X-50.13 Y-23.939
X-50.795 Y-23.602
X-51.472 Y-23.292
X-52.162 Y-23.009
X-52.862 Y-22.755
X-53.572 Y-22.529
X-54.29 Y-22.332
X-55.016 Y-22.164
X-55.748 Y-22.026
X-56.486 Y-21.917
X-57.226 Y-21.838
X-57.97 Y-21.789
X-58.715 Y-21.77
X-59.46 Y-21.781
X-60.204 Y-21.822
X-60.945 Y-21.894
X-61.683 Y-21.995
X-62.417 Y-22.126
X-63.144 Y-22.286
X-63.865 Y-22.475
X-64.578 Y-22.694
X-65.281 Y-22.94
X-65.973 Y-23.215
X-66.654 Y-23.517
X-67.323 Y-23.846
X-67.978 Y-24.201
X-68.618 Y-24.582
X-69.242 Y-24.989
X-69.85 Y-25.419
X-70.441 Y-25.874
X-71.012 Y-26.352
X-71.564 Y-26.853
X-72.095 Y-27.375
X-72.606 Y-27.918
X-73.095 Y-28.48
X-73.561 Y-29.061
X-74.003 Y-29.661
X-74.422 Y-30.277
X-74.815 Y-30.91
X-75.183 Y-31.557
X-75.526 Y-32.219
X-75.841 Y-32.894
X-76.13 Y-33.581
X-76.392 Y-34.279
X-76.625 Y-34.986
X-76.83 Y-35.702
X-77.006 Y-36.426
X-77.154 Y-37.157
X-77.272 Y-37.892
X-77.362 Y-38.632
X-77.423 Y-39.374
X-77.454 Y-40.119
X-77.456 Y-40.864
X-77.429 Y-41.609
X-77.373 Y-42.351
X-77.287 Y-43.092
X-77.172 Y-43.828
X-77.028 Y-44.559
X-76.856 Y-45.284
X-76.655 Y-46.001
X-76.425 Y-46.71
X-76.168 Y-47.409
X-75.882 Y-48.097
X-75.571 Y-48.774
X-75.232 Y-49.438
X-74.869 Y-50.088
X-74.479 Y-50.723
X-74.066 Y-51.343
X-73.628 Y-51.946
X-73.167 Y-52.531
X-72.683 Y-53.098
X-72.178 Y-53.645
X-71.651 Y-54.173
X-71.104 Y-54.679
X-70.538 Y-55.163
X-69.953 Y-55.624
X-69.35 Y-56.061
X-68.73 Y-56.474
X-68.094 Y-56.863
X-67.444 Y-57.226
X-66.779 Y-57.564
X-66.102 Y-57.875
X-65.414 Y-58.159
X-64.714 Y-58.416
X-64.006 Y-58.646
X-63.288 Y-58.848
X-62.564 Y-59.021
X-61.833 Y-59.166
X-61.097 Y-59.283
X-60.357 Y-59.37
X-59.614 Y-59.428
X-58.87 Y-59.457
X-58.125 Y-59.455
X-57.38 Y-59.425
X-56.638 Y-59.365
X-55.898 Y-59.277
X-55.162 Y-59.159
X-54.432 Y-59.013
X-53.707 Y-58.839
X-52.99 Y-58.636
X-52.282 Y-58.406
X-51.582 Y-58.149
X-50.894 Y-57.864
X-50.217 Y-57.553
X-49.552 Y-57.217
X-48.901 Y-56.855
X-48.264 Y-56.467
X-47.644 Y-56.055
X-47.04 Y-55.619
X-46.453 Y-55.16
X-45.884 Y-54.679
X-45.334 Y-54.176
X-44.803 Y-53.653
X-44.293 Y-53.11
X-43.805 Y-52.548
X-43.337 Y-51.967
X-42.893 Y-51.369
X-42.471 Y-50.755
X-42.073 Y-50.125
X-41.699 Y-49.481
X-41.35 Y-48.823
X-41.026 Y-48.152
X-40.729 Y-47.468
X-40.458 Y-46.774
X-40.214 Y-46.07
X-39.996 Y-45.358
X-39.806 Y-44.637
X-39.644 Y-43.91
X-39.509 Y-43.177
X-39.403 Y-42.44
X-39.324 Y-41.699
X-39.274 Y-40.956
X-39.252 Y-40.211
X-39.258 Y-39.466
X-39.293 Y-38.722
X-39.356 Y-37.979
X-39.447 Y-37.24
X-39.567 Y-36.504
X-39.715 Y-35.774
X-39.891 Y-35.05
X-40.095 Y-34.334
X-40.327 Y-33.626
X-40.585 Y-32.927
X-40.87 Y-32.238
X-41.181 Y-31.561
X-41.518 Y-30.897
X-41.88 Y-30.246
X-42.266 Y-29.609
X-42.677 Y-28.987
X-43.111 Y-28.381
X-43.568 Y-27.793
X-44.047 Y-27.222
X-44.547 Y-26.67
X-45.068 Y-26.137
X-45.61 Y-25.626
X-46.171 Y-25.135
X-46.75 Y-24.667
X-47.347 Y-24.22
X-47.96 Y-23.797
X-48.589 Y-23.398
X-49.232 Y-23.023
X-49.89 Y-22.672
X-50.56 Y-22.347
X-51.243 Y-22.048
X-51.936 Y-21.774
X-52.638 Y-21.527
X-53.35 Y-21.306
X-54.07 Y-21.113
X-54.796 Y-20.946
X-55.528 Y-20.808
X-56.265 Y-20.698
X-57.005 Y-20.616
X-57.748 Y-20.562
X-58.493 Y-20.536
X-59.238 Y-20.539
X-59.983 Y-20.569
X-60.725 Y-20.628
X-61.465 Y-20.715
X-62.202 Y-20.829
X-62.933 Y-20.971
X-63.658 Y-21.141
X-64.377 Y-21.337
X-65.088 Y-21.56
X-65.79 Y-21.81
X-66.482 Y-22.086
X-67.163 Y-22.388
X-67.832 Y-22.716
X-68.489 Y-23.068
X-69.131 Y-23.445
X-69.759 Y-23.846
X-70.372 Y-24.27
X-70.968 Y-24.717
X-71.548 Y-25.185
X-72.109 Y-25.675
X-72.652 Y-26.185
X-73.176 Y-26.715
X-73.679 Y-27.264
X-74.162 Y-27.832
X-74.624 Y-28.416
X-75.064 Y-29.018
X-75.481 Y-29.635
X-75.874 Y-30.268
X-76.244 Y-30.915
X-76.588 Y-31.576
X-76.908 Y-32.249
X-77.203 Y-32.933
X-77.472 Y-33.628
X-77.714 Y-34.332
X-77.931 Y-35.045
X-78.121 Y-35.765
X-78.284 Y-36.492
X-78.42 Y-37.225
X-78.529 Y-37.962
X-78.611 Y-38.703
X-78.666 Y-39.446
X-78.693 Y-40.19
Y-40.935
X-78.666 Y-41.68
X-78.61 Y-42.423
X-78.527 Y-43.163
X-78.416 Y-43.9
X-78.277 Y-44.632
X-78.112 Y-45.359
X-77.92 Y-46.078
X-77.702 Y-46.791
X-77.457 Y-47.494
X-77.186 Y-48.188
X-76.89 Y-48.872
X-76.569 Y-49.545
X-76.223 Y-50.205
X-75.854 Y-50.852
X-75.461 Y-51.485
X-75.045 Y-52.103
X-74.607 Y-52.705
X-74.146 Y-53.291
X-73.664 Y-53.859
X-73.161 Y-54.409
X-72.638 Y-54.939
X-72.096 Y-55.45
X-71.535 Y-55.941
X-70.957 Y-56.411
X-70.361 Y-56.859
X-69.75 Y-57.284
X-69.123 Y-57.687
X-68.481 Y-58.066
X-67.827 Y-58.422
X-67.159 Y-58.753
X-66.48 Y-59.059
X-65.79 Y-59.341
X-65.091 Y-59.597
X-64.382 Y-59.827
X-63.665 Y-60.03
X-62.941 Y-60.206
X-62.211 Y-60.355
X-61.476 Y-60.478
X-60.737 Y-60.574
X-59.996 Y-60.642
X-59.252 Y-60.682
X-58.507 Y-60.695
X-57.762 Y-60.681
X-57.018 Y-60.639
X-56.276 Y-60.57
X-55.537 Y-60.474
X-54.802 Y-60.351
X-54.072 Y-60.201
X-53.349 Y-60.025
X-52.632 Y-59.822
X-51.923 Y-59.593
X-51.223 Y-59.338
X-50.533 Y-59.057
X-49.853 Y-58.751
X-49.185 Y-58.421
X-48.53 Y-58.067
X-47.887 Y-57.689
X-47.26 Y-57.288
X-46.647 Y-56.864
X-46.05 Y-56.419
X-45.469 Y-55.952
X-44.905 Y-55.465
X-44.36 Y-54.957
X-43.833 Y-54.431
X-43.325 Y-53.885
X-42.837 Y-53.322
X-42.37 Y-52.742
X-41.924 Y-52.145
X-41.5 Y-51.532
X-41.098 Y-50.905
X-40.719 Y-50.264
X-40.363 Y-49.609
X-40.03 Y-48.942
X-39.722 Y-48.264
X-39.439 Y-47.575
X-39.18 Y-46.876
X-38.947 Y-46.168
X-38.739 Y-45.453
X-38.557 Y-44.731
X-38.4 Y-44.002
X-38.27 Y-43.269
X-38.166 Y-42.531
X-38.088 Y-41.79
X-38.037 Y-41.047
X-38.014 Y-40.302
X-38.017 Y-39.557
X-38.047 Y-38.812
X-38.103 Y-38.069
X-38.186 Y-37.329
X-38.296 Y-36.592
X-38.432 Y-35.86
X-38.595 Y-35.132
X-38.784 Y-34.412
X-38.998 Y-33.698
X-39.238 Y-32.993
X-39.504 Y-32.297
X-39.794 Y-31.61
X-40.109 Y-30.935
X-40.447 Y-30.271
X-40.81 Y-29.62
X-41.195 Y-28.983
X-41.604 Y-28.36
X-42.035 Y-27.752
X-42.488 Y-27.161
X-42.961 Y-26.585
X-43.455 Y-26.027
X-43.969 Y-25.488
X-44.501 Y-24.967
X-45.053 Y-24.466
X-45.622 Y-23.984
X-46.207 Y-23.524
X-46.809 Y-23.085
X-47.426 Y-22.667
X-48.058 Y-22.272
X-48.703 Y-21.9
X-49.362 Y-21.551
X-50.032 Y-21.226
X-50.714 Y-20.925
X-51.406 Y-20.649
X-52.107 Y-20.398
X-52.817 Y-20.172
X-53.535 Y-19.971
X-54.259 Y-19.796
X-54.989 Y-19.647
X-55.724 Y-19.524
X-56.463 Y-19.428
X-57.204 Y-19.358
X-57.948 Y-19.314
X-58.693 Y-19.297
X-59.438 Y-19.306
X-60.182 Y-19.341
X-60.925 Y-19.403
X-61.665 Y-19.491
X-62.401 Y-19.605
X-63.132 Y-19.746
X-63.859 Y-19.913
X-64.578 Y-20.105
X-65.291 Y-20.323
X-65.995 Y-20.566
X-66.691 Y-20.833
X-67.376 Y-21.125
X-68.051 Y-21.441
X-68.714 Y-21.781
X-69.365 Y-22.144
X-70.002 Y-22.53
X-70.626 Y-22.937
X-71.235 Y-23.367
X-71.828 Y-23.817
X-72.406 Y-24.288
X-72.966 Y-24.779
X-73.509 Y-25.289
X-74.034 Y-25.818
X-74.539 Y-26.365
X-75.025 Y-26.93
X-75.491 Y-27.511
X-75.937 Y-28.109
X-76.361 Y-28.721
X-76.764 Y-29.348
X-77.144 Y-29.989
X-77.501 Y-30.643
X-77.835 Y-31.309
X-78.146 Y-31.986
X-78.432 Y-32.673
X-78.695 Y-33.371
X-78.933 Y-34.077
X-79.147 Y-34.791
X-79.335 Y-35.511
X-79.498 Y-36.238
X-79.635 Y-36.971
X-79.747 Y-37.707
X-79.832 Y-38.448
X-79.892 Y-39.19
X-79.926 Y-39.934
X-79.935 Y-40.679
X-79.917 Y-41.424
X-79.874 Y-42.168
X-79.804 Y-42.91
X-79.708 Y-43.649
X-79.587 Y-44.384
X-79.44 Y-45.114
X-79.268 Y-45.839
X-79.071 Y-46.558
X-78.849 Y-47.269
X-78.602 Y-47.972
X-78.331 Y-48.666
X-78.035 Y-49.35
X-77.716 Y-50.023
X-77.374 Y-50.685
X-77.008 Y-51.334
X-76.621 Y-51.971
X-76.212 Y-52.593
X-75.781 Y-53.201
X-75.329 Y-53.794
X-74.857 Y-54.37
X-74.366 Y-54.93
X-73.855 Y-55.472
X-73.325 Y-55.997
X-72.778 Y-56.502
X-72.214 Y-56.989
X-71.632 Y-57.455
X-71.036 Y-57.901
X-70.423 Y-58.325
X-69.797 Y-58.729
X-69.156 Y-59.109
X-68.503 Y-59.467
X-67.838 Y-59.802
X-67.161 Y-60.114
X-66.474 Y-60.403
X-65.777 Y-60.667
X-65.072 Y-60.908
X-64.359 Y-61.123
X-63.639 Y-61.313
X-62.912 Y-61.479
X-62.18 Y-61.619
X-61.444 Y-61.733
X-60.704 Y-61.823
X-59.962 Y-61.886
X-59.218 Y-61.924
X-58.473 Y-61.935
X-57.728 Y-61.921
X-56.984 Y-61.881
X-56.242 Y-61.814
X-55.503 Y-61.722
X-54.767 Y-61.604
X-54.036 Y-61.461
X-53.31 Y-61.293
X-52.59 Y-61.101
X-51.878 Y-60.883
X-51.173 Y-60.641
X-50.477 Y-60.374
X-49.791 Y-60.084
X-49.115 Y-59.771
X-48.45 Y-59.435
X-47.797 Y-59.076
X-47.157 Y-58.695
X-46.53 Y-58.292
X-45.917 Y-57.868
X-45.32 Y-57.423
X-44.738 Y-56.958
X-44.172 Y-56.473
X-43.623 Y-55.969
X-43.092 Y-55.447
X-42.579 Y-54.907
X-42.084 Y-54.35
X-41.608 Y-53.776
X-41.152 Y-53.187
X-40.716 Y-52.583
X-40.301 Y-51.964
X-39.908 Y-51.331
X-39.535 Y-50.686
X-39.185 Y-50.029
X-38.857 Y-49.36
X-38.551 Y-48.68
X-38.269 Y-47.99
X-38.011 Y-47.292
X-37.776 Y-46.584
X-37.566 Y-45.87
X-37.381 Y-45.148
X-37.219 Y-44.421
X-37.083 Y-43.688
X-36.971 Y-42.952
X-36.883 Y-42.212
X-36.821 Y-41.469
X-36.785 Y-40.725
X-36.773 Y-39.98
X-36.787 Y-39.235
X-36.826 Y-38.491
X-36.89 Y-37.749
X-36.979 Y-37.009
X-37.093 Y-36.273
X-37.232 Y-35.541
X-37.395 Y-34.814
X-37.584 Y-34.093
X-37.797 Y-33.379
X-38.035 Y-32.673
X-38.297 Y-31.976
X-38.582 Y-31.287
X-38.89 Y-30.609
X-39.221 Y-29.941
X-39.575 Y-29.286
X-39.95 Y-28.642
X-40.348 Y-28.012
X-40.766 Y-27.395
X-41.205 Y-26.794
X-41.665 Y-26.207
X-42.143 Y-25.636
X-42.641 Y-25.082
X-43.158 Y-24.545
X-43.692 Y-24.025
X-44.244 Y-23.525
X-44.812 Y-23.043
X-45.397 Y-22.581
X-45.997 Y-22.14
X-46.612 Y-21.718
X-47.24 Y-21.318
X-47.882 Y-20.94
X-48.536 Y-20.583
X-49.201 Y-20.248
X-49.878 Y-19.936
X-50.565 Y-19.647
X-51.261 Y-19.382
X-51.966 Y-19.14
X-52.678 Y-18.921
X-53.397 Y-18.727
X-54.123 Y-18.557
X-54.853 Y-18.411
X-55.588 Y-18.29
X-56.327 Y-18.194
X-57.069 Y-18.123
X-57.813 Y-18.078
X-58.557 Y-18.057
X-59.302 Y-18.061
X-60.047 Y-18.091
X-60.79 Y-18.145
X-61.531 Y-18.224
X-62.269 Y-18.328
X-63.003 Y-18.456
X-63.732 Y-18.609
X-64.455 Y-18.787
X-65.173 Y-18.988
X-65.883 Y-19.213
X-66.585 Y-19.462
X-67.279 Y-19.734
X-67.963 Y-20.029
X-68.637 Y-20.347
X-69.3 Y-20.686
X-69.951 Y-21.049
X-70.59 Y-21.433
X-71.215 Y-21.838
X-71.827 Y-22.263
X-72.424 Y-22.709
X-73.006 Y-23.174
X-73.573 Y-23.658
X-74.123 Y-24.16
X-74.656 Y-24.68
X-75.171 Y-25.218
X-75.669 Y-25.773
X-76.148 Y-26.344
X-76.608 Y-26.93
X-77.048 Y-27.531
X-77.468 Y-28.146
X-77.868 Y-28.775
X-78.246 Y-29.417
X-78.603 Y-30.071
X-78.938 Y-30.737
X-79.25 Y-31.413
X-79.54 Y-32.099
X-79.807 Y-32.795
X-80.05 Y-33.499
X-80.271 Y-34.211
X-80.468 Y-34.93
X-80.641 Y-35.654
X-80.789 Y-36.384
X-80.914 Y-37.119
X-81.015 Y-37.857
X-81.091 Y-38.598
X-81.143 Y-39.341
X-81.171 Y-40.086
X-81.174 Y-40.831
X-81.153 Y-41.576
X-81.107 Y-42.319
X-81.036 Y-43.061
X-80.941 Y-43.8
X-80.822 Y-44.536
X-80.678 Y-45.267
X-80.509 Y-45.992
X-80.318 Y-46.712
X-80.102 Y-47.426
X-79.863 Y-48.131
X-79.601 Y-48.829
X-79.317 Y-49.517
X-79.009 Y-50.196
X-78.68 Y-50.864
X-78.329 Y-51.521
X-77.956 Y-52.167
X-77.563 Y-52.799
X-77.149 Y-53.419
X-76.715 Y-54.025
X-76.262 Y-54.616
X-75.789 Y-55.192
X-75.297 Y-55.752
X-74.787 Y-56.295
X-74.26 Y-56.821
X-73.715 Y-57.329
X-73.154 Y-57.819
X-72.577 Y-58.291
X-71.985 Y-58.743
X-71.378 Y-59.176
X-70.758 Y-59.588
X-70.124 Y-59.98
X-69.477 Y-60.35
X-68.819 Y-60.699
X-68.15 Y-61.027
X-67.47 Y-61.332
X-66.781 Y-61.615
X-66.083 Y-61.876
X-65.377 Y-62.113
X-64.663 Y-62.327
X-63.943 Y-62.518
X-63.217 Y-62.684
X-62.485 Y-62.826
X-61.75 Y-62.944
X-61.011 Y-63.038
X-60.269 Y-63.107
X-59.525 Y-63.153
X-58.78 Y-63.174
X-58.035 Y-63.17
X-57.291 Y-63.142
X-56.547 Y-63.089
X-55.806 Y-63.012
X-55.068 Y-62.911
X-54.334 Y-62.786
X-53.604 Y-62.637
X-52.879 Y-62.464
X-52.16 Y-62.268
X-51.448 Y-62.049
X-50.744 Y-61.806
X-50.047 Y-61.541
X-49.36 Y-61.252
X-48.683 Y-60.942
X-48.017 Y-60.609
X-47.361 Y-60.255
X-46.717 Y-59.88
X-46.086 Y-59.485
X-45.468 Y-59.069
X-44.863 Y-58.633
X-44.273 Y-58.178
X-43.698 Y-57.704
X-43.139 Y-57.212
X-42.596 Y-56.702
X-42.069 Y-56.175
X-41.56 Y-55.631
X-41.068 Y-55.072
X-40.594 Y-54.496
X-40.139 Y-53.907
X-39.703 Y-53.302
X-39.287 Y-52.684
X-38.891 Y-52.053
X-38.516 Y-51.409
X-38.162 Y-50.754
X-37.828 Y-50.088
X-37.516 Y-49.411
X-37.226 Y-48.725
X-36.958 Y-48.03
X-36.712 Y-47.326
X-36.49 Y-46.615
X-36.29 Y-45.897
X-36.113 Y-45.174
X-35.959 Y-44.445
X-35.829 Y-43.711
X-35.722 Y-42.974
X-35.638 Y-42.233
X-35.578 Y-41.491
X-35.542 Y-40.747
X-35.53 Y-40.002
X-35.543 Y-39.257
X-35.579 Y-38.512
X-35.639 Y-37.77
X-35.723 Y-37.029
X-35.831 Y-36.292
X-35.962 Y-35.559
X-36.117 Y-34.83
X-36.295 Y-34.107
X-36.497 Y-33.389
X-36.722 Y-32.679
X-36.969 Y-31.976
X-37.239 Y-31.282
X-37.531 Y-30.596
X-37.844 Y-29.92
X-38.179 Y-29.255
X-38.536 Y-28.6
X-38.913 Y-27.958
X-39.31 Y-27.328
X-39.728 Y-26.711
X-40.166 Y-26.108
X-40.623 Y-25.52
X-41.099 Y-24.946
X-41.592 Y-24.388
X-42.104 Y-23.846
X-42.632 Y-23.321
X-43.177 Y-22.813
X-43.738 Y-22.323
X-44.315 Y-21.851
X-44.907 Y-21.398
X-45.512 Y-20.964
X-46.132 Y-20.55
X-46.764 Y-20.156
X-47.408 Y-19.782
X-48.064 Y-19.429
X-48.731 Y-19.096
X-49.408 Y-18.786
X-50.095 Y-18.497
X-50.791 Y-18.23
X-51.495 Y-17.986
X-52.206 Y-17.765
X-52.924 Y-17.566
X-53.648 Y-17.39
X-54.378 Y-17.238
X-55.111 Y-17.108
X-55.849 Y-17.002
X-56.589 Y-16.92
X-57.332 Y-16.861
X-58.076 Y-16.826
X-58.821 Y-16.815
X-59.566 Y-16.827
X-60.311 Y-16.863
X-61.053 Y-16.923
X-61.794 Y-17.005
X-62.531 Y-17.112
X-63.265 Y-17.241
X-63.994 Y-17.394
X-64.718 Y-17.571
X-65.436 Y-17.77
X-66.147 Y-17.992
X-66.851 Y-18.236
X-67.547 Y-18.503
X-68.234 Y-18.791
X-68.911 Y-19.101
X-69.579 Y-19.432
X-70.235 Y-19.784
X-70.881 Y-20.156
X-71.514 Y-20.549
X-72.134 Y-20.962
X-72.741 Y-21.394
X-73.335 Y-21.844
X-73.914 Y-22.313
X-74.478 Y-22.8
X-75.026 Y-23.304
X-75.558 Y-23.826
X-76.074 Y-24.363
X-76.572 Y-24.917
X-77.053 Y-25.487
X-77.515 Y-26.071
X-77.959 Y-26.669
X-78.384 Y-27.281
X-78.79 Y-27.906
X-79.176 Y-28.544
X-79.541 Y-29.193
X-79.886 Y-29.853
X-80.21 Y-30.524
X-80.512 Y-31.205
X-80.794 Y-31.895
X-81.053 Y-32.594
X-81.29 Y-33.3
X-81.506 Y-34.013
X-81.699 Y-34.733
X-81.87 Y-35.458
X-82.017 Y-36.188
X-82.142 Y-36.923
X-82.244 Y-37.661
X-82.322 Y-38.402
X-82.377 Y-39.145
X-82.409 Y-39.889
X-82.418 Y-40.634
X-82.403 Y-41.379
X-82.366 Y-42.123
X-82.305 Y-42.866
X-82.22 Y-43.606
X-82.113 Y-44.343
X-81.983 Y-45.077
X-81.829 Y-45.806
X-81.653 Y-46.53
X-81.455 Y-47.248
X-81.234 Y-47.96
X-80.992 Y-48.664
X-80.727 Y-49.361
X-80.441 Y-50.049
X-80.133 Y-50.727
X-79.805 Y-51.396
X-79.455 Y-52.054
X-79.085 Y-52.701
X-78.695 Y-53.336
X-78.286 Y-53.958
X-77.857 Y-54.568
X-77.41 Y-55.163
X-76.944 Y-55.745
X-76.461 Y-56.312
X-75.96 Y-56.863
X-75.442 Y-57.399
X-74.907 Y-57.918
X-74.357 Y-58.42
X-73.791 Y-58.905
X-73.211 Y-59.372
X-72.616 Y-59.821
X-72.007 Y-60.251
X-71.386 Y-60.662
X-70.752 Y-61.053
X-70.106 Y-61.424
X-69.448 Y-61.774
X-68.78 Y-62.104
X-68.102 Y-62.413
X-67.415 Y-62.701
X-66.719 Y-62.967
X-66.015 Y-63.211
X-65.304 Y-63.434
X-64.586 Y-63.634
X-63.863 Y-63.812
X-63.134 Y-63.967
X-62.401 Y-64.099
X-61.664 Y-64.209
X-60.924 Y-64.295
X-60.181 Y-64.359
X-59.438 Y-64.399
X-58.693 Y-64.417
X-57.948 Y-64.411
X-57.203 Y-64.382
X-56.46 Y-64.33
X-55.719 Y-64.254
X-54.98 Y-64.155
X-54.245 Y-64.033
X-53.514 Y-63.889
X-52.788 Y-63.722
X-52.067 Y-63.533
X-51.353 Y-63.322
X-50.645 Y-63.089
X-49.945 Y-62.833
X-49.254 Y-62.557
X-48.571 Y-62.259
X-47.897 Y-61.94
X-47.234 Y-61.6
X-46.581 Y-61.241
X-45.94 Y-60.861
X-45.311 Y-60.463
X-44.694 Y-60.045
X-44.091 Y-59.608
X-43.501 Y-59.153
X-42.925 Y-58.679
X-42.365 Y-58.189
X-41.819 Y-57.681
X-41.29 Y-57.157
X-40.777 Y-56.617
X-40.28 Y-56.061
X-39.8 Y-55.491
X-39.338 Y-54.907
X-38.894 Y-54.308
X-38.469 Y-53.697
X-38.062 Y-53.073
X-37.674 Y-52.436
X-37.306 Y-51.788
X-36.958 Y-51.13
X-36.63 Y-50.461
X-36.322 Y-49.782
X-36.035 Y-49.095
X-35.769 Y-48.399
X-35.524 Y-47.695
X-35.301 Y-46.984
X-35.1 Y-46.267
X-34.921 Y-45.543
X-34.765 Y-44.815
X-34.63 Y-44.082
X-34.517 Y-43.346
X-34.427 Y-42.606
X-34.359 Y-41.864
X-34.314 Y-41.121
X-34.292 Y-40.376
Y-39.631
X-34.315 Y-38.886
X-34.361 Y-38.142
X-34.429 Y-37.4
X-34.52 Y-36.661
X-34.633 Y-35.925
X-34.768 Y-35.192
X-34.926 Y-34.464
X-35.106 Y-33.741
X-35.308 Y-33.024
X-35.532 Y-32.313
X-35.778 Y-31.61
X-36.046 Y-30.914
X-36.334 Y-30.227
X-36.644 Y-29.55
X-36.973 Y-28.881
X-37.323 Y-28.224
X-37.693 Y-27.577
X-38.082 Y-26.942
X-38.491 Y-26.319
X-38.918 Y-25.708
X-39.364 Y-25.112
X-39.828 Y-24.529
X-40.31 Y-23.96
X-40.808 Y-23.406
X-41.323 Y-22.868
X-41.854 Y-22.345
X-42.401 Y-21.839
X-42.963 Y-21.35
X-43.54 Y-20.878
X-44.131 Y-20.425
X-44.736 Y-19.989
X-45.353 Y-19.573
X-45.983 Y-19.175
X-46.625 Y-18.797
X-47.278 Y-18.438
X-47.942 Y-18.099
X-48.615 Y-17.78
X-49.298 Y-17.482
X-49.989 Y-17.204
X-50.689 Y-16.948
X-51.396 Y-16.713
X-52.11 Y-16.5
X-52.83 Y-16.308
X-53.555 Y-16.138
X-54.286 Y-15.99
X-55.02 Y-15.864
X-55.758 Y-15.761
X-56.498 Y-15.679
X-57.241 Y-15.62
X-57.985 Y-15.584
X-58.73 Y-15.571
X-59.475 Y-15.58
X-60.22 Y-15.612
X-60.963 Y-15.666
X-61.704 Y-15.742
X-62.442 Y-15.841
X-63.178 Y-15.962
X-63.909 Y-16.104
X-64.635 Y-16.269
X-65.357 Y-16.456
X-66.072 Y-16.664
X-66.781 Y-16.894
X-67.482 Y-17.145
X-68.176 Y-17.417
X-68.861 Y-17.709
X-69.538 Y-18.022
X-70.204 Y-18.355
X-70.86 Y-18.708
X-71.506 Y-19.08
X-72.139 Y-19.472
X-72.761 Y-19.883
X-73.37 Y-20.312
X-73.966 Y-20.759
X-74.548 Y-21.224
X-75.116 Y-21.706
X-75.67 Y-22.205
X-76.209 Y-22.719
X-76.732 Y-23.25
X-77.238 Y-23.796
X-77.729 Y-24.357
X-78.202 Y-24.933
X-78.658 Y-25.522
X-79.096 Y-26.124
X-79.517 Y-26.74
X-79.918 Y-27.367
X-80.301 Y-28.006
X-80.665 Y-28.656
X-81.009 Y-29.317
X-81.333 Y-29.988
X-81.637 Y-30.669
X-81.92 Y-31.358
X-82.182 Y-32.055
X-82.423 Y-32.76
X-82.644 Y-33.472
X-82.843 Y-34.19
X-83.021 Y-34.913
X-83.177 Y-35.642
X-83.312 Y-36.374
X-83.425 Y-37.111
X-83.516 Y-37.85
X-83.585 Y-38.592
X-83.631 Y-39.336
X-83.656 Y-40.08
X-83.659 Y-40.826
X-83.64 Y-41.57
X-83.599 Y-42.314
X-83.536 Y-43.057
X-83.45 Y-43.797
X-83.343 Y-44.534
X-83.214 Y-45.268
X-83.062 Y-45.997
X-82.889 Y-46.722
X-82.694 Y-47.441
X-82.478 Y-48.154
X-82.241 Y-48.861
X-81.984 Y-49.56
X-81.706 Y-50.251
X-81.407 Y-50.934
X-81.088 Y-51.607
X-80.75 Y-52.271
X-80.392 Y-52.924
X-80.014 Y-53.567
X-79.618 Y-54.198
X-79.204 Y-54.817
X-78.771 Y-55.424
X-78.321 Y-56.017
X-77.854 Y-56.597
X-77.369 Y-57.163
X-76.868 Y-57.715
X-76.35 Y-58.251
X-75.817 Y-58.771
X-75.268 Y-59.275
X-74.705 Y-59.762
X-74.128 Y-60.233
X-73.536 Y-60.687
X-72.932 Y-61.122
X-72.315 Y-61.54
X-71.686 Y-61.94
X-71.046 Y-62.32
X-70.394 Y-62.681
X-69.732 Y-63.023
X-69.06 Y-63.345
X-68.379 Y-63.647
X-67.689 Y-63.929
X-66.991 Y-64.19
X-66.286 Y-64.431
X-65.574 Y-64.651
X-64.856 Y-64.85
X-64.133 Y-65.027
X-63.404 Y-65.183
X-62.671 Y-65.316
X-61.935 Y-65.428
X-61.195 Y-65.518
X-60.453 Y-65.586
X-59.709 Y-65.632
X-58.965 Y-65.657
X-58.22 Y-65.659
X-57.475 Y-65.639
X-56.731 Y-65.597
X-55.989 Y-65.533
X-55.248 Y-65.447
X-54.511 Y-65.34
X-53.778 Y-65.21
X-53.048 Y-65.06
X-52.323 Y-64.887
X-51.603 Y-64.694
X-50.89 Y-64.48
X-50.183 Y-64.245
X-49.483 Y-63.989
X-48.791 Y-63.713
X-48.108 Y-63.416
X-47.433 Y-63.099
X-46.769 Y-62.762
X-46.114 Y-62.406
X-45.47 Y-62.031
X-44.838 Y-61.638
X-44.217 Y-61.226
X-43.608 Y-60.796
X-43.012 Y-60.349
X-42.43 Y-59.885
X-41.861 Y-59.403
X-41.307 Y-58.905
X-40.767 Y-58.392
X-40.242 Y-57.863
X-39.733 Y-57.319
X-39.24 Y-56.76
X-38.763 Y-56.188
X-38.303 Y-55.602
X-37.86 Y-55.003
X-37.435 Y-54.391
X-37.027 Y-53.767
X-36.639 Y-53.131
X-36.269 Y-52.485
X-35.917 Y-51.828
X-35.585 Y-51.161
X-35.272 Y-50.485
X-34.979 Y-49.8
X-34.706 Y-49.107
X-34.452 Y-48.406
X-34.22 Y-47.698
X-34.008 Y-46.984
X-33.816 Y-46.264
X-33.646 Y-45.538
X-33.497 Y-44.809
X-33.368 Y-44.075
X-33.261 Y-43.337
X-33.175 Y-42.597
X-33.111 Y-41.855
X-33.068 Y-41.111
X-33.046 Y-40.366
X-33.047 Y-39.621
X-33.069 Y-38.877
X-33.113 Y-38.133
X-33.178 Y-37.391
X-33.265 Y-36.651
X-33.374 Y-35.913
X-33.503 Y-35.18
X-33.654 Y-34.45
X-33.826 Y-33.725
X-34.019 Y-33.006
X-34.233 Y-32.292
X-34.467 Y-31.585
X-34.723 Y-30.885
X-34.998 Y-30.192
X-35.293 Y-29.508
X-35.608 Y-28.833
X-35.942 Y-28.167
X-36.296 Y-27.511
X-36.668 Y-26.866
X-37.059 Y-26.232
X-37.468 Y-25.609
X-37.895 Y-24.998
X-38.34 Y-24.401
X-38.802 Y-23.816
X-39.281 Y-23.246
X-39.777 Y-22.689
X-40.288 Y-22.147
X-40.814 Y-21.62
X-41.356 Y-21.109
X-41.912 Y-20.613
X-42.483 Y-20.134
X-43.067 Y-19.671
X-43.664 Y-19.226
X-44.274 Y-18.798
X-44.896 Y-18.388
X-45.53 Y-17.996
X-46.175 Y-17.623
X-46.83 Y-17.268
X-47.495 Y-16.932
X-48.169 Y-16.615
X-48.853 Y-16.318
X-49.544 Y-16.041
X-50.244 Y-15.784
X-50.95 Y-15.548
X-51.664 Y-15.333
X-52.383 Y-15.137
X-53.107 Y-14.963
X-53.836 Y-14.81
X-54.569 Y-14.677
X-55.306 Y-14.565
X-56.046 Y-14.475
X-56.787 Y-14.406
X-57.531 Y-14.359
X-58.276 Y-14.333
X-59.021 Y-14.329
X-59.765 Y-14.346
X-60.51 Y-14.384
X-61.252 Y-14.443
X-61.993 Y-14.524
X-62.731 Y-14.626
X-63.466 Y-14.749
X-64.197 Y-14.893
X-64.924 Y-15.058
X-65.645 Y-15.243
X-66.361 Y-15.45
X-67.07 Y-15.678
X-67.773 Y-15.925
X-68.468 Y-16.193
X-69.156 Y-16.48
X-69.835 Y-16.786
X-70.505 Y-17.112
X-71.166 Y-17.457
X-71.816 Y-17.82
X-72.456 Y-18.203
X-73.084 Y-18.603
X-73.701 Y-19.021
X-74.305 Y-19.456
X-74.897 Y-19.909
X-75.476 Y-20.378
X-76.042 Y-20.863
X-76.593 Y-21.364
X-77.13 Y-21.88
X-77.653 Y-22.411
X-78.16 Y-22.957
X-78.651 Y-23.518
X-79.125 Y-24.092
X-79.583 Y-24.68
X-80.024 Y-25.28
X-80.448 Y-25.893
X-80.855 Y-26.517
X-81.243 Y-27.153
X-81.614 Y-27.799
X-81.966 Y-28.456
X-82.299 Y-29.123
X-82.613 Y-29.798
X-82.907 Y-30.483
X-83.182 Y-31.175
X-83.437 Y-31.875
X-83.673 Y-32.582
X-83.888 Y-33.295
X-84.083 Y-34.014
X-84.258 Y-34.739
X-84.412 Y-35.468
X-84.546 Y-36.201
X-84.659 Y-36.937
X-84.75 Y-37.676
X-84.821 Y-38.418
X-84.87 Y-39.162
X-84.898 Y-39.906
X-84.905 Y-40.651
X-84.892 Y-41.396
X-84.857 Y-42.14
X-84.802 Y-42.883
X-84.725 Y-43.625
X-84.628 Y-44.363
X-84.509 Y-45.099
X-84.369 Y-45.831
X-84.209 Y-46.558
X-84.028 Y-47.281
X-83.827 Y-47.998
X-83.606 Y-48.71
X-83.365 Y-49.415
X-83.104 Y-50.113
X-82.824 Y-50.803
X-82.524 Y-51.485
X-82.206 Y-52.159
X-81.868 Y-52.823
X-81.511 Y-53.477
X-81.135 Y-54.12
X-80.742 Y-54.753
X-80.331 Y-55.375
X-79.903 Y-55.984
X-79.458 Y-56.582
X-78.996 Y-57.167
X-78.518 Y-57.738
X-78.024 Y-58.296
X-77.514 Y-58.839
X-76.99 Y-59.368
X-76.45 Y-59.882
X-75.896 Y-60.38
X-75.328 Y-60.862
X-74.747 Y-61.329
X-74.153 Y-61.778
X-73.547 Y-62.211
X-72.928 Y-62.627
X-72.298 Y-63.025
X-71.658 Y-63.405
X-71.006 Y-63.767
X-70.345 Y-64.11
X-69.674 Y-64.433
X-68.994 Y-64.738
X-68.306 Y-65.024
X-67.61 Y-65.29
X-66.907 Y-65.537
X-66.197 Y-65.764
X-65.481 Y-65.97
X-64.76 Y-66.157
X-64.034 Y-66.323
X-63.303 Y-66.468
X-62.568 Y-66.593
X-61.83 Y-66.696
X-61.09 Y-66.779
X-60.347 Y-66.841
X-59.604 Y-66.883
X-58.859 Y-66.903
X-58.114 Y-66.902
X-57.369 Y-66.881
X-56.625 Y-66.838
X-55.883 Y-66.775
X-55.143 Y-66.69
X-54.405 Y-66.584
X-53.671 Y-66.458
X-52.94 Y-66.311
X-52.214 Y-66.143
X-51.493 Y-65.956
X-50.778 Y-65.748
X-50.068 Y-65.521
X-49.365 Y-65.274
X-48.67 Y-65.007
X-47.982 Y-64.72
X-47.302 Y-64.415
X-46.632 Y-64.09
X-45.97 Y-63.747
X-45.319 Y-63.386
X-44.678 Y-63.006
X-44.047 Y-62.609
X-43.428 Y-62.195
X-42.82 Y-61.764
X-42.225 Y-61.315
X-41.643 Y-60.851
X-41.074 Y-60.37
X-40.518 Y-59.873
X-39.977 Y-59.361
X-39.45 Y-58.835
X-38.938 Y-58.294
X-38.44 Y-57.739
X-37.959 Y-57.171
X-37.493 Y-56.589
X-37.043 Y-55.995
X-36.61 Y-55.389
X-36.194 Y-54.771
X-35.795 Y-54.141
X-35.414 Y-53.501
X-35.05 Y-52.851
X-34.705 Y-52.191
X-34.378 Y-51.521
X-34.069 Y-50.843
X-33.78 Y-50.157
X-33.509 Y-49.462
X-33.257 Y-48.761
X-33.025 Y-48.053
X-32.813 Y-47.339
X-32.62 Y-46.619
X-32.448 Y-45.894
X-32.296 Y-45.165
X-32.164 Y-44.432
X-32.053 Y-43.695
X-31.961 Y-42.956
X-31.89 Y-42.214
X-31.839 Y-41.471
X-31.809 Y-40.726
X-31.799 Y-39.981
X-31.811 Y-39.236
X-31.842 Y-38.492
X-31.895 Y-37.749
X-31.968 Y-37.007
X-32.061 Y-36.268
X-32.175 Y-35.532
X-32.309 Y-34.799
X-32.463 Y-34.07
X-32.637 Y-33.345
X-32.832 Y-32.626
X-33.046 Y-31.912
X-33.28 Y-31.205
X-33.534 Y-30.505
X-33.807 Y-29.811
X-34.099 Y-29.126
X-34.411 Y-28.449
X-34.74 Y-27.781
X-35.089 Y-27.122
X-35.455 Y-26.473
X-35.838 Y-25.835
X-36.24 Y-25.207
X-36.658 Y-24.591
X-37.094 Y-23.986
X-37.546 Y-23.394
X-38.015 Y-22.815
X-38.499 Y-22.249
X-38.999 Y-21.696
X-39.514 Y-21.158
X-40.043 Y-20.634
X-40.587 Y-20.124
X-41.145 Y-19.63
X-41.716 Y-19.151
X-42.3 Y-18.689
X-42.897 Y-18.243
X-43.506 Y-17.814
X-44.126 Y-17.402
X-44.758 Y-17.007
X-45.401 Y-16.629
X-46.053 Y-16.27
X-46.715 Y-15.928
X-47.387 Y-15.605
X-48.067 Y-15.3
X-48.755 Y-15.014
X-49.45 Y-14.748
X-50.153 Y-14.5
X-50.862 Y-14.272
X-51.578 Y-14.064
X-52.299 Y-13.875
X-53.024 Y-13.706
X-53.754 Y-13.557
X-54.488 Y-13.428
X-55.225 Y-13.319
X-55.965 Y-13.231
X-56.707 Y-13.163
X-57.45 Y-13.115
X-58.195 Y-13.088
X-58.94 Y-13.082
X-59.685 Y-13.096
X-60.429 Y-13.131
X-61.172 Y-13.185
X-61.913 Y-13.26
X-62.652 Y-13.356
X-63.388 Y-13.471
X-64.121 Y-13.606
X-64.85 Y-13.762
X-65.574 Y-13.937
X-66.293 Y-14.133
X-67.006 Y-14.348
X-67.714 Y-14.582
X-68.414 Y-14.836
X-69.108 Y-15.108
X-69.793 Y-15.399
X-70.471 Y-15.709
X-71.14 Y-16.037
X-71.8 Y-16.383
X-72.45 Y-16.747
X-73.09 Y-17.129
X-73.719 Y-17.528
X-74.337 Y-17.945
X-74.943 Y-18.378
X-75.537 Y-18.827
X-76.119 Y-19.292
X-76.688 Y-19.773
X-77.244 Y-20.269
X-77.787 Y-20.78
X-78.315 Y-21.305
X-78.829 Y-21.845
X-79.328 Y-22.398
X-79.811 Y-22.965
X-80.279 Y-23.544
X-80.732 Y-24.137
X-81.168 Y-24.741
X-81.587 Y-25.357
X-81.99 Y-25.983
X-82.376 Y-26.621
X-82.744 Y-27.268
X-83.095 Y-27.926
X-83.427 Y-28.592
X-83.742 Y-29.268
X-84.037 Y-29.952
X-84.314 Y-30.644
X-84.572 Y-31.343
X-84.81 Y-32.049
X-85.03 Y-32.76
X-85.231 Y-33.478
X-85.412 Y-34.201
X-85.573 Y-34.928
X-85.715 Y-35.66
X-85.838 Y-36.394
X-85.94 Y-37.133
X-86.022 Y-37.873
X-86.084 Y-38.616
X-86.126 Y-39.359
X-86.147 Y-40.104
X-86.149 Y-40.849
X-86.131 Y-41.594
X-86.093 Y-42.338
X-86.035 Y-43.081
X-85.957 Y-43.822
X-85.859 Y-44.56
X-85.74 Y-45.296
X-85.602 Y-46.028
X-85.443 Y-46.756
X-85.265 Y-47.48
X-85.068 Y-48.198
X-84.851 Y-48.911
X-84.615 Y-49.618
X-84.36 Y-50.318
X-84.087 Y-51.011
X-83.795 Y-51.696
X-83.484 Y-52.374
X-83.155 Y-53.042
X-82.809 Y-53.702
X-82.444 Y-54.352
X-82.063 Y-54.991
X-81.664 Y-55.621
X-81.248 Y-56.239
X-80.816 Y-56.846
X-80.368 Y-57.441
X-79.904 Y-58.025
X-79.425 Y-58.595
X-78.93 Y-59.152
X-78.421 Y-59.696
X-77.897 Y-60.225
X-77.358 Y-60.74
X-76.806 Y-61.24
X-76.24 Y-61.725
X-75.662 Y-62.195
X-75.071 Y-62.649
X-74.468 Y-63.087
X-73.854 Y-63.508
X-73.229 Y-63.913
X-72.592 Y-64.301
X-71.946 Y-64.672
X-71.29 Y-65.025
X-70.624 Y-65.36
X-69.95 Y-65.677
X-69.268 Y-65.975
X-68.577 Y-66.256
X-67.88 Y-66.517
X-67.175 Y-66.76
X-66.465 Y-66.984
X-65.748 Y-67.189
X-65.027 Y-67.375
X-64.3 Y-67.541
X-63.57 Y-67.687
X-62.836 Y-67.813
X-62.098 Y-67.919
X-61.358 Y-68.005
X-60.616 Y-68.071
X-59.872 Y-68.118
X-59.128 Y-68.144
X-58.383 Y-68.151
X-57.638 Y-68.137
X-56.893 Y-68.103
X-56.15 Y-68.05
X-55.409 Y-67.976
X-54.67 Y-67.882
X-53.933 Y-67.769
X-53.2 Y-67.636
X-52.471 Y-67.483
X-51.746 Y-67.311
X-51.026 Y-67.119
X-50.311 Y-66.909
X-49.603 Y-66.679
X-48.9 Y-66.431
X-48.205 Y-66.164
X-47.517 Y-65.878
X-46.837 Y-65.573
X-46.165 Y-65.251
X-45.502 Y-64.91
X-44.849 Y-64.552
X-44.205 Y-64.177
X-43.572 Y-63.785
X-42.949 Y-63.376
X-42.337 Y-62.951
X-41.737 Y-62.51
X-41.148 Y-62.053
X-40.572 Y-61.58
X-40.009 Y-61.092
X-39.459 Y-60.589
X-38.923 Y-60.072
X-38.4 Y-59.541
X-37.892 Y-58.996
X-37.398 Y-58.439
X-36.919 Y-57.868
X-36.455 Y-57.285
X-36.006 Y-56.69
X-35.574 Y-56.083
X-35.158 Y-55.466
X-34.758 Y-54.837
X-34.375 Y-54.197
X-34.01 Y-53.548
X-33.662 Y-52.889
X-33.331 Y-52.222
X-33.018 Y-51.546
X-32.722 Y-50.862
X-32.445 Y-50.17
X-32.186 Y-49.472
X-31.945 Y-48.766
X-31.724 Y-48.055
X-31.521 Y-47.338
X-31.337 Y-46.616
X-31.173 Y-45.89
X-31.027 Y-45.159
X-30.901 Y-44.424
X-30.794 Y-43.687
X-30.707 Y-42.947
X-30.639 Y-42.205
X-30.59 Y-41.462
X-30.561 Y-40.717
X-30.552 Y-39.972
X-30.563 Y-39.227
X-30.594 Y-38.483
X-30.644 Y-37.739
X-30.714 Y-36.998
X-30.804 Y-36.258
X-30.913 Y-35.521
X-31.042 Y-34.787
X-31.19 Y-34.057
X-31.357 Y-33.331
X-31.543 Y-32.609
X-31.748 Y-31.893
X-31.973 Y-31.183
X-32.216 Y-30.478
X-32.478 Y-29.781
X-32.758 Y-29.091
X-33.056 Y-28.408
X-33.373 Y-27.733
X-33.707 Y-27.067
X-34.058 Y-26.41
X-34.426 Y-25.763
X-34.812 Y-25.125
X-35.214 Y-24.498
X-35.632 Y-23.881
X-36.068 Y-23.277
X-36.519 Y-22.684
X-36.986 Y-22.103
X-37.467 Y-21.535
X-37.964 Y-20.979
X-38.476 Y-20.438
X-39.001 Y-19.909
X-39.54 Y-19.395
X-40.092 Y-18.895
X-40.658 Y-18.41
X-41.236 Y-17.939
X-41.826 Y-17.485
X-42.428 Y-17.046
X-43.042 Y-16.624
X-43.667 Y-16.218
X-44.302 Y-15.828
X-44.947 Y-15.455
X-45.601 Y-15.099
X-46.265 Y-14.76
X-46.937 Y-14.439
X-47.618 Y-14.136
X-48.306 Y-13.85
X-49.001 Y-13.583
X-49.704 Y-13.335
X-50.413 Y-13.105
X-51.127 Y-12.895
X-51.847 Y-12.703
X-52.572 Y-12.53
X-53.301 Y-12.376
X-54.034 Y-12.241
X-54.77 Y-12.125
X-55.508 Y-12.028
X-56.249 Y-11.951
X-56.992 Y-11.894
X-57.736 Y-11.856
X-58.481 Y-11.838
X-59.226 Y-11.839
X-59.971 Y-11.86
X-60.715 Y-11.9
X-61.458 Y-11.96
X-62.199 Y-12.039
X-62.937 Y-12.137
X-63.673 Y-12.255
X-64.405 Y-12.391
X-65.134 Y-12.547
X-65.858 Y-12.722
X-66.577 Y-12.916
X-67.291 Y-13.13
X-67.999 Y-13.361
X-68.701 Y-13.612
X-69.396 Y-13.88
X-70.084 Y-14.166
X-70.764 Y-14.47
X-71.436 Y-14.792
X-72.1 Y-15.131
X-72.754 Y-15.487
X-73.399 Y-15.86
X-74.034 Y-16.25
X-74.659 Y-16.656
X-75.272 Y-17.079
X-75.875 Y-17.518
X-76.465 Y-17.971
X-77.044 Y-18.44
X-77.611 Y-18.924
X-78.165 Y-19.422
X-78.706 Y-19.934
X-79.234 Y-20.461
X-79.747 Y-21
X-80.247 Y-21.553
X-80.731 Y-22.119
X-81.201 Y-22.698
X-81.655 Y-23.288
X-82.094 Y-23.89
X-82.517 Y-24.504
X-82.924 Y-25.127
X-83.315 Y-25.762
X-83.69 Y-26.406
X-84.048 Y-27.059
X-84.388 Y-27.722
X-84.711 Y-28.393
X-85.017 Y-29.073
X-85.305 Y-29.76
X-85.574 Y-30.455
X-85.826 Y-31.156
X-86.06 Y-31.863
X-86.275 Y-32.577
X-86.472 Y-33.295
X-86.65 Y-34.019
X-86.809 Y-34.747
X-86.95 Y-35.478
X-87.072 Y-36.213
X-87.175 Y-36.951
X-87.258 Y-37.692
X-87.322 Y-38.434
X-87.366 Y-39.178
X-87.392 Y-39.922
X-87.398 Y-40.667
X-87.385 Y-41.412
X-87.353 Y-42.157
X-87.302 Y-42.9
X-87.231 Y-43.642
X-87.142 Y-44.381
X-87.033 Y-45.118
X-86.905 Y-45.852
X-86.758 Y-46.583
X-86.593 Y-47.309
X-86.408 Y-48.031
X-86.205 Y-48.748
X-85.984 Y-49.459
X-85.744 Y-50.165
X-85.486 Y-50.864
X-85.211 Y-51.556
X-84.918 Y-52.241
X-84.607 Y-52.918
X-84.278 Y-53.587
X-83.933 Y-54.247
X-83.57 Y-54.898
X-83.19 Y-55.539
X-82.794 Y-56.17
X-82.382 Y-56.791
X-81.954 Y-57.401
X-81.511 Y-58
X-81.053 Y-58.587
X-80.579 Y-59.162
X-80.091 Y-59.725
X-79.589 Y-60.275
X-79.072 Y-60.812
X-78.542 Y-61.335
X-77.998 Y-61.845
X-77.441 Y-62.34
X-76.872 Y-62.82
X-76.29 Y-63.286
X-75.697 Y-63.737
X-75.092 Y-64.172
X-74.477 Y-64.592
X-73.85 Y-64.996
X-73.214 Y-65.383
X-72.568 Y-65.754
X-71.912 Y-66.108
X-71.247 Y-66.444
X-70.574 Y-66.763
X-69.893 Y-67.065
X-69.204 Y-67.349
X-68.508 Y-67.616
X-67.806 Y-67.864
X-67.097 Y-68.094
X-66.383 Y-68.307
X-65.664 Y-68.5
X-64.939 Y-68.676
X-64.211 Y-68.832
X-63.479 Y-68.969
X-62.743 Y-69.087
X-62.005 Y-69.186
X-61.264 Y-69.267
X-60.521 Y-69.328
X-59.777 Y-69.37
X-59.033 Y-69.393
X-58.288 Y-69.397
X-57.543 Y-69.382
X-56.799 Y-69.348
X-56.055 Y-69.294
X-55.314 Y-69.221
X-54.575 Y-69.129
X-53.838 Y-69.018
X-53.104 Y-68.888
X-52.374 Y-68.739
X-51.648 Y-68.571
X-50.927 Y-68.385
X-50.21 Y-68.181
X-49.499 Y-67.958
X-48.794 Y-67.718
X-48.095 Y-67.459
X-47.403 Y-67.183
X-46.719 Y-66.889
X-46.042 Y-66.577
X-45.374 Y-66.248
X-44.714 Y-65.902
X-44.063 Y-65.539
X-43.422 Y-65.16
X-42.79 Y-64.765
X-42.168 Y-64.354
X-41.558 Y-63.927
X-40.958 Y-63.485
X-40.37 Y-63.028
X-39.793 Y-62.556
X-39.229 Y-62.069
X-38.678 Y-61.568
X-38.14 Y-61.053
X-37.615 Y-60.524
X-37.103 Y-59.982
X-36.605 Y-59.428
X-36.122 Y-58.861
X-35.652 Y-58.283
X-35.198 Y-57.692
X-34.758 Y-57.091
X-34.334 Y-56.478
X-33.926 Y-55.855
X-33.533 Y-55.222
X-33.157 Y-54.579
X-32.797 Y-53.926
X-32.454 Y-53.265
X-32.128 Y-52.595
X-31.818 Y-51.917
X-31.526 Y-51.232
X-31.25 Y-50.54
X-30.993 Y-49.841
X-30.753 Y-49.135
X-30.531 Y-48.424
X-30.327 Y-47.707
X-30.142 Y-46.986
X-29.975 Y-46.259
X-29.827 Y-45.529
X-29.697 Y-44.796
X-29.586 Y-44.059
X-29.493 Y-43.32
X-29.419 Y-42.578
X-29.363 Y-41.835
X-29.326 Y-41.091
X-29.308 Y-40.346
X-29.309 Y-39.601
X-29.328 Y-38.857
X-29.367 Y-38.112
X-29.425 Y-37.37
X-29.501 Y-36.628
X-29.597 Y-35.89
X-29.71 Y-35.153
X-29.843 Y-34.42
X-29.993 Y-33.69
X-30.162 Y-32.965
X-30.35 Y-32.244
X-30.555 Y-31.527
X-30.779 Y-30.817
X-31.021 Y-30.112
X-31.281 Y-29.414
X-31.559 Y-28.723
X-31.854 Y-28.039
X-32.167 Y-27.362
X-32.496 Y-26.694
X-32.842 Y-26.034
X-33.205 Y-25.383
X-33.584 Y-24.742
X-33.979 Y-24.11
X-34.39 Y-23.488
X-34.816 Y-22.878
X-35.258 Y-22.278
X-35.716 Y-21.69
X-36.188 Y-21.113
X-36.674 Y-20.549
X-37.175 Y-19.997
X-37.689 Y-19.458
X-38.217 Y-18.932
X-38.757 Y-18.419
X-39.311 Y-17.92
X-39.877 Y-17.436
X-40.455 Y-16.966
X-41.045 Y-16.511
X-41.646 Y-16.071
X-42.258 Y-15.646
X-42.881 Y-15.238
X-43.515 Y-14.845
X-44.157 Y-14.468
X-44.809 Y-14.107
X-45.47 Y-13.763
X-46.139 Y-13.436
X-46.817 Y-13.125
X-47.501 Y-12.832
X-48.193 Y-12.556
X-48.892 Y-12.297
X-49.597 Y-12.057
X-50.308 Y-11.834
X-51.025 Y-11.63
X-51.746 Y-11.443
X-52.472 Y-11.274
X-53.202 Y-11.124
X-53.935 Y-10.992
X-54.671 Y-10.878
X-55.41 Y-10.783
X-56.151 Y-10.707
X-56.894 Y-10.649
X-57.638 Y-10.61
X-58.383 Y-10.59
X-59.128 Y-10.589
X-59.873 Y-10.607
X-60.617 Y-10.644
X-61.36 Y-10.699
X-62.102 Y-10.772
X-62.841 Y-10.864
X-63.578 Y-10.974
X-64.312 Y-11.103
X-65.042 Y-11.25
X-65.769 Y-11.416
X-66.491 Y-11.599
X-67.208 Y-11.801
X-67.92 Y-12.021
X-68.626 Y-12.259
X-69.326 Y-12.514
X-70.019 Y-12.786
X-70.706 Y-13.076
X-71.385 Y-13.383
X-72.056 Y-13.706
X-72.719 Y-14.046
X-73.373 Y-14.403
X-74.018 Y-14.775
X-74.654 Y-15.164
X-75.279 Y-15.57
X-75.894 Y-15.99
X-76.498 Y-16.426
X-77.092 Y-16.877
X-77.674 Y-17.342
X-78.244 Y-17.821
X-78.802 Y-18.315
X-79.348 Y-18.822
X-79.881 Y-19.342
X-80.401 Y-19.876
X-80.908 Y-20.422
X-81.401 Y-20.981
X-81.879 Y-21.552
X-82.343 Y-22.135
X-82.793 Y-22.729
X-83.228 Y-23.334
X-83.647 Y-23.95
X-84.051 Y-24.576
X-84.44 Y-25.211
X-84.813 Y-25.856
X-85.17 Y-26.51
X-85.51 Y-27.173
X-85.833 Y-27.844
X-86.14 Y-28.524
X-86.429 Y-29.21
X-86.701 Y-29.904
X-86.956 Y-30.604
X-87.193 Y-31.31
X-87.413 Y-32.022
X-87.615 Y-32.739
X-87.799 Y-33.461
X-87.966 Y-34.187
X-88.115 Y-34.917
X-88.245 Y-35.651
X-88.358 Y-36.387
X-88.451 Y-37.127
X-88.527 Y-37.868
X-88.584 Y-38.611
X-88.622 Y-39.355
X-88.642 Y-40.1
X-88.644 Y-40.845
X-88.627 Y-41.59
X-88.593 Y-42.334
X-88.539 Y-43.077
X-88.468 Y-43.819
X-88.378 Y-44.558
X-88.27 Y-45.295
X-88.143 Y-46.03
X-87.997 Y-46.76
X-87.834 Y-47.487
X-87.652 Y-48.21
X-87.453 Y-48.928
X-87.236 Y-49.64
X-87.002 Y-50.348
X-86.75 Y-51.049
X-86.481 Y-51.744
X-86.195 Y-52.432
X-85.892 Y-53.113
X-85.573 Y-53.786
X-85.236 Y-54.45
X-84.884 Y-55.107
X-84.515 Y-55.754
X-84.13 Y-56.392
X-83.729 Y-57.02
X-83.314 Y-57.638
X-82.883 Y-58.246
X-82.437 Y-58.843
X-81.977 Y-59.429
X-81.503 Y-60.004
X-81.014 Y-60.567
X-80.512 Y-61.117
X-79.996 Y-61.654
X-79.466 Y-62.179
X-78.924 Y-62.689
X-78.369 Y-63.187
X-77.802 Y-63.67
X-77.224 Y-64.14
X-76.634 Y-64.595
X-76.033 Y-65.035
X-75.421 Y-65.46
X-74.799 Y-65.871
X-74.167 Y-66.266
X-73.526 Y-66.645
X-72.875 Y-67.007
X-72.216 Y-67.354
X-71.548 Y-67.684
X-70.872 Y-67.998
X-70.188 Y-68.294
X-69.498 Y-68.574
X-68.801 Y-68.837
X-68.097 Y-69.083
X-67.388 Y-69.311
X-66.673 Y-69.522
X-65.954 Y-69.715
X-65.23 Y-69.89
X-64.501 Y-70.047
X-63.769 Y-70.186
X-63.034 Y-70.306
X-62.296 Y-70.408
X-61.556 Y-70.492
X-60.813 Y-70.558
X-60.07 Y-70.605
X-59.325 Y-70.634
X-58.58 Y-70.645
X-57.835 Y-70.638
X-57.091 Y-70.612
X-56.347 Y-70.568
X-55.605 Y-70.505
X-54.864 Y-70.424
X-54.126 Y-70.325
X-53.39 Y-70.207
X-52.657 Y-70.071
X-51.928 Y-69.918
X-51.203 Y-69.746
X-50.482 Y-69.557
X-49.767 Y-69.351
X-49.056 Y-69.127
X-48.351 Y-68.886
X-47.652 Y-68.627
X-46.96 Y-68.351
X-46.275 Y-68.058
X-45.598 Y-67.748
X-44.928 Y-67.422
X-44.266 Y-67.079
X-43.614 Y-66.72
X-42.97 Y-66.345
X-42.335 Y-65.955
X-41.71 Y-65.549
X-41.095 Y-65.129
X-40.49 Y-64.693
X-39.897 Y-64.243
X-39.314 Y-63.779
X-38.743 Y-63.3
X-38.184 Y-62.807
X-37.637 Y-62.301
X-37.103 Y-61.782
X-36.582 Y-61.25
X-36.073 Y-60.705
X-35.578 Y-60.149
X-35.096 Y-59.58
X-34.628 Y-59
X-34.174 Y-58.409
X-33.735 Y-57.808
X-33.311 Y-57.195
X-32.902 Y-56.573
X-32.508 Y-55.94
X-32.13 Y-55.298
X-31.767 Y-54.647
X-31.421 Y-53.988
X-31.09 Y-53.32
X-30.776 Y-52.644
X-30.478 Y-51.962
X-30.196 Y-51.272
X-29.931 Y-50.575
X-29.683 Y-49.873
X-29.453 Y-49.164
X-29.239 Y-48.45
X-29.044 Y-47.732
X-28.865 Y-47.008
X-28.705 Y-46.281
X-28.562 Y-45.549
X-28.436 Y-44.815
X-28.329 Y-44.078
X-28.239 Y-43.338
X-28.167 Y-42.596
X-28.113 Y-41.853
X-28.077 Y-41.109
X-28.059 Y-40.364
Y-39.619
X-28.078 Y-38.874
X-28.115 Y-38.13
X-28.17 Y-37.387
X-28.243 Y-36.646
X-28.334 Y-35.906
X-28.443 Y-35.169
X-28.57 Y-34.435
X-28.714 Y-33.704
X-28.876 Y-32.977
X-29.056 Y-32.254
X-29.253 Y-31.535
X-29.467 Y-30.822
X-29.699 Y-30.114
X-29.949 Y-29.412
X-30.215 Y-28.716
X-30.499 Y-28.027
X-30.799 Y-27.345
X-31.115 Y-26.67
X-31.447 Y-26.004
X-31.796 Y-25.345
X-32.16 Y-24.695
X-32.54 Y-24.054
X-32.936 Y-23.423
X-33.346 Y-22.801
X-33.772 Y-22.19
X-34.213 Y-21.589
X-34.669 Y-21
X-35.139 Y-20.421
X-35.622 Y-19.855
X-36.119 Y-19.3
X-36.63 Y-18.757
X-37.153 Y-18.227
X-37.689 Y-17.709
X-38.238 Y-17.205
X-38.798 Y-16.714
X-39.37 Y-16.237
X-39.954 Y-15.774
X-40.549 Y-15.325
X-41.155 Y-14.891
X-41.771 Y-14.472
X-42.397 Y-14.068
X-43.032 Y-13.679
X-43.677 Y-13.306
X-44.33 Y-12.948
X-44.992 Y-12.606
X-45.662 Y-12.28
X-46.34 Y-11.97
X-47.025 Y-11.677
X-47.717 Y-11.4
X-48.415 Y-11.141
X-49.12 Y-10.899
X-49.83 Y-10.674
X-50.546 Y-10.466
X-51.266 Y-10.276
X-51.991 Y-10.103
X-52.719 Y-9.947
X-53.451 Y-9.809
X-54.187 Y-9.688
X-54.925 Y-9.585
X-55.665 Y-9.5
X-56.407 Y-9.433
X-57.15 Y-9.384
X-57.895 Y-9.353
X-58.64 Y-9.34
X-59.385 Y-9.346
X-60.129 Y-9.369
X-60.873 Y-9.41
X-61.616 Y-9.468
X-62.357 Y-9.545
X-63.096 Y-9.639
X-63.833 Y-9.751
X-64.567 Y-9.88
X-65.297 Y-10.027
X-66.024 Y-10.192
X-66.746 Y-10.374
X-67.464 Y-10.575
X-68.176 Y-10.792
X-68.884 Y-11.026
X-69.585 Y-11.278
X-70.28 Y-11.546
X-70.969 Y-11.83
X-71.65 Y-12.131
X-72.325 Y-12.448
X-72.991 Y-12.781
X-73.65 Y-13.13
X-74.299 Y-13.494
X-74.94 Y-13.874
X-75.571 Y-14.27
X-76.193 Y-14.681
X-76.805 Y-15.106
X-77.406 Y-15.546
X-77.997 Y-16
X-78.577 Y-16.468
X-79.145 Y-16.95
X-79.702 Y-17.445
X-80.247 Y-17.953
X-80.78 Y-18.474
X-81.3 Y-19.007
X-81.807 Y-19.553
X-82.301 Y-20.111
X-82.781 Y-20.681
X-83.247 Y-21.262
X-83.699 Y-21.854
X-84.137 Y-22.457
X-84.561 Y-23.07
X-84.97 Y-23.692
X-85.364 Y-24.325
X-85.743 Y-24.966
X-86.106 Y-25.617
X-86.454 Y-26.275
X-86.786 Y-26.942
X-87.102 Y-27.617
X-87.402 Y-28.299
X-87.685 Y-28.989
X-87.951 Y-29.684
X-88.201 Y-30.386
X-88.434 Y-31.094
X-88.651 Y-31.807
X-88.85 Y-32.525
X-89.033 Y-33.247
X-89.198 Y-33.974
X-89.346 Y-34.704
X-89.477 Y-35.437
X-89.59 Y-36.174
X-89.685 Y-36.913
X-89.762 Y-37.654
X-89.821 Y-38.396
X-89.863 Y-39.14
X-89.887 Y-39.885
X-89.894 Y-40.63
X-89.883 Y-41.375
X-89.854 Y-42.12
X-89.808 Y-42.863
X-89.744 Y-43.606
X-89.663 Y-44.346
X-89.564 Y-45.085
X-89.447 Y-45.82
X-89.313 Y-46.553
X-89.161 Y-47.283
X-88.992 Y-48.008
X-88.805 Y-48.73
X-88.602 Y-49.446
X-88.381 Y-50.158
X-88.144 Y-50.864
X-87.89 Y-51.565
X-87.62 Y-52.259
X-87.334 Y-52.947
X-87.031 Y-53.628
X-86.712 Y-54.301
X-86.377 Y-54.966
X-86.025 Y-55.624
X-85.659 Y-56.272
X-85.277 Y-56.912
X-84.88 Y-57.542
X-84.468 Y-58.163
X-84.041 Y-58.774
X-83.601 Y-59.375
X-83.146 Y-59.965
X-82.678 Y-60.545
X-82.196 Y-61.113
X-81.7 Y-61.669
X-81.191 Y-62.214
X-80.67 Y-62.746
X-80.136 Y-63.265
X-79.589 Y-63.772
X-79.031 Y-64.265
X-78.461 Y-64.745
X-77.88 Y-65.212
X-77.289 Y-65.664
X-76.686 Y-66.103
X-76.074 Y-66.527
X-75.451 Y-66.937
X-74.82 Y-67.331
X-74.178 Y-67.711
X-73.528 Y-68.075
X-72.87 Y-68.423
X-72.203 Y-68.755
X-71.528 Y-69.072
X-70.846 Y-69.372
X-70.158 Y-69.656
X-69.462 Y-69.924
X-68.761 Y-70.176
X-68.054 Y-70.41
X-67.341 Y-70.628
X-66.624 Y-70.83
X-65.902 Y-71.014
X-65.176 Y-71.181
X-64.446 Y-71.33
X-63.713 Y-71.462
X-62.976 Y-71.576
X-62.238 Y-71.673
X-61.497 Y-71.752
X-60.754 Y-71.814
X-60.011 Y-71.858
X-59.266 Y-71.885
X-58.521 Y-71.895
X-57.776 Y-71.886
X-57.031 Y-71.86
X-56.288 Y-71.817
X-55.545 Y-71.755
X-54.804 Y-71.676
X-54.066 Y-71.578
X-53.329 Y-71.464
X-52.596 Y-71.332
X-51.866 Y-71.183
X-51.14 Y-71.017
X-50.418 Y-70.833
X-49.7 Y-70.633
X-48.987 Y-70.416
X-48.28 Y-70.183
X-47.578 Y-69.933
X-46.882 Y-69.666
X-46.193 Y-69.383
X-45.511 Y-69.083
X-44.836 Y-68.767
X-44.169 Y-68.436
X-43.509 Y-68.089
X-42.858 Y-67.727
X-42.216 Y-67.349
X-41.583 Y-66.957
X-40.959 Y-66.55
X-40.344 Y-66.128
X-39.74 Y-65.693
X-39.146 Y-65.243
X-38.563 Y-64.779
X-37.991 Y-64.301
X-37.431 Y-63.81
X-36.882 Y-63.306
X-36.345 Y-62.79
X-35.821 Y-62.26
X-35.308 Y-61.719
X-34.809 Y-61.166
X-34.322 Y-60.602
X-33.849 Y-60.027
X-33.389 Y-59.441
X-32.943 Y-58.844
X-32.511 Y-58.237
X-32.094 Y-57.62
X-31.691 Y-56.993
X-31.302 Y-56.357
X-30.929 Y-55.712
X-30.571 Y-55.059
X-30.228 Y-54.397
X-29.901 Y-53.728
X-29.589 Y-53.051
X-29.293 Y-52.368
X-29.013 Y-51.677
X-28.749 Y-50.981
X-28.501 Y-50.278
X-28.27 Y-49.57
X-28.055 Y-48.856
X-27.858 Y-48.138
X-27.677 Y-47.415
X-27.514 Y-46.688
X-27.367 Y-45.958
X-27.237 Y-45.224
X-27.124 Y-44.487
X-27.029 Y-43.748
X-26.95 Y-43.008
X-26.889 Y-42.265
X-26.845 Y-41.521
X-26.818 Y-40.777
X-26.808 Y-40.032
X-26.817 Y-39.287
X-26.842 Y-38.542
X-26.886 Y-37.798
X-26.946 Y-37.056
X-27.024 Y-36.315
X-27.119 Y-35.576
X-27.231 Y-34.839
X-27.36 Y-34.105
X-27.507 Y-33.375
X-27.67 Y-32.648
X-27.85 Y-31.925
X-28.047 Y-31.206
X-28.26 Y-30.492
X-28.491 Y-29.784
X-28.739 Y-29.081
X-29.003 Y-28.385
X-29.283 Y-27.694
X-29.579 Y-27.011
X-29.891 Y-26.334
X-30.219 Y-25.665
X-30.562 Y-25.003
X-30.92 Y-24.35
X-31.293 Y-23.705
X-31.681 Y-23.069
X-32.084 Y-22.443
X-32.502 Y-21.826
X-32.934 Y-21.219
X-33.381 Y-20.622
X-33.841 Y-20.036
X-34.314 Y-19.461
X-34.801 Y-18.897
X-35.301 Y-18.345
X-35.814 Y-17.804
X-36.339 Y-17.275
X-36.876 Y-16.759
X-37.425 Y-16.255
X-37.985 Y-15.764
X-38.557 Y-15.287
X-39.14 Y-14.823
X-39.734 Y-14.373
X-40.338 Y-13.937
X-40.953 Y-13.516
X-41.577 Y-13.108
X-42.21 Y-12.716
X-42.852 Y-12.338
X-43.503 Y-11.975
X-44.162 Y-11.627
X-44.829 Y-11.295
X-45.503 Y-10.978
X-46.184 Y-10.676
X-46.873 Y-10.391
X-47.567 Y-10.122
X-48.268 Y-9.87
X-48.975 Y-9.633
X-49.687 Y-9.414
X-50.404 Y-9.21
X-51.125 Y-9.024
X-51.85 Y-8.854
X-52.58 Y-8.701
X-53.312 Y-8.565
X-54.047 Y-8.445
X-54.785 Y-8.343
X-55.526 Y-8.258
X-56.268 Y-8.19
X-57.011 Y-8.14
X-57.755 Y-8.107
X-58.5 Y-8.092
X-59.245 Y-8.094
X-59.99 Y-8.113
X-60.734 Y-8.149
X-61.477 Y-8.202
X-62.219 Y-8.273
X-62.959 Y-8.36
X-63.697 Y-8.465
X-64.432 Y-8.586
X-65.164 Y-8.724
X-65.893 Y-8.88
X-66.618 Y-9.052
X-67.338 Y-9.241
X-68.054 Y-9.447
X-68.765 Y-9.67
X-69.471 Y-9.909
X-70.171 Y-10.163
X-70.865 Y-10.434
X-71.553 Y-10.721
X-72.234 Y-11.023
X-72.908 Y-11.341
X-73.574 Y-11.675
X-74.233 Y-12.023
X-74.883 Y-12.387
X-75.524 Y-12.766
X-76.157 Y-13.16
X-76.78 Y-13.569
X-77.393 Y-13.991
X-77.997 Y-14.428
X-78.59 Y-14.878
X-79.174 Y-15.342
X-79.746 Y-15.819
X-80.307 Y-16.309
X-80.857 Y-16.811
X-81.396 Y-17.326
X-81.922 Y-17.854
X-82.436 Y-18.393
X-82.938 Y-18.944
X-83.426 Y-19.506
X-83.902 Y-20.08
X-84.364 Y-20.664
X-84.813 Y-21.259
X-85.248 Y-21.864
X-85.669 Y-22.479
X-86.076 Y-23.103
X-86.468 Y-23.736
X-86.846 Y-24.378
X-87.21 Y-25.029
X-87.558 Y-25.687
X-87.891 Y-26.354
X-88.208 Y-27.028
X-88.509 Y-27.71
X-88.795 Y-28.398
X-89.064 Y-29.092
X-89.318 Y-29.793
X-89.556 Y-30.499
X-89.777 Y-31.21
X-89.983 Y-31.927
X-90.172 Y-32.647
X-90.344 Y-33.372
X-90.5 Y-34.101
X-90.64 Y-34.833
X-90.762 Y-35.568
X-90.867 Y-36.305
X-90.956 Y-37.045
X-91.027 Y-37.787
X-91.081 Y-38.53
X-91.119 Y-39.274
X-91.139 Y-40.019
X-91.143 Y-40.764
X-91.129 Y-41.509
X-91.099 Y-42.253
X-91.052 Y-42.997
X-90.988 Y-43.739
X-90.907 Y-44.48
X-90.808 Y-45.218
X-90.693 Y-45.954
X-90.56 Y-46.687
X-90.411 Y-47.417
X-90.245 Y-48.144
X-90.062 Y-48.866
X-89.863 Y-49.584
X-89.648 Y-50.297
X-89.417 Y-51.005
X-89.169 Y-51.708
X-88.906 Y-52.405
X-88.627 Y-53.096
X-88.332 Y-53.78
X-88.022 Y-54.458
X-87.696 Y-55.128
X-87.354 Y-55.79
X-86.998 Y-56.444
X-86.627 Y-57.09
X-86.241 Y-57.728
X-85.841 Y-58.356
X-85.426 Y-58.975
X-84.998 Y-59.585
X-84.556 Y-60.184
X-84.1 Y-60.774
X-83.632 Y-61.353
X-83.15 Y-61.921
X-82.655 Y-62.478
X-82.147 Y-63.024
X-81.627 Y-63.557
X-81.094 Y-64.078
X-80.55 Y-64.587
X-79.994 Y-65.083
X-79.428 Y-65.567
X-78.85 Y-66.038
X-78.262 Y-66.495
X-77.664 Y-66.939
X-77.055 Y-67.369
X-76.437 Y-67.786
X-75.81 Y-68.188
X-75.174 Y-68.575
X-74.529 Y-68.948
X-73.875 Y-69.306
X-73.214 Y-69.649
X-72.545 Y-69.976
X-71.868 Y-70.289
X-71.185 Y-70.585
X-70.495 Y-70.867
X-69.799 Y-71.132
X-69.097 Y-71.382
X-68.389 Y-71.616
X-67.677 Y-71.833
X-66.959 Y-72.035
X-66.237 Y-72.219
X-65.512 Y-72.387
X-64.782 Y-72.538
X-64.049 Y-72.673
X-63.313 Y-72.79
X-62.575 Y-72.891
X-61.835 Y-72.974
X-61.093 Y-73.042
X-60.349 Y-73.092
X-59.605 Y-73.125
X-58.86 Y-73.142
X-58.115 Y-73.141
X-57.37 Y-73.124
X-56.626 Y-73.09
X-55.883 Y-73.038
X-55.141 Y-72.969
X-54.401 Y-72.884
X-53.663 Y-72.781
X-52.927 Y-72.662
X-52.195 Y-72.526
X-51.465 Y-72.374
X-50.74 Y-72.205
X-50.018 Y-72.02
X-49.301 Y-71.819
X-48.588 Y-71.602
X-47.88 Y-71.368
X-47.178 Y-71.119
X-46.482 Y-70.853
X-45.793 Y-70.571
X-45.109 Y-70.274
X-44.433 Y-69.961
X-43.764 Y-69.632
X-43.103 Y-69.289
X-42.45 Y-68.931
X-41.804 Y-68.559
X-41.168 Y-68.172
X-40.54 Y-67.771
X-39.921 Y-67.356
X-39.312 Y-66.927
X-38.713 Y-66.484
X-38.123 Y-66.028
X-37.545 Y-65.558
X-36.977 Y-65.076
X-36.42 Y-64.581
X-35.875 Y-64.073
X-35.341 Y-63.554
X-34.819 Y-63.022
X-34.309 Y-62.479
X-33.811 Y-61.925
X-33.326 Y-61.359
X-32.853 Y-60.784
X-32.393 Y-60.197
X-31.947 Y-59.601
X-31.514 Y-58.994
X-31.095 Y-58.378
X-30.691 Y-57.752
X-30.3 Y-57.118
X-29.924 Y-56.474
X-29.563 Y-55.823
X-29.216 Y-55.164
X-28.884 Y-54.497
X-28.566 Y-53.823
X-28.264 Y-53.141
X-27.977 Y-52.454
X-27.706 Y-51.76
X-27.45 Y-51.06
X-27.21 Y-50.355
X-26.986 Y-49.644
X-26.778 Y-48.929
X-26.586 Y-48.209
X-26.411 Y-47.485
X-26.252 Y-46.757
X-26.109 Y-46.026
X-25.982 Y-45.292
X-25.872 Y-44.555
X-25.778 Y-43.816
X-25.701 Y-43.075
X-25.64 Y-42.332
X-25.595 Y-41.588
X-25.568 Y-40.844
X-25.558 Y-40.099
X-25.564 Y-39.354
X-25.588 Y-38.609
X-25.628 Y-37.865
X-25.685 Y-37.122
X-25.759 Y-36.381
X-25.849 Y-35.641
X-25.955 Y-34.904
X-26.078 Y-34.169
X-26.218 Y-33.437
X-26.374 Y-32.708
X-26.546 Y-31.983
X-26.734 Y-31.263
X-26.938 Y-30.546
X-27.159 Y-29.835
X-27.396 Y-29.128
X-27.649 Y-28.427
X-27.917 Y-27.732
X-28.202 Y-27.043
X-28.501 Y-26.361
X-28.816 Y-25.686
X-29.145 Y-25.018
X-29.49 Y-24.357
X-29.849 Y-23.704
X-30.222 Y-23.059
X-30.61 Y-22.423
X-31.012 Y-21.796
X-31.429 Y-21.179
X-31.86 Y-20.57
X-32.304 Y-19.972
X-32.761 Y-19.384
X-33.232 Y-18.807
X-33.715 Y-18.24
X-34.211 Y-17.684
X-34.72 Y-17.139
X-35.24 Y-16.606
X-35.772 Y-16.084
X-36.316 Y-15.575
X-36.87 Y-15.077
X-37.436 Y-14.593
X-38.013 Y-14.121
X-38.6 Y-13.663
X-39.198 Y-13.217
X-39.805 Y-12.786
X-40.422 Y-12.368
X-41.048 Y-11.964
X-41.683 Y-11.574
X-42.327 Y-11.199
X-42.978 Y-10.837
X-43.638 Y-10.491
X-44.305 Y-10.159
X-44.979 Y-9.842
X-45.66 Y-9.54
X-46.348 Y-9.254
X-47.042 Y-8.983
X-47.742 Y-8.729
X-48.448 Y-8.49
X-49.159 Y-8.267
X-49.875 Y-8.059
X-50.595 Y-7.868
X-51.319 Y-7.693
X-52.047 Y-7.534
X-52.778 Y-7.391
X-53.512 Y-7.264
X-54.249 Y-7.154
X-54.988 Y-7.06
X-55.729 Y-6.983
X-56.472 Y-6.922
X-57.216 Y-6.879
X-57.96 Y-6.852
X-58.705 Y-6.841
X-59.45 Y-6.847
X-60.195 Y-6.87
X-60.939 Y-6.909
X-61.682 Y-6.965
X-62.424 Y-7.037
X-63.163 Y-7.126
X-63.901 Y-7.231
X-64.636 Y-7.352
X-65.368 Y-7.489
X-66.097 Y-7.644
X-66.823 Y-7.814
X-67.544 Y-8.001
X-68.261 Y-8.204
X-68.973 Y-8.423
X-69.68 Y-8.658
X-70.382 Y-8.908
X-71.078 Y-9.174
X-71.768 Y-9.455
X-72.452 Y-9.751
X-73.129 Y-10.062
X-73.799 Y-10.388
X-74.461 Y-10.728
X-75.116 Y-11.084
X-75.763 Y-11.454
X-76.401 Y-11.838
X-77.03 Y-12.237
X-77.651 Y-12.65
X-78.262 Y-13.076
X-78.864 Y-13.515
X-79.456 Y-13.968
X-80.037 Y-14.433
X-80.609 Y-14.911
X-81.17 Y-15.402
X-81.719 Y-15.905
X-82.258 Y-16.419
X-82.785 Y-16.946
X-83.3 Y-17.485
X-83.803 Y-18.034
X-84.293 Y-18.595
X-84.771 Y-19.167
X-85.236 Y-19.749
X-85.688 Y-20.341
X-86.127 Y-20.943
X-86.553 Y-21.555
X-86.965 Y-22.175
X-87.364 Y-22.805
X-87.748 Y-23.443
X-88.119 Y-24.089
X-88.475 Y-24.744
X-88.816 Y-25.406
X-89.142 Y-26.076
X-89.454 Y-26.753
X-89.75 Y-27.436
X-90.031 Y-28.126
X-90.297 Y-28.822
X-90.548 Y-29.524
X-90.783 Y-30.231
X-91.002 Y-30.943
X-91.206 Y-31.66
X-91.394 Y-32.381
X-91.567 Y-33.106
X-91.723 Y-33.834
X-91.863 Y-34.566
X-91.987 Y-35.301
X-92.094 Y-36.038
X-92.185 Y-36.777
X-92.259 Y-37.519
X-92.317 Y-38.261
X-92.359 Y-39.005
X-92.384 Y-39.75
X-92.393 Y-40.495
X-92.386 Y-41.24
X-92.363 Y-41.985
X-92.323 Y-42.729
X-92.267 Y-43.472
X-92.195 Y-44.213
X-92.106 Y-44.953
X-92.001 Y-45.691
X-91.879 Y-46.426
X-91.741 Y-47.158
X-91.587 Y-47.887
X-91.417 Y-48.612
X-91.231 Y-49.334
X-91.029 Y-50.051
X-90.812 Y-50.764
X-90.579 Y-51.471
X-90.331 Y-52.174
X-90.067 Y-52.871
X-89.789 Y-53.562
X-89.494 Y-54.246
X-89.185 Y-54.924
X-88.861 Y-55.595
X-88.522 Y-56.258
X-88.168 Y-56.914
X-87.8 Y-57.562
X-87.418 Y-58.201
X-87.022 Y-58.832
X-86.612 Y-59.455
X-86.189 Y-60.068
X-85.752 Y-60.672
X-85.302 Y-61.266
X-84.84 Y-61.85
X-84.365 Y-62.424
X-83.877 Y-62.987
X-83.377 Y-63.539
X-82.864 Y-64.08
X-82.34 Y-64.609
X-81.804 Y-65.127
X-81.257 Y-65.633
X-80.699 Y-66.127
X-80.131 Y-66.608
X-79.552 Y-67.077
X-78.963 Y-67.533
X-78.364 Y-67.976
X-77.755 Y-68.406
X-77.137 Y-68.823
X-76.511 Y-69.226
X-75.875 Y-69.614
X-75.231 Y-69.988
X-74.578 Y-70.348
X-73.918 Y-70.694
X-73.251 Y-71.025
X-72.576 Y-71.341
X-71.894 Y-71.642
X-71.207 Y-71.928
X-70.513 Y-72.2
X-69.813 Y-72.456
X-69.108 Y-72.697
X-68.398 Y-72.922
X-67.683 Y-73.132
X-66.963 Y-73.325
X-66.24 Y-73.503
X-65.513 Y-73.665
X-64.782 Y-73.81
X-64.048 Y-73.94
X-63.312 Y-74.053
X-62.573 Y-74.15
X-61.832 Y-74.231
X-61.09 Y-74.296
X-60.347 Y-74.344
X-59.602 Y-74.377
X-58.857 Y-74.393
X-58.112
X-57.367 Y-74.376
X-56.623 Y-74.343
X-55.88 Y-74.293
X-55.138 Y-74.226
X-54.397 Y-74.144
X-53.659 Y-74.045
X-52.923 Y-73.93
X-52.189 Y-73.799
X-51.459 Y-73.652
X-50.732 Y-73.489
X-50.008 Y-73.31
X-49.289 Y-73.116
X-48.574 Y-72.906
X-47.864 Y-72.681
X-47.159 Y-72.44
X-46.459 Y-72.184
X-45.766 Y-71.912
X-45.078 Y-71.625
X-44.397 Y-71.323
X-43.723 Y-71.006
X-43.055 Y-70.674
X-42.395 Y-70.329
X-41.743 Y-69.969
X-41.099 Y-69.594
X-40.463 Y-69.206
X-39.835 Y-68.805
X-39.216 Y-68.39
X-38.607 Y-67.961
X-38.007 Y-67.519
X-37.417 Y-67.064
X-36.837 Y-66.597
X-36.268 Y-66.116
X-35.709 Y-65.624
X-35.161 Y-65.119
X-34.624 Y-64.602
X-34.098 Y-64.075
X-33.583 Y-63.536
X-33.081 Y-62.986
X-32.59 Y-62.425
X-32.112 Y-61.854
X-31.645 Y-61.273
X-31.192 Y-60.681
X-30.752 Y-60.08
X-30.324 Y-59.47
X-29.911 Y-58.85
X-29.51 Y-58.222
X-29.124 Y-57.585
X-28.751 Y-56.94
X-28.392 Y-56.287
X-28.048 Y-55.626
X-27.718 Y-54.958
X-27.402 Y-54.284
X-27.1 Y-53.602
X-26.814 Y-52.914
X-26.542 Y-52.221
X-26.285 Y-51.521
X-26.044 Y-50.816
X-25.818 Y-50.106
X-25.608 Y-49.391
X-25.414 Y-48.672
X-25.235 Y-47.949
X-25.071 Y-47.222
X-24.924 Y-46.492
X-24.792 Y-45.758
X-24.676 Y-45.022
X-24.575 Y-44.284
X-24.491 Y-43.544
X-24.422 Y-42.802
X-24.369 Y-42.059
X-24.333 Y-41.315
X-24.313 Y-40.57
X-24.309 Y-39.825
X-24.321 Y-39.08
X-24.349 Y-38.335
X-24.394 Y-37.592
X-24.454 Y-36.849
X-24.531 Y-36.108
X-24.623 Y-35.369
X-24.732 Y-34.632
X-24.856 Y-33.897
X-24.996 Y-33.165
X-25.152 Y-32.437
X-25.323 Y-31.711
X-25.511 Y-30.99
X-25.714 Y-30.274
X-25.933 Y-29.561
X-26.167 Y-28.854
X-26.417 Y-28.152
X-26.682 Y-27.456
X-26.962 Y-26.765
X-27.256 Y-26.081
X-27.566 Y-25.403
X-27.89 Y-24.732
X-28.228 Y-24.068
X-28.58 Y-23.412
X-28.947 Y-22.763
X-29.327 Y-22.122
X-29.722 Y-21.49
X-30.13 Y-20.867
X-30.551 Y-20.253
X-30.986 Y-19.648
X-31.434 Y-19.052
X-31.895 Y-18.467
X-32.368 Y-17.891
X-32.853 Y-17.326
X-33.351 Y-16.771
X-33.86 Y-16.228
X-34.381 Y-15.695
X-34.913 Y-15.174
X-35.457 Y-14.664
X-36.011 Y-14.166
X-36.576 Y-13.681
X-37.152 Y-13.208
X-37.738 Y-12.747
X-38.334 Y-12.3
X-38.939 Y-11.865
X-39.553 Y-11.444
X-40.177 Y-11.036
X-40.809 Y-10.642
X-41.449 Y-10.261
X-42.098 Y-9.894
X-42.754 Y-9.541
X-43.417 Y-9.202
X-44.088 Y-8.877
X-44.765 Y-8.567
X-45.45 Y-8.272
X-46.14 Y-7.992
X-46.836 Y-7.726
X-47.538 Y-7.476
X-48.245 Y-7.242
X-48.957 Y-7.022
X-49.674 Y-6.818
X-50.394 Y-6.629
X-51.119 Y-6.456
X-51.847 Y-6.298
X-52.578 Y-6.155
X-53.313 Y-6.029
X-54.049 Y-5.918
X-54.788 Y-5.823
X-55.529 Y-5.745
X-56.272 Y-5.682
X-57.015 Y-5.636
X-57.76 Y-5.606
X-58.505 Y-5.591
X-59.25 Y-5.593
X-59.995 Y-5.611
X-60.739 Y-5.645
X-61.482 Y-5.694
X-62.225 Y-5.76
X-62.965 Y-5.841
X-63.704 Y-5.938
X-64.44 Y-6.051
X-65.174 Y-6.179
X-65.905 Y-6.324
X-66.633 Y-6.484
X-67.357 Y-6.66
X-68.077 Y-6.851
X-68.793 Y-7.058
X-69.504 Y-7.28
X-70.21 Y-7.518
X-70.911 Y-7.77
X-71.607 Y-8.037
X-72.296 Y-8.319
X-72.98 Y-8.616
X-73.657 Y-8.927
X-74.327 Y-9.252
X-74.99 Y-9.592
X-75.646 Y-9.946
X-76.293 Y-10.315
X-76.933 Y-10.697
X-77.564 Y-11.093
X-78.187 Y-11.502
X-78.8 Y-11.924
X-79.405 Y-12.359
X-80 Y-12.808
X-80.586 Y-13.268
X-81.162 Y-13.741
X-81.727 Y-14.226
X-82.283 Y-14.723
X-82.827 Y-15.231
X-83.361 Y-15.751
X-83.883 Y-16.283
X-84.393 Y-16.825
X-84.892 Y-17.379
X-85.379 Y-17.943
X-85.854 Y-18.517
X-86.317 Y-19.101
X-86.766 Y-19.695
X-87.204 Y-20.298
X-87.628 Y-20.911
X-88.039 Y-21.532
X-88.438 Y-22.162
X-88.822 Y-22.8
X-89.193 Y-23.446
X-89.55 Y-24.1
X-89.893 Y-24.761
X-90.221 Y-25.43
X-90.535 Y-26.106
X-90.834 Y-26.788
X-91.119 Y-27.477
X-91.389 Y-28.171
X-91.645 Y-28.871
X-91.885 Y-29.576
X-92.11 Y-30.286
X-92.321 Y-31.001
X-92.516 Y-31.72
X-92.696 Y-32.443
X-92.861 Y-33.17
X-93.01 Y-33.9
X-93.144 Y-34.633
X-93.261 Y-35.368
X-93.363 Y-36.106
X-93.45 Y-36.846
X-93.52 Y-37.588
X-93.575 Y-38.331
X-93.614 Y-39.075
X-93.637 Y-39.82
X-93.645 Y-40.565
X-93.637 Y-41.31
X-93.613 Y-42.055
X-93.573 Y-42.799
X-93.518 Y-43.542
X-93.446 Y-44.283
X-93.359 Y-45.023
X-93.256 Y-45.761
X-93.137 Y-46.497
X-93.002 Y-47.229
X-92.852 Y-47.959
X-92.686 Y-48.686
X-92.505 Y-49.408
X-92.309 Y-50.127
X-92.098 Y-50.842
X-91.871 Y-51.551
X-91.63 Y-52.256
X-91.374 Y-52.956
X-91.103 Y-53.65
X-90.818 Y-54.338
X-90.517 Y-55.02
X-90.203 Y-55.696
X-89.874 Y-56.364
X-89.53 Y-57.025
X-89.173 Y-57.679
X-88.802 Y-58.325
X-88.417 Y-58.963
X-88.02 Y-59.593
X-87.608 Y-60.215
X-87.184 Y-60.827
X-86.747 Y-61.431
X-86.298 Y-62.025
X-85.836 Y-62.609
X-85.361 Y-63.184
X-84.875 Y-63.748
X-84.376 Y-64.302
X-83.866 Y-64.844
X-83.344 Y-65.376
X-82.811 Y-65.897
X-82.267 Y-66.406
X-81.712 Y-66.903
X-81.147 Y-67.389
X-80.572 Y-67.863
X-79.987 Y-68.324
X-79.392 Y-68.773
X-78.789 Y-69.21
X-78.176 Y-69.633
X-77.554 Y-70.044
X-76.923 Y-70.441
X-76.285 Y-70.824
X-75.638 Y-71.194
X-74.983 Y-71.55
X-74.321 Y-71.891
X-73.652 Y-72.219
X-72.976 Y-72.533
X-72.294 Y-72.832
X-71.605 Y-73.117
X-70.911 Y-73.387
X-70.211 Y-73.643
X-69.506 Y-73.884
X-68.796 Y-74.109
X-68.081 Y-74.32
X-67.362 Y-74.515
X-66.639 Y-74.695
X-65.913 Y-74.859
X-65.182 Y-75.008
X-64.449 Y-75.141
X-63.714 Y-75.259
X-62.976 Y-75.361
X-62.236 Y-75.447
X-61.494 Y-75.518
X-60.751 Y-75.573
X-60.007 Y-75.613
X-59.262 Y-75.637
X-58.517 Y-75.645
X-57.772 Y-75.637
X-57.027 Y-75.614
X-56.283 Y-75.575
X-55.54 Y-75.519
X-54.799 Y-75.448
X-54.059 Y-75.362
X-53.321 Y-75.259
X-52.585 Y-75.141
X-51.852 Y-75.008
X-51.122 Y-74.859
X-50.395 Y-74.695
X-49.672 Y-74.516
X-48.953 Y-74.322
X-48.238 Y-74.113
X-47.527 Y-73.888
X-46.822 Y-73.649
X-46.122 Y-73.394
X-45.427 Y-73.124
X-44.738 Y-72.84
X-44.056 Y-72.542
X-43.379 Y-72.229
X-42.71 Y-71.902
X-42.048 Y-71.561
X-41.392 Y-71.206
X-40.745 Y-70.837
X-40.105 Y-70.456
X-39.473 Y-70.06
X-38.85 Y-69.652
X-38.235 Y-69.231
X-37.63 Y-68.797
X-37.034 Y-68.35
X-36.447 Y-67.891
X-35.87 Y-67.419
X-35.303 Y-66.936
X-34.747 Y-66.44
X-34.201 Y-65.933
X-33.666 Y-65.415
X-33.141 Y-64.886
X-32.628 Y-64.346
X-32.126 Y-63.795
X-31.635 Y-63.235
X-31.156 Y-62.664
X-30.69 Y-62.083
X-30.235 Y-61.493
X-29.793 Y-60.893
X-29.364 Y-60.283
X-28.948 Y-59.665
X-28.545 Y-59.039
X-28.155 Y-58.404
X-27.779 Y-57.761
X-27.416 Y-57.11
X-27.066 Y-56.453
X-26.73 Y-55.787
X-26.408 Y-55.116
X-26.1 Y-54.437
X-25.806 Y-53.753
X-25.526 Y-53.062
X-25.261 Y-52.366
X-25.011 Y-51.664
X-24.775 Y-50.957
X-24.554 Y-50.246
X-24.348 Y-49.53
X-24.158 Y-48.809
X-23.982 Y-48.085
X-23.821 Y-47.358
X-23.676 Y-46.627
X-23.545 Y-45.893
X-23.43 Y-45.157
X-23.33 Y-44.419
X-23.246 Y-43.679
X-23.176 Y-42.937
X-23.123 Y-42.194
X-23.085 Y-41.45
X-23.063 Y-40.705
X-23.056 Y-39.96
X-23.066 Y-39.215
X-23.09 Y-38.47
X-23.131 Y-37.726
X-23.186 Y-36.983
X-23.258 Y-36.242
X-23.344 Y-35.502
X-23.446 Y-34.764
X-23.564 Y-34.028
X-23.696 Y-33.295
X-23.844 Y-32.564
X-24.007 Y-31.837
X-24.185 Y-31.114
X-24.378 Y-30.394
X-24.587 Y-29.679
X-24.81 Y-28.968
X-25.049 Y-28.262
X-25.302 Y-27.562
X-25.57 Y-26.866
X-25.852 Y-26.177
X-26.148 Y-25.493
X-26.459 Y-24.816
X-26.783 Y-24.145
X-27.122 Y-23.482
X-27.474 Y-22.825
X-27.84 Y-22.176
X-28.219 Y-21.535
X-28.612 Y-20.902
X-29.018 Y-20.277
X-29.438 Y-19.661
X-29.87 Y-19.054
X-30.314 Y-18.456
X-30.771 Y-17.868
X-31.241 Y-17.289
X-31.722 Y-16.721
X-32.215 Y-16.162
X-32.719 Y-15.613
X-33.235 Y-15.076
X-33.761 Y-14.549
X-34.299 Y-14.033
X-34.847 Y-13.528
X-35.406 Y-13.035
X-35.975 Y-12.554
X-36.554 Y-12.085
X-37.142 Y-11.628
X-37.74 Y-11.184
X-38.348 Y-10.752
X-38.964 Y-10.333
X-39.588 Y-9.927
X-40.221 Y-9.534
X-40.862 Y-9.154
X-41.511 Y-8.788
X-42.167 Y-8.434
X-42.83 Y-8.095
X-43.5 Y-7.77
X-44.177 Y-7.458
X-44.861 Y-7.161
X-45.55 Y-6.879
X-46.245 Y-6.611
X-46.946 Y-6.357
X-47.652 Y-6.118
X-48.362 Y-5.894
X-49.077 Y-5.685
X-49.796 Y-5.49
X-50.52 Y-5.311
X-51.246 Y-5.146
X-51.419 Y-5.111
X-51.468 Y-5.102
X-51.518 Y-5.097
X-51.567 Y-5.095
X-64.769
X-65.513 Y-5.133
X-66.255 Y-5.202
X-66.99 Y-5.325
X-67.718 Y-5.483
X-68.441 Y-5.665
X-69.158 Y-5.867
X-69.87 Y-6.086
X-70.577 Y-6.321
X-71.278 Y-6.571
X-71.975 Y-6.837
X-72.665 Y-7.116
X-73.35 Y-7.41
X-74.028 Y-7.718
X-74.7 Y-8.04
X-75.365 Y-8.376
X-76.023 Y-8.726
X-76.673 Y-9.09
X-77.316 Y-9.466
X-77.951 Y-9.857
X-78.578 Y-10.26
X-79.196 Y-10.675
X-79.805 Y-11.104
X-80.406 Y-11.545
X-80.997 Y-11.998
X-81.579 Y-12.463
X-82.152 Y-12.94
X-82.715 Y-13.428
X-83.267 Y-13.928
X-83.809 Y-14.439
X-84.34 Y-14.962
X-84.861 Y-15.495
X-85.37 Y-16.039
X-85.868 Y-16.593
X-86.355 Y-17.157
X-86.829 Y-17.731
X-87.292 Y-18.315
X-87.743 Y-18.909
X-88.181 Y-19.511
X-88.607 Y-20.123
X-89.02 Y-20.743
X-89.42 Y-21.371
X-89.808 Y-22.007
X-90.182 Y-22.652
X-90.543 Y-23.304
X-90.89 Y-23.963
X-91.223 Y-24.629
X-91.543 Y-25.302
X-91.849 Y-25.982
X-92.14 Y-26.667
X-92.418 Y-27.359
X-92.681 Y-28.056
X-92.93 Y-28.758
X-93.164 Y-29.465
X-93.384 Y-30.177
X-93.59 Y-30.893
X-93.781 Y-31.613
X-93.957 Y-32.337
X-94.118 Y-33.065
X-94.264 Y-33.795
X-94.395 Y-34.529
X-94.511 Y-35.265
X-94.612 Y-36.003
X-94.698 Y-36.743
X-94.768 Y-37.485
X-94.823 Y-38.228
X-94.863 Y-38.972
X-94.888 Y-39.716
X-94.897 Y-40.461
X-94.891 Y-41.207
X-94.87 Y-41.951
X-94.834 Y-42.695
X-94.782 Y-43.439
X-94.715 Y-44.181
X-94.633 Y-44.921
X-94.535 Y-45.66
X-94.422 Y-46.396
X-94.294 Y-47.13
X-94.151 Y-47.862
X-93.993 Y-48.59
X-93.82 Y-49.314
X-93.633 Y-50.035
X-93.431 Y-50.753
X-93.214 Y-51.465
X-92.983 Y-52.174
X-92.737 Y-52.877
X-92.477 Y-53.575
X-92.203 Y-54.268
X-91.914 Y-54.955
X-91.612 Y-55.636
X-91.296 Y-56.311
X-90.966 Y-56.979
X-90.622 Y-57.64
X-90.264 Y-58.293
X-89.894 Y-58.94
X-89.51 Y-59.578
X-89.113 Y-60.209
X-88.703 Y-60.831
X-88.281 Y-61.445
X-87.846 Y-62.05
X-87.399 Y-62.646
X-86.94 Y-63.233
X-86.469 Y-63.81
X-85.986 Y-64.378
X-85.492 Y-64.935
X-84.986 Y-65.482
X-84.469 Y-66.018
X-83.941 Y-66.544
X-83.402 Y-67.059
X-82.853 Y-67.563
X-82.294 Y-68.055
X-81.725 Y-68.536
X-81.146 Y-69.005
X-80.558 Y-69.463
X-79.961 Y-69.908
X-79.355 Y-70.341
X-78.74 Y-70.762
X-78.116 Y-71.169
X-77.484 Y-71.564
X-76.845 Y-71.946
X-76.197 Y-72.315
X-75.542 Y-72.67
X-74.88 Y-73.012
X-74.211 Y-73.34
X-73.536 Y-73.654
X-72.854 Y-73.955
X-72.166 Y-74.241
X-71.473 Y-74.513
X-70.774 Y-74.772
X-70.07 Y-75.015
X-69.361 Y-75.245
X-68.647 Y-75.459
X-67.93 Y-75.659
X-67.208 Y-75.845
X-67.036 Y-75.885
X-66.98 Y-75.896
X-66.923 Y-75.902
X-66.867 Y-75.905
X-51.392
X-50.648 Y-75.867
X-49.908 Y-75.778
X-49.177 Y-75.635
X-48.453 Y-75.458
X-47.736 Y-75.256
X-47.025 Y-75.034
X-46.319 Y-74.795
X-45.619 Y-74.54
X-44.924 Y-74.271
X-44.235 Y-73.987
X-43.553 Y-73.689
X-42.876 Y-73.376
X-42.206 Y-73.05
X-41.543 Y-72.711
X-40.887 Y-72.358
X-40.238 Y-71.991
X-39.597 Y-71.612
X-38.963 Y-71.22
X-38.338 Y-70.815
X-37.721 Y-70.398
X-37.112 Y-69.968
X-36.512 Y-69.525
X-35.922 Y-69.071
X-35.341 Y-68.605
X-34.769 Y-68.127
X-34.207 Y-67.638
X-33.656 Y-67.137
X-33.114 Y-66.625
X-32.583 Y-66.103
X-32.062 Y-65.57
X-31.552 Y-65.026
X-31.054 Y-64.473
X-30.566 Y-63.91
X-30.09 Y-63.337
X-29.625 Y-62.754
X-29.173 Y-62.162
X-28.732 Y-61.561
X-28.304 Y-60.951
X-27.889 Y-60.333
X-27.485 Y-59.707
X-27.095 Y-59.072
X-26.718 Y-58.43
X-26.353 Y-57.78
X-26.002 Y-57.122
X-25.664 Y-56.458
X-25.34 Y-55.788
X-25.029 Y-55.111
X-24.732 Y-54.428
X-24.448 Y-53.739
X-24.178 Y-53.044
X-23.923 Y-52.344
X-23.681 Y-51.639
X-23.454 Y-50.93
X-23.242 Y-50.216
X-23.044 Y-49.497
X-22.86 Y-48.775
X-22.691 Y-48.05
X-22.536 Y-47.321
X-22.396 Y-46.589
X-22.271 Y-45.855
X-22.16 Y-45.118
X-22.064 Y-44.379
X-21.983 Y-43.638
X-21.917 Y-42.896
X-21.867 Y-42.153
X-21.831 Y-41.409
X-21.81 Y-40.664
X-21.804 Y-39.919
X-21.814 Y-39.174
X-21.838 Y-38.429
X-21.878 Y-37.685
X-21.933 Y-36.942
X-22.002 Y-36.2
X-22.087 Y-35.46
X-22.187 Y-34.722
X-22.301 Y-33.985
X-22.43 Y-33.252
X-22.574 Y-32.521
X-22.732 Y-31.793
X-22.905 Y-31.068
X-23.093 Y-30.347
X-23.296 Y-29.63
X-23.513 Y-28.917
X-23.744 Y-28.209
X-23.99 Y-27.505
X-24.25 Y-26.807
X-24.524 Y-26.114
X-24.811 Y-25.427
X-25.113 Y-24.746
X-25.428 Y-24.07
X-25.756 Y-23.402
X-26.098 Y-22.74
X-26.453 Y-22.085
X-26.821 Y-21.437
X-27.203 Y-20.797
X-27.597 Y-20.165
X-28.004 Y-19.541
X-28.424 Y-18.925
X-28.856 Y-18.318
X-29.3 Y-17.72
X-29.757 Y-17.131
X-30.225 Y-16.552
X-30.705 Y-15.982
X-31.196 Y-15.422
X-31.698 Y-14.871
X-32.212 Y-14.331
X-32.736 Y-13.802
X-33.27 Y-13.283
X-33.815 Y-12.774
X-34.37 Y-12.277
X-34.935 Y-11.792
X-35.51 Y-11.318
X-36.094 Y-10.855
X-36.688 Y-10.405
X-37.29 Y-9.967
X-37.901 Y-9.54
X-38.521 Y-9.127
X-39.149 Y-8.725
X-39.784 Y-8.336
X-40.428 Y-7.961
X-41.078 Y-7.597
X-41.736 Y-7.248
X-42.401 Y-6.911
X-43.072 Y-6.588
X-43.75 Y-6.278
X-44.434 Y-5.983
X-45.123 Y-5.701
X-45.819 Y-5.433
X-46.519 Y-5.179
X-46.65 Y-5.135
X-46.728 Y-5.113
X-46.808 Y-5.1
X-46.889 Y-5.095
X-51.567
G3 X-51.688 Y-5.124 I0.011 J-0.317
G1 X-51.752 Y-5.153 Z-3.157
X-51.813 Y-5.181 Z-3.134
X-51.868 Y-5.206 Z-3.096
X-51.914 Y-5.227 Z-3.045
X-51.948 Y-5.243 Z-2.985
X-51.97 Y-5.252 Z-2.918
X-51.977 Y-5.256 Z-2.848
G0 Z5.08
X-51.108 Y-75.681
Z-2.53
G1 Z-2.848 F5080
X-51.116 Y-75.684 Z-2.918
X-51.138 Y-75.691 Z-2.985
X-51.174 Y-75.703 Z-3.045
X-51.222 Y-75.719 Z-3.096
X-51.279 Y-75.738 Z-3.134
X-51.342 Y-75.759 Z-3.157
X-51.409 Y-75.781 Z-3.165
G3 X-51.392 Y-75.905 I0.02 J-0.06
G1 X-46.989
X-46.565 Y-75.883
X-46.075 Y-75.819
X-45.401 Y-75.675
X-44.688 Y-75.461
X-43.987 Y-75.208
X-43.297 Y-74.928
X-42.615 Y-74.627
X-41.94 Y-74.31
X-41.273 Y-73.978
X-40.613 Y-73.633
X-39.961 Y-73.274
X-39.315 Y-72.901
X-38.677 Y-72.517
X-38.047 Y-72.12
X-37.424 Y-71.71
X-36.81 Y-71.289
X-36.204 Y-70.855
X-35.607 Y-70.41
X-35.018 Y-69.953
X-34.439 Y-69.484
X-33.869 Y-69.005
X-33.308 Y-68.514
X-32.757 Y-68.012
X-32.216 Y-67.5
X-31.685 Y-66.977
X-31.164 Y-66.444
X-30.654 Y-65.902
X-30.155 Y-65.349
X-29.666 Y-64.786
X-29.189 Y-64.214
X-28.722 Y-63.633
X-28.268 Y-63.043
X-27.825 Y-62.444
X-27.393 Y-61.836
X-26.974 Y-61.22
X-26.567 Y-60.596
X-26.172 Y-59.965
X-26.145 Y-59.92
X-26.087 Y-59.799
X-26.052 Y-59.67
X-26.04 Y-59.536
X-26.041 Y-59.445
X-26.031 Y-59.276
X-26.008 Y-59.107
X-25.84 Y-58.261
X-25.802 Y-58.092
X-25.755 Y-57.923
X-25.696 Y-57.754
X-25.616 Y-57.585
X-25.515 Y-57.415
X-25.484 Y-57.365
X-24.976 Y-56.606
X-24.951 Y-56.57
X-24.807 Y-56.387
X-24.652 Y-56.231
X-24.458 Y-56.022
X-24.195 Y-55.687
X-23.874 Y-55.203
X-23.514 Y-54.551
X-23.201 Y-53.875
X-22.918 Y-53.185
X-22.658 Y-52.487
X-22.417 Y-51.782
X-22.192 Y-51.072
X-21.982 Y-50.357
X-21.787 Y-49.638
X-21.606 Y-48.915
X-21.439 Y-48.189
X-21.287 Y-47.46
X-21.148 Y-46.727
X-21.024 Y-45.993
X-20.914 Y-45.256
X-20.819 Y-44.517
X-20.738 Y-43.776
X-20.671 Y-43.034
X-20.619 Y-42.291
X-20.582 Y-41.547
X-20.559 Y-40.802
X-20.551 Y-40.057
X-20.558 Y-39.312
X-20.579 Y-38.567
X-20.615 Y-37.823
X-20.665 Y-37.08
X-20.73 Y-36.338
X-20.809 Y-35.597
X-20.903 Y-34.858
X-21.011 Y-34.12
X-21.133 Y-33.385
X-21.27 Y-32.653
X-21.421 Y-31.923
X-21.586 Y-31.197
X-21.765 Y-30.474
X-21.958 Y-29.754
X-22.166 Y-29.038
X-22.387 Y-28.327
X-22.622 Y-27.62
X-22.871 Y-26.918
X-23.134 Y-26.221
X-23.274 Y-25.868
X-23.348 Y-25.73
X-23.448 Y-25.609
X-23.572 Y-25.513
X-23.791 Y-25.378
X-23.96 Y-25.266
X-24.45 Y-24.938
X-24.468 Y-24.924
X-24.637 Y-24.783
X-24.807 Y-24.613
X-24.951 Y-24.43
X-25.291 Y-23.923
X-25.484 Y-23.635
X-25.515 Y-23.585
X-25.616 Y-23.415
X-25.696 Y-23.246
X-25.755 Y-23.077
X-25.802 Y-22.908
X-25.84 Y-22.739
X-26.008 Y-21.893
X-26.031 Y-21.724
X-26.041 Y-21.555
X-26.049 Y-21.399
X-26.084 Y-21.142
X-26.154 Y-20.822
X-26.275 Y-20.426
X-26.48 Y-19.906
X-26.809 Y-19.238
X-27.186 Y-18.595
X-27.593 Y-17.971
X-28.021 Y-17.361
X-28.465 Y-16.763
X-28.922 Y-16.175
X-29.393 Y-15.597
X-29.875 Y-15.029
X-30.368 Y-14.47
X-30.872 Y-13.922
X-31.387 Y-13.383
X-31.912 Y-12.855
X-32.447 Y-12.336
X-32.993 Y-11.829
X-33.548 Y-11.332
X-34.113 Y-10.846
X-34.687 Y-10.371
X-35.271 Y-9.908
X-35.863 Y-9.457
X-36.465 Y-9.017
X-37.074 Y-8.588
X-37.692 Y-8.172
X-38.318 Y-7.768
X-38.952 Y-7.376
X-39.593 Y-6.996
X-40.241 Y-6.629
X-40.896 Y-6.274
X-41.558 Y-5.932
X-42.227 Y-5.603
X-42.901 Y-5.288
X-43.19 Y-5.159
X-43.287 Y-5.124
X-43.388 Y-5.103
X-43.491 Y-5.095
X-46.889
G3 X-47.009 Y-5.124 I0.011 J-0.317
G1 X-47.074 Y-5.153 Z-3.157
X-47.135 Y-5.181 Z-3.134
X-47.189 Y-5.206 Z-3.096
X-47.235 Y-5.227 Z-3.045
X-47.27 Y-5.243 Z-2.985
X-47.291 Y-5.252 Z-2.918
X-47.298 Y-5.256 Z-2.848
G0 Z5.08
X-26.263 Y-21.27
Z-2.53
G1 Z-2.848 F5080
X-26.26 Y-21.278 Z-2.918
X-26.253 Y-21.3 Z-2.985
X-26.241 Y-21.336 Z-3.045
X-26.226 Y-21.384 Z-3.096
X-26.207 Y-21.441 Z-3.134
X-26.186 Y-21.505 Z-3.157
X-26.164 Y-21.572 Z-3.165
G3 X-26.041 Y-21.555 I0.06 J0.02
G1 X-26.04 Y-21.386
X-26.024 Y-21.216
X-25.996 Y-21.047
X-25.895 Y-20.54
X-25.827 Y-20.201
X-25.804 Y-20.051
X-25.794 Y-19.879
X-25.798 Y-19.675
X-25.824 Y-19.422
X-25.876 Y-19.136
X-25.97 Y-18.785
X-26.122 Y-18.357
X-26.372 Y-17.801
X-26.731 Y-17.148
X-27.134 Y-16.521
X-27.565 Y-15.914
X-28.017 Y-15.321
X-28.484 Y-14.74
X-28.964 Y-14.171
X-29.457 Y-13.612
X-29.96 Y-13.063
X-30.474 Y-12.523
X-30.999 Y-11.994
X-31.533 Y-11.475
X-32.078 Y-10.967
X-32.632 Y-10.468
X-33.195 Y-9.981
X-33.768 Y-9.504
X-34.349 Y-9.038
X-34.939 Y-8.584
X-35.538 Y-8.14
X-36.145 Y-7.708
X-36.76 Y-7.287
X-37.383 Y-6.878
X-38.013 Y-6.481
X-38.651 Y-6.096
X-39.296 Y-5.723
X-39.947 Y-5.361
X-40.286 Y-5.182
X-40.397 Y-5.134
X-40.513 Y-5.105
X-40.633 Y-5.095
X-43.491
G3 X-43.611 Y-5.124 I0.011 J-0.317
G1 X-43.676 Y-5.153 Z-3.157
X-43.737 Y-5.181 Z-3.134
X-43.792 Y-5.206 Z-3.096
X-43.837 Y-5.227 Z-3.045
X-43.872 Y-5.243 Z-2.985
X-43.893 Y-5.252 Z-2.918
X-43.9 Y-5.256 Z-2.848
G0 Z5.08
X-25.99 Y-19.879
Z-2.53
G1 Z-2.848 F5080
X-25.989 Y-19.887 Z-2.918
X-25.986 Y-19.91 Z-2.985
X-25.981 Y-19.948 Z-3.045
X-25.975 Y-19.998 Z-3.096
X-25.968 Y-20.058 Z-3.134
X-25.96 Y-20.124 Z-3.157
X-25.952 Y-20.194 Z-3.165
G3 X-25.827 Y-20.201 I0.063 J0.008
G1 X-25.823 Y-20.179
X-25.788 Y-20.032
X-25.737 Y-19.863
X-25.653 Y-19.667
X-25.58 Y-19.525
X-25.527 Y-19.437
X-25.455 Y-19.303
X-25.397 Y-19.162
X-25.354 Y-19.016
X-25.324 Y-18.861
X-25.302 Y-18.67
X-25.296 Y-18.472
X-25.307 Y-18.235
X-25.346 Y-17.938
X-25.411 Y-17.629
X-25.529 Y-17.233
X-25.704 Y-16.78
X-25.988 Y-16.193
X-26.365 Y-15.55
X-26.783 Y-14.933
X-27.228 Y-14.335
X-27.692 Y-13.753
X-28.172 Y-13.183
X-28.666 Y-12.625
X-29.17 Y-12.077
X-29.686 Y-11.539
X-30.212 Y-11.011
X-30.748 Y-10.493
X-31.293 Y-9.986
X-31.848 Y-9.488
X-32.412 Y-9.001
X-32.984 Y-8.525
X-33.566 Y-8.059
X-34.156 Y-7.604
X-34.754 Y-7.159
X-35.36 Y-6.726
X-35.974 Y-6.304
X-36.596 Y-5.894
X-37.225 Y-5.495
X-37.702 Y-5.204
X-37.823 Y-5.144
X-37.953 Y-5.108
X-38.087 Y-5.095
X-40.633
G3 X-40.754 Y-5.124 I0.011 J-0.317
G1 X-40.818 Y-5.153 Z-3.157
X-40.879 Y-5.181 Z-3.134
X-40.934 Y-5.206 Z-3.096
X-40.98 Y-5.227 Z-3.045
X-41.014 Y-5.243 Z-2.985
X-41.035 Y-5.252 Z-2.918
X-41.043 Y-5.256 Z-2.848
G0 Z5.08
X-25.572 Y-19.079
Z-2.53
G1 Z-2.848 F5080
X-25.574 Y-19.087 Z-2.918
X-25.579 Y-19.11 Z-2.985
X-25.587 Y-19.146 Z-3.045
X-25.598 Y-19.195 Z-3.096
X-25.612 Y-19.254 Z-3.134
X-25.626 Y-19.32 Z-3.157
X-25.642 Y-19.389 Z-3.165
G3 X-25.527 Y-19.437 I0.062 J-0.014
G1 X-25.477 Y-19.356
X-24.976 Y-18.607
X-24.938 Y-18.553
X-24.855 Y-18.425
X-24.789 Y-18.288
X-24.737 Y-18.145
X-24.697 Y-17.997
X-24.664 Y-17.816
X-24.642 Y-17.609
X-24.637 Y-17.384
X-24.653 Y-17.101
X-24.694 Y-16.804
X-24.774 Y-16.443
X-24.901 Y-16.03
X-25.102 Y-15.524
