%
(1)
(wood-contour0)
(T5  D=3.175 CR=0 - ZMIN=-9 - flat end mill)
G90
G17
G21
G28 G91 Z0
G90

(2D Contour5)
M9
T5 M6
S16000 M3
G54
M9
G0 X-116.775 Y-35.657
Z15.24
Z7.35
G1 Z-4.183 F762
Y-35.665 Z-4.253
Y-35.689 Z-4.32
X-116.776 Y-35.727 Z-4.38
Y-35.777 Z-4.431
X-116.777 Y-35.837 Z-4.469
Y-35.904 Z-4.492
X-116.778 Y-35.975 Z-4.5
X-116.781 Y-36.292 F1524
G3 X-116.466 Y-36.612 I0.317 J-0.003
G2 X-112.613 Y-40.5 I-0.034 J-3.887
X-120.387 I-3.887 J0
X-116.5 Y-36.612 I3.887 J0
X-116.466 I0.017 J-3.888
G3 X-116.147 Y-36.296 I0.001 J0.317
G1 X-116.146 Y-35.979
X-116.145 Y-35.908 Z-4.492
Y-35.841 Z-4.469
Y-35.781 Z-4.431
Y-35.731 Z-4.38
X-116.144 Y-35.693 Z-4.32
Y-35.669 Z-4.253
Y-35.661 Z-4.183
G0 Z5.08
X-116.775 Y-35.657
G1 Z2.85 F1524
Z-8.683 F762
Y-35.665 Z-8.753
Y-35.689 Z-8.82
X-116.776 Y-35.727 Z-8.88
Y-35.777 Z-8.931
X-116.777 Y-35.837 Z-8.969
Y-35.904 Z-8.992
X-116.778 Y-35.975 Z-9
X-116.781 Y-36.292 F1524
G3 X-116.466 Y-36.612 I0.317 J-0.003
G2 X-112.613 Y-40.5 I-0.034 J-3.887
X-120.387 I-3.887 J0
X-116.5 Y-36.612 I3.887 J0
X-116.466 I0.017 J-3.888
G3 X-116.147 Y-36.296 I0.001 J0.317
G1 X-116.146 Y-35.979
X-116.145 Y-35.908 Z-8.992
Y-35.841 Z-8.969
Y-35.781 Z-8.931
Y-35.731 Z-8.88
X-116.144 Y-35.693 Z-8.82
Y-35.669 Z-8.753
Y-35.661 Z-8.683
G0 Z7.35
X-116.148 Y-5.54
G1 Z-4.183 F762
G19 G3 Y-5.222 Z-4.5 J0.318 K0
G1 Y-4.905 F1524
G17 G3 X-116.466 Y-4.588 I-0.317 J0
G1 X-177.375
X-207.875
X-228.413
Y-76.412
X-4.588
Y-4.588
X-116.466
G3 X-116.783 Y-4.905 I0 J-0.318
G1 Y-5.222
G19 G2 Y-5.54 Z-4.183 J0 K0.318
G0 Z5.08
X-116.148
G1 Z2.85 F1524
Z-8.683 F762
G3 Y-5.222 Z-9 J0.318 K0
G1 Y-4.905 F1524
G17 G3 X-116.466 Y-4.588 I-0.317 J0
G1 X-177.375
X-207.875
X-228.413
Y-76.412
X-4.588
Y-4.588
X-116.466
G3 X-116.783 Y-4.905 I0 J-0.318
G1 Y-5.222
G19 G2 Y-5.54 Z-8.683 J0 K0.318
G0 Z7.35
X-207.096 Y-23.532
G1 Z-4.183 F762
X-207.103 Y-23.528 Z-4.253
X-207.123 Y-23.517 Z-4.32
X-207.156 Y-23.498 Z-4.38
X-207.201 Y-23.474 Z-4.431
X-207.253 Y-23.446 Z-4.469
X-207.312 Y-23.414 Z-4.492
X-207.375 Y-23.38 Z-4.5
X-207.654 Y-23.228 F1524
G17 G3 X-208.084 Y-23.356 I-0.152 J-0.279
G2 X-214.916 Y-19.644 I-3.416 J1.856
X-208.084 Y-23.356 I3.416 J-1.856
G3 X-207.957 Y-23.786 I0.279 J-0.152
G1 X-207.678 Y-23.938
X-207.616 Y-23.972 Z-4.492
X-207.557 Y-24.004 Z-4.469
X-207.504 Y-24.032 Z-4.431
X-207.46 Y-24.056 Z-4.38
X-207.426 Y-24.075 Z-4.32
X-207.406 Y-24.086 Z-4.253
X-207.399 Y-24.09 Z-4.183
G0 Z5.08
X-211.833 Y-16.661
G1 Z2.85 F1524
Z-8.683 F762
Y-16.669 Z-8.753
Y-16.693 Z-8.82
Y-16.73 Z-8.88
Y-16.781 Z-8.931
Y-16.841 Z-8.969
Y-16.908 Z-8.992
X-211.832 Y-16.979 Z-9
X-211.831 Y-17.296 F1524
G3 X-211.513 Y-17.613 I0.318 J0.001
G2 X-211.487 Y-25.387 I0.013 J-3.887
X-211.513 Y-17.613 I-0.013 J3.887
G3 X-211.196 Y-17.294 I-0.001 J0.317
G1 X-211.197 Y-16.976
X-211.198 Y-16.906 Z-8.992
Y-16.839 Z-8.969
Y-16.779 Z-8.931
Y-16.728 Z-8.88
Y-16.69 Z-8.82
Y-16.667 Z-8.753
Y-16.659 Z-8.683
G0 Z7.35
X-211.805 Y-54.66
G1 Z-4.183 F762
Y-54.668 Z-4.253
Y-54.692 Z-4.32
Y-54.73 Z-4.38
Y-54.78 Z-4.431
Y-54.84 Z-4.469
Y-54.907 Z-4.492
Y-54.978 Z-4.5
X-211.804 Y-55.295 F1524
G3 X-211.486 Y-55.612 I0.318 J0
G2 X-211.466 I0.003 J-3.888
X-207.613 Y-59.5 I-0.034 J-3.887
X-215.387 I-3.887 J0
X-211.5 Y-55.612 I3.887 J0
X-211.486 I0.017 J-3.888
G3 X-211.169 Y-55.295 I0 J0.318
G1 X-211.17 Y-54.977
Y-54.907 Z-4.492
Y-54.839 Z-4.469
Y-54.779 Z-4.431
Y-54.729 Z-4.38
Y-54.691 Z-4.32
Y-54.668 Z-4.253
Y-54.66 Z-4.183
G0 Z5.08
X-216.339 Y-59.833
G1 Z2.85 F1524
Z-8.683 F762
X-216.331 Z-8.753
X-216.307 Z-8.82
X-216.27 Z-8.88
X-216.219 Z-8.931
X-216.159 Z-8.969
X-216.092 Z-8.992
X-216.021 Y-59.832 Z-9
X-215.704 Y-59.831 F1524
G3 X-215.387 Y-59.513 I-0.001 J0.317
G2 X-211.5 Y-55.612 I3.887 J0.013
X-211.466 I0.017 J-3.888
X-207.613 Y-59.5 I-0.034 J-3.887
X-215.387 Y-59.513 I-3.887 J0
G3 X-215.706 Y-59.196 I-0.317 J-0.001
G1 X-216.024 Y-59.197
X-216.094 Y-59.198 Z-8.992
X-216.161 Z-8.969
X-216.221 Z-8.931
X-216.272 Z-8.88
X-216.31 Z-8.82
X-216.333 Z-8.753
X-216.341 Z-8.683
G0 Z7.35
X-25.904 Y-57.468
G1 Z-4.183 F762
X-25.897 Y-57.472 Z-4.253
X-25.877 Y-57.483 Z-4.32
X-25.844 Y-57.502 Z-4.38
X-25.799 Y-57.526 Z-4.431
X-25.747 Y-57.554 Z-4.469
X-25.688 Y-57.586 Z-4.492
X-25.625 Y-57.62 Z-4.5
X-25.346 Y-57.772 F1524
G3 X-24.916 Y-57.644 I0.152 J0.279
G2 X-21.5 Y-55.612 I3.416 J-1.856
X-21.466 I0.017 J-3.888
X-17.612 Y-59.5 I-0.034 J-3.887
X-25.388 I-3.888 J0
X-24.916 Y-57.644 I3.888 J0
G3 X-25.043 Y-57.214 I-0.279 J0.152
G1 X-25.322 Y-57.062
X-25.384 Y-57.028 Z-4.492
X-25.443 Y-56.996 Z-4.469
X-25.496 Y-56.968 Z-4.431
X-25.54 Y-56.944 Z-4.38
X-25.574 Y-56.925 Z-4.32
X-25.594 Y-56.914 Z-4.253
X-25.601 Y-56.91 Z-4.183
G0 Z5.08
X-16.661 Y-59.167
G1 Z2.85 F1524
Z-8.683 F762
X-16.669 Z-8.753
X-16.693 Z-8.82
X-16.73 Z-8.88
X-16.781 Z-8.931
X-16.841 Z-8.969
X-16.908 Z-8.992
X-16.979 Y-59.168 Z-9
X-17.296 Y-59.169 F1524
G3 X-17.613 Y-59.487 I0.001 J-0.317
G2 X-17.612 Y-59.5 I-3.888 J-0.013
X-25.388 I-3.888 J0
X-21.5 Y-55.612 I3.888 J0
X-21.466 I0.017 J-3.888
X-17.613 Y-59.487 I-0.034 J-3.887
G3 X-17.294 Y-59.804 I0.317 J0.001
G1 X-16.976 Y-59.803
X-16.906 Y-59.802 Z-8.992
X-16.839 Z-8.969
X-16.779 Z-8.931
X-16.728 Z-8.88
X-16.69 Z-8.82
X-16.667 Z-8.753
X-16.659 Z-8.683
G0 Z7.35
X-20.747 Y-26.292
G1 Z-4.183 F762
X-20.748 Y-26.284 Z-4.253
X-20.75 Y-26.26 Z-4.32
X-20.753 Y-26.223 Z-4.38
X-20.758 Y-26.173 Z-4.431
X-20.763 Y-26.113 Z-4.469
X-20.769 Y-26.046 Z-4.492
X-20.776 Y-25.975 Z-4.5
X-20.804 Y-25.659 F1524
G3 X-21.149 Y-25.372 I-0.316 J-0.029
G2 X-25.384 Y-21.676 I-0.351 J3.872
X-21.5 Y-17.612 I3.884 J0.176
X-21.466 I0.017 J-3.888
X-17.612 Y-21.5 I-0.034 J-3.887
X-21.149 Y-25.372 I-3.888 J0
G3 X-21.437 Y-25.716 I0.029 J-0.316
G1 X-21.408 Y-26.033
X-21.402 Y-26.103 Z-4.492
X-21.396 Y-26.17 Z-4.469
X-21.39 Y-26.23 Z-4.431
X-21.386 Y-26.28 Z-4.38
X-21.382 Y-26.318 Z-4.32
X-21.38 Y-26.341 Z-4.253
X-21.379 Y-26.349 Z-4.183
G0 Z5.08
X-16.661 Y-21.167
G1 Z2.85 F1524
Z-8.683 F762
X-16.669 Z-8.753
X-16.693 Z-8.82
X-16.73 Z-8.88
X-16.781 Z-8.931
X-16.841 Z-8.969
X-16.908 Z-8.992
X-16.979 Y-21.168 Z-9
X-17.296 Y-21.169 F1524
G3 X-17.613 Y-21.487 I0.001 J-0.317
G2 X-17.612 Y-21.5 I-3.888 J-0.013
X-25.388 I-3.888 J0
X-21.5 Y-17.612 I3.888 J0
X-21.466 I0.017 J-3.888
X-17.613 Y-21.487 I-0.034 J-3.887
G3 X-17.294 Y-21.804 I0.317 J0.001
G1 X-16.976 Y-21.803
X-16.906 Y-21.802 Z-8.992
X-16.839 Z-8.969
X-16.779 Z-8.931
X-16.728 Z-8.88
X-16.69 Z-8.82
X-16.667 Z-8.753
X-16.659 Z-8.683
G0 Z15.24
M9
G28 G91 Z0
G28 X0 Y0
M30
%
