%
(1001)
(planck-fullcut-top-acrylic)
(T5  D=3.175 CR=0 - ZMIN=-12.192 - flat end mill)
G90
G17
G21
G28 G91 Z0
G90

(2D Adaptive11)
M9
T5 M6
S16000 M3
G54
M7
G0 X-126.912 Y-49.294
Z15.144
Z4.984
Z2.761
G1 Z2.444 F711.2
G2 X-127.088 Y-52.306 Z2.279 I-0.088 J-1.506
X-126.912 Y-49.294 Z2.113 I0.088 J1.506
X-127.088 Y-52.306 Z1.948 I-0.088 J-1.506
X-126.912 Y-49.294 Z1.782 I0.088 J1.506
X-127.088 Y-52.306 Z1.617 I-0.088 J-1.506
X-126.912 Y-49.294 Z1.451 I0.088 J1.506
X-127.088 Y-52.306 Z1.286 I-0.088 J-1.506
X-126.912 Y-49.294 Z1.12 I0.088 J1.506
X-127.088 Y-52.306 Z0.955 I-0.088 J-1.506
X-126.912 Y-49.294 Z0.789 I0.088 J1.506
X-127.088 Y-52.306 Z0.624 I-0.088 J-1.506
X-126.912 Y-49.294 Z0.459 I0.088 J1.506
X-127.088 Y-52.306 Z0.293 I-0.088 J-1.506
X-126.912 Y-49.294 Z0.128 I0.088 J1.506
X-127.088 Y-52.306 Z-0.038 I-0.088 J-1.506
X-126.912 Y-49.294 Z-0.203 I0.088 J1.506
X-127.088 Y-52.306 Z-0.369 I-0.088 J-1.506
X-126.912 Y-49.294 Z-0.534 I0.088 J1.506
X-127.088 Y-52.306 Z-0.7 I-0.088 J-1.506
X-126.912 Y-49.294 Z-0.865 I0.088 J1.506
X-127.088 Y-52.306 Z-1.03 I-0.088 J-1.506
X-126.912 Y-49.294 Z-1.196 I0.088 J1.506
X-127.088 Y-52.306 Z-1.361 I-0.088 J-1.506
X-126.912 Y-49.294 Z-1.527 I0.088 J1.506
X-127.088 Y-52.306 Z-1.692 I-0.088 J-1.506
X-126.912 Y-49.294 Z-1.858 I0.088 J1.506
X-127.088 Y-52.306 Z-2.023 I-0.088 J-1.506
X-126.912 Y-49.294 Z-2.189 I0.088 J1.506
X-127.088 Y-52.306 Z-2.354 I-0.088 J-1.506
X-126.912 Y-49.294 Z-2.52 I0.088 J1.506
X-127.088 Y-52.306 Z-2.685 I-0.088 J-1.506
X-126.912 Y-49.294 Z-2.85 I0.088 J1.506
X-127.088 Y-52.306 Z-3.016 I-0.088 J-1.506
X-126.912 Y-49.294 Z-3.181 I0.088 J1.506
X-125.492 Y-50.8 Z-3.261 I-0.088 J-1.506
X-128.508 I-1.508 J0
X-125.492 I1.508 J0
G1 X-125.472 Y-51.545 F5080
X-125.451 Y-51.635
X-125.437 Y-51.787
X-125.451 Y-51.939
X-125.489 Y-52.087
X-125.547 Y-52.228
X-125.621 Y-52.361
X-125.71 Y-52.484
X-125.812 Y-52.598
X-125.924 Y-52.701
X-126.045 Y-52.793
X-126.174 Y-52.875
X-126.31 Y-52.944
X-126.451 Y-53.002
X-126.599 Y-53.05
X-126.755 Y-53.087
X-126.916 Y-53.111
X-127.082 Y-53.123
X-127.252 Y-53.121
X-127.423 Y-53.106
X-127.595 Y-53.076
X-127.766 Y-53.032
X-127.935 Y-52.974
X-128.1 Y-52.902
X-128.261 Y-52.816
X-128.415 Y-52.717
X-128.562 Y-52.605
X-128.7 Y-52.48
X-128.828 Y-52.344
X-128.945 Y-52.198
X-129.051 Y-52.042
X-129.145 Y-51.878
X-129.225 Y-51.706
X-129.291 Y-51.528
X-129.343 Y-51.344
X-129.38 Y-51.157
X-129.402 Y-50.966
X-129.408 Y-50.775
X-129.399 Y-50.583
X-129.375 Y-50.392
X-129.336 Y-50.204
X-129.281 Y-50.019
X-129.212 Y-49.839
X-129.128 Y-49.665
X-129.031 Y-49.498
X-128.92 Y-49.339
X-128.798 Y-49.19
X-128.663 Y-49.051
X-128.518 Y-48.923
X-128.363 Y-48.808
X-128.199 Y-48.705
X-128.027 Y-48.615
X-127.848 Y-48.54
X-127.665 Y-48.479
X-127.476 Y-48.433
X-127.285 Y-48.402
X-127.092 Y-48.387
X-126.898 Y-48.388
X-126.705 Y-48.403
X-126.513 Y-48.435
X-126.325 Y-48.481
X-126.141 Y-48.543
X-125.963 Y-48.619
X-125.791 Y-48.709
X-125.628 Y-48.813
X-125.473 Y-48.93
X-125.327 Y-49.058
X-125.193 Y-49.198
X-125.07 Y-49.348
X-124.96 Y-49.508
X-124.855 Y-49.689
X-124.742 Y-49.927
X-124.591 Y-50.324
X-124.497 Y-50.644
X-124.442 Y-50.915
X-124.411 Y-51.165
X-124.401 Y-51.401
X-124.409 Y-51.623
X-124.434 Y-51.835
X-124.475 Y-52.04
X-124.533 Y-52.24
X-124.606 Y-52.436
X-124.695 Y-52.625
X-124.799 Y-52.806
X-124.917 Y-52.979
X-125.05 Y-53.143
X-125.198 Y-53.298
X-125.359 Y-53.442
X-125.534 Y-53.575
X-125.721 Y-53.695
X-125.92 Y-53.8
X-126.131 Y-53.891
X-126.351 Y-53.966
X-126.579 Y-54.024
X-126.815 Y-54.064
X-127.056 Y-54.085
X-127.3 Y-54.086
X-127.547 Y-54.068
X-127.794 Y-54.03
X-128.039 Y-53.971
X-128.281 Y-53.892
X-128.517 Y-53.794
X-128.746 Y-53.676
X-128.966 Y-53.539
X-129.176 Y-53.383
X-129.374 Y-53.211
X-129.559 Y-53.022
X-129.728 Y-52.818
X-129.882 Y-52.601
X-130.017 Y-52.37
X-130.134 Y-52.129
X-130.232 Y-51.879
X-130.31 Y-51.62
X-130.367 Y-51.356
X-130.402 Y-51.087
X-130.416 Y-50.816
X-130.408 Y-50.544
X-130.378 Y-50.274
X-130.326 Y-50.006
X-130.253 Y-49.743
X-130.159 Y-49.486
X-130.045 Y-49.238
X-129.911 Y-48.999
X-129.758 Y-48.772
X-129.587 Y-48.557
X-129.4 Y-48.357
X-129.196 Y-48.172
X-128.979 Y-48.005
X-128.749 Y-47.855
X-128.507 Y-47.724
X-128.256 Y-47.613
X-127.997 Y-47.522
X-127.731 Y-47.453
X-127.46 Y-47.405
X-127.186 Y-47.379
X-126.911 Y-47.374
X-126.637 Y-47.393
X-126.365 Y-47.433
X-126.096 Y-47.494
X-125.834 Y-47.577
X-125.579 Y-47.681
X-125.334 Y-47.805
X-125.099 Y-47.949
X-124.876 Y-48.11
X-124.665 Y-48.291
X-124.459 Y-48.498
X-124.245 Y-48.752
X-124.047 Y-49.029
X-123.865 Y-49.332
X-123.706 Y-49.651
X-123.576 Y-49.976
X-123.475 Y-50.302
X-123.403 Y-50.626
X-123.358 Y-50.945
X-123.34 Y-51.261
X-123.347 Y-51.572
X-123.378 Y-51.878
X-123.433 Y-52.178
X-123.511 Y-52.47
X-123.613 Y-52.754
X-123.736 Y-53.027
X-123.881 Y-53.29
X-124.046 Y-53.541
X-124.232 Y-53.778
X-124.437 Y-54.001
X-124.661 Y-54.208
X-124.902 Y-54.397
X-125.16 Y-54.568
X-125.433 Y-54.719
X-125.72 Y-54.849
X-126.019 Y-54.956
X-126.328 Y-55.039
X-126.646 Y-55.098
X-126.97 Y-55.132
X-127.297 Y-55.139
X-127.627 Y-55.12
X-127.957 Y-55.075
X-128.284 Y-55.002
X-128.606 Y-54.903
X-128.922 Y-54.777
X-129.227 Y-54.626
X-129.522 Y-54.45
X-129.802 Y-54.25
X-130.067 Y-54.026
X-130.315 Y-53.781
X-130.542 Y-53.516
X-130.749 Y-53.233
X-130.933 Y-52.933
X-131.092 Y-52.618
X-131.226 Y-52.29
X-131.334 Y-51.951
X-131.415 Y-51.605
X-131.467 Y-51.252
X-131.491 Y-50.896
X-131.486 Y-50.538
X-131.453 Y-50.181
X-131.391 Y-49.828
X-131.3 Y-49.48
X-131.182 Y-49.141
X-131.037 Y-48.812
X-130.866 Y-48.495
X-130.67 Y-48.193
X-130.45 Y-47.907
X-130.208 Y-47.64
X-129.945 Y-47.392
X-129.663 Y-47.167
X-129.363 Y-46.965
X-129.049 Y-46.788
X-128.721 Y-46.636
X-128.381 Y-46.512
X-128.033 Y-46.414
X-127.678 Y-46.345
X-127.319 Y-46.305
X-126.957 Y-46.294
X-126.596 Y-46.312
X-126.237 Y-46.359
X-125.883 Y-46.434
X-125.537 Y-46.538
X-125.199 Y-46.669
X-124.873 Y-46.827
X-124.557 Y-47.012
X-124.247 Y-47.23
X-123.946 Y-47.479
X-123.657 Y-47.761
X-123.385 Y-48.072
X-123.135 Y-48.409
X-122.912 Y-48.767
X-122.718 Y-49.142
X-122.556 Y-49.529
X-122.427 Y-49.924
X-122.33 Y-50.325
X-122.267 Y-50.729
X-122.236 Y-51.133
X-122.238 Y-51.534
X-122.272 Y-51.931
X-122.338 Y-52.322
X-122.434 Y-52.704
X-122.56 Y-53.076
X-122.715 Y-53.436
X-122.898 Y-53.783
X-123.109 Y-54.113
X-123.346 Y-54.426
X-123.608 Y-54.72
X-123.894 Y-54.993
X-124.202 Y-55.244
X-124.531 Y-55.47
X-124.879 Y-55.67
X-125.244 Y-55.842
X-125.625 Y-55.986
X-126.018 Y-56.099
X-126.421 Y-56.18
X-126.832 Y-56.23
X-127.248 Y-56.246
X-127.666 Y-56.229
X-128.084 Y-56.178
X-128.499 Y-56.093
X-128.908 Y-55.975
X-129.307 Y-55.823
X-129.696 Y-55.639
X-130.07 Y-55.423
X-130.427 Y-55.177
X-130.764 Y-54.902
X-131.079 Y-54.6
X-131.37 Y-54.273
X-131.635 Y-53.921
X-131.872 Y-53.549
X-132.078 Y-53.158
X-132.252 Y-52.751
X-132.394 Y-52.33
X-132.502 Y-51.898
X-132.575 Y-51.458
X-132.612 Y-51.012
X-132.613 Y-50.565
X-132.579 Y-50.118
X-132.508 Y-49.675
X-132.403 Y-49.239
X-132.262 Y-48.812
X-132.088 Y-48.397
X-131.88 Y-47.998
X-131.641 Y-47.616
X-131.372 Y-47.254
X-131.075 Y-46.915
X-130.751 Y-46.601
X-130.403 Y-46.314
X-130.033 Y-46.055
X-129.643 Y-45.827
X-129.236 Y-45.631
X-128.815 Y-45.468
X-128.382 Y-45.339
X-127.939 Y-45.246
X-127.491 Y-45.188
X-127.039 Y-45.166
X-126.587 Y-45.181
X-126.138 Y-45.232
X-125.694 Y-45.319
X-125.258 Y-45.442
X-124.83 Y-45.6
X-124.412 Y-45.794
X-124.006 Y-46.024
X-123.614 Y-46.289
X-123.237 Y-46.591
X-122.879 Y-46.929
X-122.544 Y-47.299
X-122.238 Y-47.699
X-121.963 Y-48.124
X-121.723 Y-48.57
X-121.52 Y-49.033
X-121.355 Y-49.51
X-121.23 Y-49.996
X-121.144 Y-50.487
X-121.099 Y-50.982
X-121.093 Y-51.475
X-121.127 Y-51.965
X-121.2 Y-52.449
X-121.311 Y-52.924
X-121.459 Y-53.387
X-121.643 Y-53.835
X-121.863 Y-54.268
X-122.117 Y-54.681
X-122.404 Y-55.073
X-122.721 Y-55.441
X-123.069 Y-55.784
X-123.444 Y-56.099
X-123.844 Y-56.384
X-124.268 Y-56.636
X-124.713 Y-56.855
X-125.176 Y-57.039
X-125.654 Y-57.185
X-126.145 Y-57.293
X-126.646 Y-57.362
X-127.153 Y-57.39
X-127.663 Y-57.378
X-128.173 Y-57.324
X-128.679 Y-57.229
X-129.178 Y-57.093
X-129.666 Y-56.917
X-130.141 Y-56.702
X-130.598 Y-56.448
X-131.035 Y-56.157
X-131.449 Y-55.831
X-131.837 Y-55.472
X-132.195 Y-55.081
X-132.522 Y-54.662
X-132.815 Y-54.217
X-133.072 Y-53.749
X-133.291 Y-53.26
X-133.47 Y-52.755
X-133.609 Y-52.236
X-133.705 Y-51.706
X-133.759 Y-51.17
X-133.77 Y-50.63
X-133.737 Y-50.091
X-133.661 Y-49.555
X-133.542 Y-49.027
X-133.381 Y-48.51
X-133.179 Y-48.006
X-132.937 Y-47.521
X-132.656 Y-47.056
X-132.339 Y-46.614
X-131.988 Y-46.2
X-131.604 Y-45.815
X-131.19 Y-45.461
X-130.749 Y-45.142
X-130.284 Y-44.86
X-129.798 Y-44.615
X-129.293 Y-44.41
X-128.773 Y-44.247
X-128.242 Y-44.125
X-127.703 Y-44.047
X-127.159 Y-44.012
X-126.614 Y-44.021
X-126.071 Y-44.074
X-125.533 Y-44.17
X-125.003 Y-44.31
X-124.482 Y-44.493
X-123.973 Y-44.719
X-123.479 Y-44.988
X-123.001 Y-45.3
X-122.545 Y-45.653
X-122.114 Y-46.046
X-121.713 Y-46.476
X-121.345 Y-46.94
X-121.014 Y-47.434
X-120.723 Y-47.954
X-120.475 Y-48.496
X-120.271 Y-49.055
X-120.113 Y-49.627
X-120.002 Y-50.208
X-119.939 Y-50.794
X-119.922 Y-51.382
X-119.953 Y-51.966
X-120.03 Y-52.545
X-120.153 Y-53.114
X-120.321 Y-53.67
X-120.533 Y-54.21
X-120.788 Y-54.732
X-121.083 Y-55.231
X-121.418 Y-55.705
X-121.791 Y-56.151
X-122.198 Y-56.567
X-122.639 Y-56.95
X-123.111 Y-57.298
X-123.611 Y-57.607
X-124.135 Y-57.876
X-124.682 Y-58.103
X-125.247 Y-58.286
X-125.828 Y-58.424
X-126.42 Y-58.515
X-127.02 Y-58.558
X-127.623 Y-58.553
X-128.227 Y-58.5
X-128.827 Y-58.398
X-129.419 Y-58.247
X-129.999 Y-58.049
X-130.563 Y-57.804
X-131.107 Y-57.513
X-131.628 Y-57.179
X-132.121 Y-56.803
X-132.585 Y-56.387
X-133.014 Y-55.935
X-133.407 Y-55.448
X-133.76 Y-54.93
X-134.071 Y-54.384
X-134.338 Y-53.814
X-134.559 Y-53.224
X-134.732 Y-52.616
X-134.855 Y-51.996
X-134.929 Y-51.367
X-134.952 Y-50.733
X-134.924 Y-50.099
X-134.845 Y-49.468
X-134.716 Y-48.846
X-134.537 Y-48.235
X-134.309 Y-47.64
X-134.034 Y-47.065
X-133.714 Y-46.514
X-133.35 Y-45.989
X-132.945 Y-45.496
X-132.502 Y-45.036
X-132.023 Y-44.613
X-131.511 Y-44.23
X-130.971 Y-43.889
X-130.404 Y-43.593
X-129.815 Y-43.343
X-129.209 Y-43.141
X-128.587 Y-42.988
X-127.956 Y-42.885
X-127.318 Y-42.834
X-126.677
X-126.038 Y-42.885
X-125.403 Y-42.988
X-124.776 Y-43.142
X-124.159 Y-43.348
X-123.557 Y-43.603
X-122.972 Y-43.909
X-122.409 Y-44.264
X-121.872 Y-44.666
X-121.365 Y-45.113
X-120.892 Y-45.603
X-120.459 Y-46.132
X-120.067 Y-46.696
X-119.721 Y-47.292
X-119.423 Y-47.914
X-119.177 Y-48.557
X-118.983 Y-49.217
X-118.843 Y-49.89
X-118.758 Y-50.57
X-118.728 Y-51.252
X-118.752 Y-51.934
X-118.831 Y-52.609
X-118.964 Y-53.275
X-119.149 Y-53.927
X-119.386 Y-54.561
X-119.673 Y-55.174
X-120.008 Y-55.762
X-120.389 Y-56.321
X-120.815 Y-56.849
X-121.282 Y-57.341
X-121.788 Y-57.796
X-122.331 Y-58.209
X-122.906 Y-58.578
X-123.511 Y-58.901
X-124.141 Y-59.175
X-124.794 Y-59.399
X-125.465 Y-59.569
X-126.149 Y-59.686
X-126.843 Y-59.748
X-127.542 Y-59.754
X-128.242 Y-59.703
X-128.938 Y-59.596
X-129.625 Y-59.434
X-130.298 Y-59.215
X-130.955 Y-58.943
X-131.589 Y-58.618
X-132.196 Y-58.242
X-132.773 Y-57.817
X-133.316 Y-57.347
X-133.82 Y-56.833
X-134.282 Y-56.279
X-134.699 Y-55.689
X-135.068 Y-55.066
X-135.386 Y-54.414
X-135.651 Y-53.738
X-135.862 Y-53.041
X-136.016 Y-52.329
X-136.113 Y-51.606
X-136.151 Y-50.877
X-136.131 Y-50.146
X-136.052 Y-49.419
X-135.915 Y-48.7
X-135.72 Y-47.993
X-135.47 Y-47.304
X-135.164 Y-46.637
X-134.806 Y-45.997
X-134.397 Y-45.386
X-133.941 Y-44.811
X-133.439 Y-44.273
X-132.896 Y-43.778
X-132.315 Y-43.327
X-131.699 Y-42.925
X-131.053 Y-42.573
X-130.381 Y-42.274
X-129.686 Y-42.03
X-128.974 Y-41.843
X-128.25 Y-41.713
X-127.517 Y-41.642
X-126.779 Y-41.63
X-126.043 Y-41.677
X-125.31 Y-41.783
X-124.586 Y-41.948
X-123.875 Y-42.172
X-123.184 Y-42.452
X-122.518 Y-42.786
X-121.881 Y-43.171
X-121.275 Y-43.605
X-120.706 Y-44.085
X-120.175 Y-44.608
X-119.686 Y-45.17
X-119.241 Y-45.768
X-118.843 Y-46.398
X-118.494 Y-47.056
X-118.197 Y-47.739
X-117.952 Y-48.443
X-117.761 Y-49.163
X-117.626 Y-49.896
X-117.547 Y-50.637
X-117.524 Y-51.382
X-117.56 Y-52.126
X-117.652 Y-52.865
X-117.801 Y-53.595
X-118.006 Y-54.311
X-118.266 Y-55.01
X-118.579 Y-55.685
X-118.944 Y-56.335
X-119.359 Y-56.954
X-119.82 Y-57.539
X-120.325 Y-58.087
X-120.87 Y-58.595
X-121.453 Y-59.059
X-122.07 Y-59.477
X-122.717 Y-59.847
X-123.39 Y-60.166
X-124.085 Y-60.433
X-124.799 Y-60.647
X-125.527 Y-60.806
X-126.265 Y-60.91
X-127.008 Y-60.958
X-127.753 Y-60.95
X-128.496 Y-60.887
X-129.231 Y-60.769
X-129.956 Y-60.595
X-130.665 Y-60.367
X-131.355 Y-60.087
X-132.023 Y-59.755
X-132.664 Y-59.376
X-133.276 Y-58.951
X-133.855 Y-58.482
X-134.398 Y-57.972
X-134.903 Y-57.424
X-135.367 Y-56.841
X-135.787 Y-56.226
X-136.162 Y-55.582
X-136.488 Y-54.912
X-136.763 Y-54.219
X-136.986 Y-53.508
X-137.157 Y-52.783
X-137.276 Y-52.048
X-137.342 Y-51.306
X-137.354 Y-50.561
X-137.314 Y-49.817
X-137.22 Y-49.078
X-137.074 Y-48.347
X-136.874 Y-47.629
X-136.621 Y-46.928
X-136.318 Y-46.248
X-135.967 Y-45.59
X-135.57 Y-44.96
X-135.129 Y-44.359
X-134.647 Y-43.791
X-134.125 Y-43.259
X-133.568 Y-42.766
X-132.976 Y-42.313
X-132.351 Y-41.906
X-131.699 Y-41.546
X-131.023 Y-41.234
X-130.326 Y-40.97
X-129.612 Y-40.757
X-128.885 Y-40.595
X-128.148 Y-40.486
X-127.405 Y-40.428
X-126.66 Y-40.423
X-125.916 Y-40.473
X-125.179 Y-40.578
X-124.451 Y-40.736
X-123.735 Y-40.945
X-123.037 Y-41.203
X-122.357 Y-41.509
X-121.701 Y-41.862
X-121.071 Y-42.259
X-120.469 Y-42.699
X-119.9 Y-43.18
X-119.367 Y-43.7
X-118.871 Y-44.256
X-118.414 Y-44.844
X-117.997 Y-45.462
X-117.623 Y-46.106
X-117.292 Y-46.774
X-117.007 Y-47.462
X-116.768 Y-48.168
X-116.58 Y-48.889
X-116.442 Y-49.621
X-116.354 Y-50.361
X-116.317 Y-51.105
X-116.33 Y-51.85
X-116.394 Y-52.592
X-116.507 Y-53.329
X-116.67 Y-54.056
X-116.881 Y-54.77
X-117.144 Y-55.468
X-117.455 Y-56.145
X-117.812 Y-56.798
X-118.214 Y-57.426
X-118.657 Y-58.025
X-119.139 Y-58.593
X-119.659 Y-59.127
X-120.214 Y-59.624
X-120.8 Y-60.083
X-121.418 Y-60.499
X-122.064 Y-60.872
X-122.733 Y-61.199
X-123.423 Y-61.48
X-124.13 Y-61.715
X-124.851 Y-61.902
X-125.583 Y-62.041
X-126.323 Y-62.131
X-127.067 Y-62.172
X-127.812 Y-62.162
X-128.554 Y-62.101
X-129.291 Y-61.99
X-130.019 Y-61.83
X-130.734 Y-61.622
X-131.434 Y-61.367
X-132.116 Y-61.067
X-132.777 Y-60.722
X-133.414 Y-60.336
X-134.024 Y-59.908
X-134.603 Y-59.44
X-135.151 Y-58.934
X-135.664 Y-58.394
X-136.142 Y-57.823
X-136.582 Y-57.221
X-136.982 Y-56.593
X-137.341 Y-55.94
X-137.656 Y-55.265
X-137.926 Y-54.571
X-138.149 Y-53.86
X-138.324 Y-53.135
X-138.452 Y-52.401
X-138.533 Y-51.661
X-138.567 Y-50.916
X-138.553 Y-50.172
X-138.492 Y-49.429
X-138.384 Y-48.692
X-138.23 Y-47.963
X-138.026 Y-47.246
X-137.775 Y-46.545
X-137.479 Y-45.861
X-137.138 Y-45.198
X-136.757 Y-44.558
X-136.336 Y-43.944
X-135.876 Y-43.357
X-135.381 Y-42.8
X-134.852 Y-42.276
X-134.29 Y-41.786
X-133.697 Y-41.336
X-133.075 Y-40.926
X-132.427 Y-40.557
X-131.757 Y-40.231
X-131.068 Y-39.949
X-130.362 Y-39.71
X-129.643 Y-39.516
X-128.913 Y-39.368
X-128.174 Y-39.266
X-127.431 Y-39.212
X-126.686 Y-39.207
X-125.943 Y-39.252
X-125.203 Y-39.345
X-124.472 Y-39.485
X-123.75 Y-39.671
X-123.042 Y-39.902
X-122.349 Y-40.176
X-121.675 Y-40.493
X-121.021 Y-40.85
X-120.391 Y-41.249
X-119.789 Y-41.687
X-119.216 Y-42.163
X-118.673 Y-42.674
X-118.163 Y-43.217
X-117.688 Y-43.791
X-117.247 Y-44.392
X-116.844 Y-45.018
X-116.478 Y-45.667
X-116.152 Y-46.337
X-115.868 Y-47.026
X-115.629 Y-47.731
X-115.434 Y-48.451
X-115.283 Y-49.18
X-115.178 Y-49.918
X-115.118 Y-50.66
X-115.102 Y-51.405
X-115.131 Y-52.15
X-115.205 Y-52.891
X-115.324 Y-53.627
X-115.488 Y-54.354
X-115.699 Y-55.068
X-115.955 Y-55.768
X-116.254 Y-56.45
X-116.594 Y-57.113
X-116.975 Y-57.753
X-117.394 Y-58.37
X-117.849 Y-58.959
X-118.34 Y-59.52
X-118.863 Y-60.051
X-119.418 Y-60.547
X-120.004 Y-61.008
X-120.618 Y-61.43
X-121.256 Y-61.814
X-121.917 Y-62.158
X-122.598 Y-62.462
X-123.295 Y-62.724
X-124.007 Y-62.944
X-124.73 Y-63.122
X-125.463 Y-63.256
X-126.203 Y-63.345
X-126.947 Y-63.388
X-127.692 Y-63.384
X-128.435 Y-63.336
X-129.175 Y-63.242
X-129.907 Y-63.105
X-130.63 Y-62.924
X-131.34 Y-62.701
X-132.037 Y-62.436
X-132.716 Y-62.131
X-133.377 Y-61.785
X-134.014 Y-61.4
X-134.627 Y-60.976
X-135.214 Y-60.517
X-135.772 Y-60.023
X-136.301 Y-59.498
X-136.798 Y-58.943
X-137.262 Y-58.361
X-137.692 Y-57.752
X-138.086 Y-57.12
X-138.442 Y-56.465
X-138.758 Y-55.79
X-139.031 Y-55.098
X-139.263 Y-54.389
X-139.452 Y-53.669
X-139.599 Y-52.938
X-139.704 Y-52.201
X-139.766 Y-51.458
X-139.786 Y-50.713
X-139.763 Y-49.969
X-139.698 Y-49.226
X-139.589 Y-48.489
X-139.435 Y-47.76
X-139.238 Y-47.042
X-138.998 Y-46.336
X-138.717 Y-45.646
X-138.397 Y-44.974
X-138.038 Y-44.321
X-137.643 Y-43.689
X-137.213 Y-43.081
X-136.749 Y-42.498
X-136.252 Y-41.943
X-135.723 Y-41.418
X-135.163 Y-40.926
X-134.575 Y-40.469
X-133.961 Y-40.047
X-133.323 Y-39.661
X-132.665 Y-39.313
X-131.987 Y-39.004
X-131.292 Y-38.734
X-130.584 Y-38.503
X-129.863 Y-38.314
X-129.133 Y-38.166
X-128.395 Y-38.062
X-127.653 Y-38.002
X-126.908 Y-37.987
X-126.163 Y-38.015
X-125.422 Y-38.086
X-124.685 Y-38.2
X-123.957 Y-38.355
X-123.238 Y-38.552
X-122.531 Y-38.789
X-121.84 Y-39.065
X-121.165 Y-39.381
X-120.51 Y-39.735
X-119.876 Y-40.127
X-119.266 Y-40.555
X-118.681 Y-41.017
X-118.123 Y-41.511
X-117.594 Y-42.035
X-117.095 Y-42.588
X-116.626 Y-43.168
X-116.19 Y-43.772
X-115.788 Y-44.399
X-115.422 Y-45.048
X-115.092 Y-45.716
X-114.801 Y-46.402
X-114.549 Y-47.103
X-114.337 Y-47.817
X-114.165 Y-48.542
X-114.033 Y-49.275
X-113.942 Y-50.015
X-113.891 Y-50.758
X-113.88 Y-51.503
X-113.911 Y-52.248
X-113.984 Y-52.989
X-114.099 Y-53.725
X-114.256 Y-54.454
X-114.454 Y-55.172
X-114.692 Y-55.878
X-114.97 Y-56.569
X-115.286 Y-57.244
X-115.639 Y-57.9
X-116.027 Y-58.536
X-116.45 Y-59.15
X-116.906 Y-59.738
X-117.395 Y-60.3
X-117.915 Y-60.834
X-118.465 Y-61.337
X-119.042 Y-61.808
X-119.645 Y-62.246
X-120.271 Y-62.65
X-120.919 Y-63.018
X-121.585 Y-63.351
X-122.269 Y-63.647
X-122.968 Y-63.905
X-123.68 Y-64.124
X-124.404 Y-64.303
X-125.136 Y-64.441
X-125.874 Y-64.539
X-126.617 Y-64.595
X-127.362 Y-64.61
X-128.107 Y-64.585
X-128.849 Y-64.518
X-129.586 Y-64.411
X-130.317 Y-64.265
X-131.038 Y-64.08
X-131.749 Y-63.855
X-132.446 Y-63.591
X-133.127 Y-63.29
X-133.791 Y-62.951
X-134.435 Y-62.577
X-135.058 Y-62.168
X-135.657 Y-61.726
X-136.232 Y-61.252
X-136.781 Y-60.748
X-137.303 Y-60.216
X-137.796 Y-59.658
X-138.259 Y-59.074
X-138.689 Y-58.466
X-139.086 Y-57.835
X-139.447 Y-57.183
X-139.773 Y-56.513
X-140.061 Y-55.826
X-140.312 Y-55.125
X-140.525 Y-54.411
X-140.699 Y-53.686
X-140.836 Y-52.954
X-140.933 Y-52.215
X-140.992 Y-51.472
X-141.012 Y-50.728
X-140.991 Y-49.983
X-140.931 Y-49.24
X-140.83 Y-48.502
X-140.69 Y-47.77
X-140.51 Y-47.047
X-140.292 Y-46.335
X-140.036 Y-45.635
X-139.744 Y-44.95
X-139.415 Y-44.281
X-139.053 Y-43.63
X-138.657 Y-42.999
X-138.227 Y-42.39
X-137.766 Y-41.805
X-137.274 Y-41.245
X-136.753 Y-40.713
X-136.204 Y-40.209
X-135.629 Y-39.735
X-135.029 Y-39.293
X-134.407 Y-38.884
X-133.764 Y-38.507
X-133.102 Y-38.165
X-132.423 Y-37.858
X-131.729 Y-37.588
X-131.021 Y-37.355
X-130.302 Y-37.16
X-129.573 Y-37.004
X-128.838 Y-36.886
X-128.097 Y-36.808
X-127.353 Y-36.77
X-126.608 Y-36.771
X-125.864 Y-36.812
X-125.123 Y-36.891
X-124.387 Y-37.009
X-123.659 Y-37.166
X-122.94 Y-37.361
X-122.232 Y-37.594
X-121.537 Y-37.864
X-120.858 Y-38.169
X-120.195 Y-38.51
X-119.552 Y-38.885
X-118.928 Y-39.293
X-118.327 Y-39.733
X-117.749 Y-40.203
X-117.196 Y-40.703
X-116.669 Y-41.229
X-116.169 Y-41.782
X-115.699 Y-42.36
X-115.259 Y-42.962
X-114.851 Y-43.584
X-114.474 Y-44.227
X-114.131 Y-44.889
X-113.822 Y-45.567
X-113.548 Y-46.26
X-113.31 Y-46.965
X-113.107 Y-47.683
X-112.942 Y-48.409
X-112.813 Y-49.143
X-112.721 Y-49.882
X-112.668 Y-50.625
X-112.653 Y-51.37
X-112.676 Y-52.115
X-112.737 Y-52.858
X-112.836 Y-53.596
X-112.973 Y-54.328
X-113.148 Y-55.053
X-113.359 Y-55.767
X-113.607 Y-56.47
X-113.891 Y-57.159
X-114.209 Y-57.833
X-114.562 Y-58.489
X-114.948 Y-59.126
X-115.366 Y-59.742
X-115.816 Y-60.337
X-116.295 Y-60.907
X-116.803 Y-61.452
X-117.339 Y-61.97
X-117.9 Y-62.46
X-118.485 Y-62.921
X-119.094 Y-63.351
X-119.723 Y-63.75
X-120.371 Y-64.117
X-121.038 Y-64.45
X-121.721 Y-64.748
X-122.418 Y-65.011
X-123.127 Y-65.239
X-123.847 Y-65.431
X-124.576 Y-65.586
X-125.311 Y-65.704
X-126.052 Y-65.784
X-126.796 Y-65.827
X-127.541 Y-65.833
X-128.285 Y-65.802
X-129.027 Y-65.733
X-129.765 Y-65.626
X-130.496 Y-65.483
X-131.219 Y-65.303
X-131.932 Y-65.086
X-132.633 Y-64.834
X-133.321 Y-64.548
X-133.993 Y-64.227
X-134.649 Y-63.874
X-135.286 Y-63.488
X-135.904 Y-63.071
X-136.5 Y-62.624
X-137.073 Y-62.148
X-137.622 Y-61.644
X-138.146 Y-61.114
X-138.642 Y-60.559
X-139.111 Y-59.979
X-139.55 Y-59.378
X-139.959 Y-58.755
X-140.337 Y-58.113
X-140.683 Y-57.453
X-140.995 Y-56.776
X-141.273 Y-56.085
X-141.518 Y-55.381
X-141.727 Y-54.666
X-141.901 Y-53.942
X-142.039 Y-53.21
X-142.141 Y-52.471
X-142.206 Y-51.729
X-142.236 Y-50.985
X-142.229 Y-50.24
X-142.185 Y-49.496
X-142.105 Y-48.755
X-141.989 Y-48.019
X-141.837 Y-47.29
X-141.649 Y-46.569
X-141.426 Y-45.858
X-141.169 Y-45.159
X-140.877 Y-44.473
X-140.551 Y-43.803
X-140.194 Y-43.149
X-139.805 Y-42.514
X-139.385 Y-41.898
X-138.936 Y-41.303
X-138.459 Y-40.731
X-137.955 Y-40.183
X-137.424 Y-39.66
X-136.868 Y-39.164
X-136.289 Y-38.695
X-135.688 Y-38.255
X-135.065 Y-37.846
X-134.423 Y-37.468
X-133.763 Y-37.122
X-133.087 Y-36.808
X-132.397 Y-36.528
X-131.694 Y-36.282
X-130.98 Y-36.07
X-130.256 Y-35.892
X-129.525 Y-35.751
X-128.787 Y-35.645
X-128.045 Y-35.575
X-127.301 Y-35.541
X-126.556 Y-35.543
X-125.812 Y-35.583
X-125.071 Y-35.659
X-124.334 Y-35.772
X-123.604 Y-35.919
X-122.882 Y-36.102
X-122.169 Y-36.32
X-121.468 Y-36.571
X-120.779 Y-36.856
X-120.105 Y-37.173
X-119.447 Y-37.523
X-118.806 Y-37.903
X-118.185 Y-38.314
X-117.583 Y-38.754
X-117.004 Y-39.222
X-116.448 Y-39.718
X-115.916 Y-40.24
X-115.41 Y-40.786
X-114.929 Y-41.356
X-114.476 Y-41.947
X-114.051 Y-42.559
X-113.655 Y-43.19
X-113.289 Y-43.839
X-112.953 Y-44.504
X-112.65 Y-45.185
X-112.378 Y-45.878
X-112.14 Y-46.584
X-111.936 Y-47.301
X-111.765 Y-48.026
X-111.629 Y-48.759
X-111.528 Y-49.497
X-111.461 Y-50.239
X-111.429 Y-50.983
X-111.433 Y-51.728
X-111.47 Y-52.473
X-111.543 Y-53.214
X-111.651 Y-53.951
X-111.793 Y-54.683
X-111.97 Y-55.406
X-112.181 Y-56.121
X-112.427 Y-56.824
X-112.706 Y-57.515
X-113.017 Y-58.192
X-113.36 Y-58.854
X-113.734 Y-59.498
X-114.138 Y-60.124
X-114.57 Y-60.731
X-115.031 Y-61.316
X-115.519 Y-61.879
X-116.033 Y-62.419
X-116.571 Y-62.934
X-117.134 Y-63.423
X-117.719 Y-63.884
X-118.325 Y-64.316
X-118.952 Y-64.72
X-119.596 Y-65.094
X-120.258 Y-65.437
X-120.934 Y-65.749
X-121.625 Y-66.028
X-122.328 Y-66.276
X-123.041 Y-66.491
X-123.764 Y-66.672
X-124.494 Y-66.819
X-125.23 Y-66.933
X-125.971 Y-67.012
X-126.715 Y-67.056
X-127.46 Y-67.064
X-128.205 Y-67.038
X-128.947 Y-66.978
X-129.686 Y-66.882
X-130.42 Y-66.753
X-131.147 Y-66.59
X-131.866 Y-66.393
X-132.574 Y-66.164
X-133.272 Y-65.902
X-133.957 Y-65.609
X-134.628 Y-65.284
X-135.283 Y-64.929
X-135.92 Y-64.544
X-136.539 Y-64.129
X-137.138 Y-63.686
X-137.716 Y-63.216
X-138.273 Y-62.72
X-138.806 Y-62.2
X-139.315 Y-61.656
X-139.798 Y-61.089
X-140.256 Y-60.501
X-140.686 Y-59.893
X-141.088 Y-59.265
X-141.462 Y-58.621
X-141.805 Y-57.959
X-142.117 Y-57.283
X-142.398 Y-56.593
X-142.646 Y-55.89
X-142.862 Y-55.177
X-143.046 Y-54.455
X-143.196 Y-53.725
X-143.314 Y-52.99
X-143.398 Y-52.249
X-143.449 Y-51.506
X-143.466 Y-50.761
X-143.45 Y-50.016
X-143.4 Y-49.273
X-143.317 Y-48.532
X-143.2 Y-47.797
X-143.049 Y-47.067
X-142.865 Y-46.345
X-142.648 Y-45.632
X-142.398 Y-44.93
X-142.117 Y-44.24
X-141.806 Y-43.564
X-141.463 Y-42.902
X-141.092 Y-42.256
X-140.692 Y-41.627
X-140.265 Y-41.017
X-139.81 Y-40.427
X-139.33 Y-39.857
X-138.824 Y-39.31
X-138.293 Y-38.787
X-137.739 Y-38.289
X-137.163 Y-37.816
X-136.566 Y-37.37
X-135.95 Y-36.952
X-135.315 Y-36.563
X-134.663 Y-36.202
X-133.995 Y-35.871
X-133.314 Y-35.57
X-132.619 Y-35.3
X-131.913 Y-35.061
X-131.198 Y-34.854
X-130.473 Y-34.679
X-129.742 Y-34.538
X-129.005 Y-34.43
X-128.263 Y-34.357
X-127.519 Y-34.316
X-126.774 Y-34.31
X-126.03 Y-34.337
X-125.287 Y-34.398
X-124.548 Y-34.492
X-123.814 Y-34.619
X-123.086 Y-34.779
X-122.366 Y-34.971
X-121.656 Y-35.194
X-120.955 Y-35.449
X-120.267 Y-35.735
X-119.593 Y-36.052
X-118.934 Y-36.399
X-118.29 Y-36.775
X-117.664 Y-37.179
X-117.057 Y-37.61
X-116.47 Y-38.068
X-115.903 Y-38.552
X-115.358 Y-39.06
X-114.835 Y-39.591
X-114.337 Y-40.145
X-113.862 Y-40.72
X-113.414 Y-41.314
X-112.991 Y-41.928
X-112.595 Y-42.559
X-112.228 Y-43.208
X-111.89 Y-43.871
X-111.581 Y-44.549
X-111.302 Y-45.24
X-111.054 Y-45.943
X-110.836 Y-46.655
X-110.65 Y-47.377
X-110.496 Y-48.106
X-110.373 Y-48.841
X-110.282 Y-49.58
X-110.223 Y-50.323
X-110.196 Y-51.067
X-110.202 Y-51.812
X-110.24 Y-52.556
X-110.312 Y-53.298
X-110.416 Y-54.036
X-110.552 Y-54.768
X-110.721 Y-55.494
X-110.921 Y-56.212
X-111.153 Y-56.92
X-111.416 Y-57.617
X-111.71 Y-58.302
X-112.032 Y-58.973
X-112.384 Y-59.63
X-112.764 Y-60.271
X-113.172 Y-60.894
X-113.606 Y-61.5
X-114.067 Y-62.085
X-114.554 Y-62.65
X-115.064 Y-63.192
X-115.599 Y-63.711
X-116.155 Y-64.207
X-116.733 Y-64.677
X-117.33 Y-65.122
X-117.947 Y-65.54
X-118.581 Y-65.931
X-119.232 Y-66.295
X-119.897 Y-66.629
X-120.577 Y-66.935
X-121.269 Y-67.211
X-121.972 Y-67.457
X-122.686 Y-67.672
X-123.408 Y-67.855
X-124.137 Y-68.007
X-124.873 Y-68.127
X-125.612 Y-68.215
X-126.355 Y-68.271
X-127.1 Y-68.295
X-127.845 Y-68.286
X-128.589 Y-68.245
X-129.331 Y-68.173
X-130.068 Y-68.068
X-130.801 Y-67.932
X-131.527 Y-67.765
X-132.245 Y-67.567
X-132.954 Y-67.338
X-133.652 Y-67.078
X-134.339 Y-66.789
X-135.012 Y-66.47
X-135.672 Y-66.123
X-136.315 Y-65.747
X-136.942 Y-65.345
X-137.551 Y-64.916
X-138.142 Y-64.461
X-138.712 Y-63.982
X-139.262 Y-63.48
X-139.79 Y-62.954
X-140.296 Y-62.407
X-140.779 Y-61.839
X-141.236 Y-61.251
X-141.668 Y-60.644
X-142.073 Y-60.019
X-142.451 Y-59.377
X-142.802 Y-58.72
X-143.124 Y-58.048
X-143.418 Y-57.363
X-143.681 Y-56.666
X-143.916 Y-55.959
X-144.12 Y-55.242
X-144.294 Y-54.518
X-144.437 Y-53.787
X-144.549 Y-53.05
X-144.631 Y-52.309
X-144.682 Y-51.566
X-144.7 Y-50.821
X-144.687 Y-50.076
X-144.643 Y-49.333
X-144.567 Y-48.591
X-144.46 Y-47.854
X-144.322 Y-47.122
X-144.153 Y-46.396
X-143.953 Y-45.679
X-143.723 Y-44.97
X-143.463 Y-44.271
X-143.175 Y-43.585
X-142.858 Y-42.91
X-142.513 Y-42.25
X-142.141 Y-41.604
X-141.741 Y-40.975
X-141.316 Y-40.364
X-140.865 Y-39.771
X-140.39 Y-39.197
X-139.89 Y-38.644
X-139.368 Y-38.112
X-138.824 Y-37.603
X-138.259 Y-37.118
X-137.674 Y-36.656
X-137.07 Y-36.22
X-136.448 Y-35.81
X-135.81 Y-35.425
X-135.156 Y-35.068
X-134.488 Y-34.739
X-133.806 Y-34.438
X-133.113 Y-34.166
X-132.408 Y-33.924
X-131.694 Y-33.711
X-130.972 Y-33.528
X-130.242 Y-33.376
X-129.507 Y-33.256
X-128.767 Y-33.166
X-128.025 Y-33.107
X-127.28 Y-33.079
X-126.535 Y-33.083
X-125.791 Y-33.118
X-125.049 Y-33.183
X-124.31 Y-33.28
X-123.576 Y-33.408
X-122.848 Y-33.566
X-122.127 Y-33.755
X-121.415 Y-33.974
X-120.712 Y-34.222
X-120.021 Y-34.499
X-119.341 Y-34.805
X-118.675 Y-35.138
X-118.023 Y-35.499
X-117.387 Y-35.887
X-116.767 Y-36.301
X-116.165 Y-36.739
X-115.581 Y-37.202
X-115.017 Y-37.689
X-114.473 Y-38.198
X-113.95 Y-38.729
X-113.45 Y-39.281
X-112.973 Y-39.854
X-112.52 Y-40.445
X-112.091 Y-41.054
X-111.687 Y-41.68
X-111.309 Y-42.322
X-110.957 Y-42.979
X-110.633 Y-43.65
X-110.336 Y-44.333
X-110.066 Y-45.028
X-109.826 Y-45.733
X-109.614 Y-46.447
X-109.431 Y-47.169
X-109.277 Y-47.898
X-109.154 Y-48.633
X-109.061 Y-49.372
X-108.999 Y-50.115
X-108.966 Y-50.859
X-108.963 Y-51.604
X-108.991 Y-52.349
X-109.05 Y-53.091
X-109.139 Y-53.831
X-109.257 Y-54.567
X-109.406 Y-55.297
X-109.585 Y-56.02
X-109.793 Y-56.736
X-110.03 Y-57.442
X-110.296 Y-58.138
X-110.589 Y-58.823
X-110.912 Y-59.494
X-111.261 Y-60.152
X-111.638 Y-60.795
X-112.04 Y-61.423
X-112.467 Y-62.033
X-112.919 Y-62.625
X-113.395 Y-63.199
X-113.894 Y-63.752
X-114.415 Y-64.285
X-114.957 Y-64.795
X-115.52 Y-65.284
X-116.102 Y-65.749
X-116.703 Y-66.19
X-117.321 Y-66.606
X-117.955 Y-66.997
X-118.605 Y-67.361
X-119.269 Y-67.698
X-119.947 Y-68.008
X-120.636 Y-68.291
X-121.337 Y-68.545
X-122.047 Y-68.771
X-122.765 Y-68.968
X-123.491 Y-69.136
X-124.223 Y-69.274
X-124.96 Y-69.383
X-125.701 Y-69.462
X-126.445 Y-69.511
X-127.189 Y-69.53
X-127.934 Y-69.519
X-128.678 Y-69.478
X-129.42 Y-69.406
X-130.158 Y-69.305
X-130.892 Y-69.174
X-131.619 Y-69.014
X-132.34 Y-68.825
X-133.052 Y-68.606
X-133.755 Y-68.36
X-134.448 Y-68.085
X-135.129 Y-67.783
X-135.798 Y-67.454
X-136.452 Y-67.099
X-137.093 Y-66.718
X-137.717 Y-66.311
X-138.325 Y-65.881
X-138.915 Y-65.426
X-139.487 Y-64.948
X-140.038 Y-64.447
X-140.57 Y-63.925
X-141.081 Y-63.382
X-141.569 Y-62.82
X-142.035 Y-62.239
X-142.478 Y-61.639
X-142.896 Y-61.023
X-143.29 Y-60.39
X-143.658 Y-59.743
X-144 Y-59.081
X-144.316 Y-58.406
X-144.605 Y-57.719
X-144.866 Y-57.021
X-145.1 Y-56.314
X-145.305 Y-55.598
X-145.481 Y-54.874
X-145.628 Y-54.143
X-145.747 Y-53.408
X-145.837 Y-52.668
X-145.898 Y-51.926
X-145.929 Y-51.181
X-145.931 Y-50.436
X-145.904 Y-49.691
X-145.847 Y-48.949
X-145.762 Y-48.208
X-145.647 Y-47.472
X-145.503 Y-46.741
X-145.33 Y-46.016
X-145.13 Y-45.299
X-144.9 Y-44.59
X-144.642 Y-43.891
X-144.357 Y-43.203
X-144.045 Y-42.526
X-143.707 Y-41.862
X-143.343 Y-41.212
X-142.954 Y-40.577
X-142.54 Y-39.957
X-142.103 Y-39.354
X-141.642 Y-38.769
X-141.158 Y-38.202
X-140.653 Y-37.655
X-140.126 Y-37.127
X-139.579 Y-36.621
X-139.013 Y-36.137
X-138.428 Y-35.676
X-137.825 Y-35.239
X-137.205 Y-34.826
X-136.569 Y-34.437
X-135.918 Y-34.074
X-135.254 Y-33.736
X-134.577 Y-33.425
X-133.888 Y-33.141
X-133.189 Y-32.884
X-132.48 Y-32.654
X-131.763 Y-32.452
X-131.039 Y-32.279
X-130.308 Y-32.134
X-129.572 Y-32.017
X-128.832 Y-31.93
X-128.089 Y-31.872
X-127.345 Y-31.843
X-126.599 Y-31.845
X-125.855 Y-31.875
X-125.112 Y-31.935
X-124.373 Y-32.023
X-123.637 Y-32.141
X-122.906 Y-32.287
X-122.182 Y-32.461
X-121.465 Y-32.664
X-120.756 Y-32.894
X-120.057 Y-33.151
X-119.368 Y-33.436
X-118.691 Y-33.747
X-118.027 Y-34.083
X-117.376 Y-34.445
X-116.739 Y-34.833
X-116.118 Y-35.245
X-115.514 Y-35.681
X-114.927 Y-36.14
X-114.358 Y-36.621
X-113.808 Y-37.124
X-113.278 Y-37.647
X-112.768 Y-38.19
X-112.279 Y-38.752
X-111.812 Y-39.333
X-111.367 Y-39.931
X-110.946 Y-40.545
X-110.548 Y-41.175
X-110.174 Y-41.819
X-109.825 Y-42.477
X-109.501 Y-43.148
X-109.203 Y-43.832
X-108.932 Y-44.526
X-108.688 Y-45.23
X-108.471 Y-45.942
X-108.281 Y-46.663
X-108.119 Y-47.39
X-107.984 Y-48.123
X-107.878 Y-48.86
X-107.799 Y-49.601
X-107.749 Y-50.344
X-107.727 Y-51.089
X-107.733 Y-51.834
X-107.768 Y-52.578
X-107.831 Y-53.321
X-107.922 Y-54.06
X-108.041 Y-54.796
X-108.189 Y-55.526
X-108.366 Y-56.25
X-108.57 Y-56.966
X-108.801 Y-57.674
X-109.06 Y-58.373
X-109.344 Y-59.062
X-109.656 Y-59.739
X-109.993 Y-60.403
X-110.355 Y-61.054
X-110.741 Y-61.691
X-111.152 Y-62.313
X-111.586 Y-62.919
X-112.043 Y-63.507
X-112.521 Y-64.078
X-113.022 Y-64.63
X-113.543 Y-65.163
X-114.084 Y-65.674
X-114.645 Y-66.165
X-115.225 Y-66.633
X-115.821 Y-67.08
X-116.435 Y-67.503
X-117.063 Y-67.902
X-117.707 Y-68.277
X-118.365 Y-68.628
X-119.035 Y-68.953
X-119.717 Y-69.252
X-120.41 Y-69.526
X-121.113 Y-69.773
X-121.825 Y-69.994
X-122.544 Y-70.187
X-123.271 Y-70.354
X-124.003 Y-70.492
X-124.74 Y-70.602
X-125.48 Y-70.684
X-126.223 Y-70.738
X-126.968 Y-70.764
X-127.713 Y-70.761
X-128.457 Y-70.731
X-129.2 Y-70.672
X-129.94 Y-70.585
X-130.676 Y-70.471
X-131.408 Y-70.329
X-132.133 Y-70.159
X-132.852 Y-69.963
X-133.563 Y-69.74
X-134.265 Y-69.49
X-134.957 Y-69.214
X-135.638 Y-68.912
X-136.307 Y-68.584
X-136.963 Y-68.232
X-137.606 Y-67.855
X-138.234 Y-67.454
X-138.847 Y-67.03
X-139.443 Y-66.583
X-140.023 Y-66.115
X-140.584 Y-65.625
X-141.127 Y-65.115
X-141.65 Y-64.585
X-142.154 Y-64.036
X-142.637 Y-63.468
X-143.099 Y-62.884
X-143.538 Y-62.282
X-143.955 Y-61.665
X-144.349 Y-61.032
X-144.718 Y-60.385
X-145.063 Y-59.724
X-145.383 Y-59.051
X-145.677 Y-58.367
X-145.946 Y-57.672
X-146.189 Y-56.968
X-146.406 Y-56.255
X-146.595 Y-55.535
X-146.759 Y-54.808
X-146.895 Y-54.075
X-147.004 Y-53.338
X-147.086 Y-52.597
X-147.141 Y-51.854
X-147.168 Y-51.11
Y-50.365
X-147.14 Y-49.62
X-147.085 Y-48.877
X-147.001 Y-48.137
X-146.89 Y-47.4
X-146.752 Y-46.668
X-146.587 Y-45.941
X-146.395 Y-45.222
X-146.176 Y-44.509
X-145.932 Y-43.806
X-145.661 Y-43.112
X-145.365 Y-42.428
X-145.044 Y-41.755
X-144.698 Y-41.095
X-144.329 Y-40.448
X-143.936 Y-39.815
X-143.52 Y-39.197
X-143.081 Y-38.595
X-142.621 Y-38.009
X-142.139 Y-37.441
X-141.636 Y-36.891
X-141.113 Y-36.361
X-140.571 Y-35.85
X-140.01 Y-35.359
X-139.432 Y-34.889
X-138.836 Y-34.441
X-138.224 Y-34.016
X-137.597 Y-33.613
X-136.956 Y-33.234
X-136.301 Y-32.878
X-135.634 Y-32.547
X-134.955 Y-32.241
X-134.265 Y-31.959
X-133.565 Y-31.703
X-132.857 Y-31.473
X-132.14 Y-31.27
X-131.416 Y-31.094
X-130.686 Y-30.945
X-129.951 Y-30.822
X-129.212 Y-30.726
X-128.47 Y-30.658
X-127.726 Y-30.618
X-126.981 Y-30.605
X-126.236 Y-30.619
X-125.493 Y-30.661
X-124.751 Y-30.73
X-124.012 Y-30.826
X-123.277 Y-30.949
X-122.547 Y-31.099
X-121.823 Y-31.275
X-121.106 Y-31.478
X-120.397 Y-31.707
X-119.697 Y-31.962
X-119.007 Y-32.243
X-118.328 Y-32.549
X-117.66 Y-32.879
X-117.004 Y-33.233
X-116.362 Y-33.611
X-115.734 Y-34.012
X-115.121 Y-34.436
X-114.524 Y-34.881
X-113.944 Y-35.348
X-113.38 Y-35.835
X-112.834 Y-36.343
X-112.307 Y-36.869
X-111.8 Y-37.415
X-111.312 Y-37.978
X-110.844 Y-38.558
X-110.398 Y-39.155
X-109.974 Y-39.768
X-109.573 Y-40.395
X-109.194 Y-41.036
X-108.837 Y-41.691
X-108.505 Y-42.358
X-108.197 Y-43.036
X-107.914 Y-43.725
X-107.655 Y-44.424
X-107.422 Y-45.132
X-107.214 Y-45.847
X-107.031 Y-46.569
X-106.875 Y-47.298
X-106.745 Y-48.031
X-106.641 Y-48.769
X-106.563 Y-49.51
X-106.512 Y-50.253
X-106.488 Y-50.998
X-106.492 Y-51.743
X-106.521 Y-52.488
X-106.578 Y-53.231
X-106.661 Y-53.971
X-106.771 Y-54.708
X-106.907 Y-55.44
X-107.07 Y-56.168
X-107.258 Y-56.888
X-107.473 Y-57.602
X-107.713 Y-58.307
X-107.979 Y-59.003
X-108.269 Y-59.69
X-108.583 Y-60.365
X-108.922 Y-61.029
X-109.284 Y-61.68
X-109.67 Y-62.317
X-110.079 Y-62.94
X-110.51 Y-63.548
X-110.963 Y-64.139
X-111.436 Y-64.715
X-111.93 Y-65.273
X-112.443 Y-65.812
X-112.976 Y-66.333
X-113.527 Y-66.834
X-114.096 Y-67.316
X-114.682 Y-67.776
X-115.284 Y-68.215
X-115.901 Y-68.633
X-116.533 Y-69.028
X-117.178 Y-69.4
X-117.836 Y-69.749
X-118.507 Y-70.074
X-119.188 Y-70.375
X-119.88 Y-70.651
X-120.582 Y-70.902
X-121.292 Y-71.128
X-122.009 Y-71.329
X-122.734 Y-71.504
X-123.464 Y-71.653
X-124.199 Y-71.776
X-124.937 Y-71.872
X-125.679 Y-71.942
X-126.423 Y-71.986
X-127.168 Y-72.003
X-127.913 Y-71.994
X-128.657 Y-71.959
X-129.399 Y-71.897
X-130.139 Y-71.809
X-130.876 Y-71.695
X-131.607 Y-71.554
X-132.333 Y-71.387
X-133.053 Y-71.195
X-133.766 Y-70.977
X-134.47 Y-70.734
X-135.166 Y-70.467
X-135.851 Y-70.175
X-136.526 Y-69.859
X-137.189 Y-69.519
X-137.839 Y-69.156
X-138.477 Y-68.77
X-139.101 Y-68.363
X-139.71 Y-67.933
X-140.303 Y-67.483
X-140.881 Y-67.012
X-141.441 Y-66.521
X-141.984 Y-66.011
X-142.509 Y-65.482
X-143.014 Y-64.935
X-143.5 Y-64.37
X-143.966 Y-63.789
X-144.412 Y-63.191
X-144.836 Y-62.579
X-145.238 Y-61.952
X-145.618 Y-61.311
X-145.976 Y-60.657
X-146.31 Y-59.991
X-146.62 Y-59.314
X-146.907 Y-58.627
X-147.17 Y-57.929
X-147.408 Y-57.223
X-147.621 Y-56.509
X-147.81 Y-55.789
X-147.973 Y-55.062
X-148.11 Y-54.329
X-148.221 Y-53.593
X-148.307 Y-52.852
X-148.367 Y-52.11
X-148.401 Y-51.366
X-148.41 Y-50.621
X-148.392 Y-49.876
X-148.348 Y-49.132
X-148.279 Y-48.39
X-148.183 Y-47.651
X-148.062 Y-46.916
X-147.915 Y-46.186
X-147.743 Y-45.461
X-147.546 Y-44.742
X-147.323 Y-44.031
X-147.077 Y-43.328
X-146.806 Y-42.634
X-146.51 Y-41.95
X-146.191 Y-41.277
X-145.848 Y-40.615
X-145.483 Y-39.966
X-145.095 Y-39.329
X-144.686 Y-38.707
X-144.256 Y-38.099
X-143.804 Y-37.506
X-143.332 Y-36.93
X-142.84 Y-36.37
X-142.329 Y-35.828
X-141.8 Y-35.303
X-141.253 Y-34.798
X-140.688 Y-34.311
X-140.107 Y-33.845
X-139.51 Y-33.399
X-138.898 Y-32.975
X-138.272 Y-32.571
X-137.631 Y-32.191
X-136.978 Y-31.833
X-136.312 Y-31.498
X-135.636 Y-31.186
X-134.949 Y-30.897
X-134.252 Y-30.633
X-133.547 Y-30.392
X-132.834 Y-30.177
X-132.113 Y-29.987
X-131.387 Y-29.821
X-130.655 Y-29.681
X-129.919 Y-29.567
X-129.179 Y-29.477
X-128.437 Y-29.414
X-127.693 Y-29.376
X-126.948 Y-29.365
X-126.203 Y-29.379
X-125.459 Y-29.419
X-124.717 Y-29.486
X-123.977 Y-29.578
X-123.242 Y-29.696
X-122.51 Y-29.839
X-121.785 Y-30.007
X-121.065 Y-30.199
X-120.352 Y-30.417
X-119.648 Y-30.659
X-118.952 Y-30.926
X-118.266 Y-31.216
X-117.59 Y-31.529
X-116.925 Y-31.865
X-116.272 Y-32.224
X-115.632 Y-32.605
X-115.005 Y-33.008
X-114.392 Y-33.432
X-113.794 Y-33.877
X-113.213 Y-34.342
X-112.647 Y-34.827
X-112.098 Y-35.331
X-111.567 Y-35.853
X-111.053 Y-36.393
X-110.558 Y-36.95
X-110.083 Y-37.524
X-109.627 Y-38.113
X-109.191 Y-38.717
X-108.776 Y-39.336
X-108.382 Y-39.969
X-108.01 Y-40.614
X-107.659 Y-41.271
X-107.331 Y-41.94
X-107.026 Y-42.62
X-106.744 Y-43.31
X-106.485 Y-44.008
X-106.251 Y-44.716
X-106.041 Y-45.43
X-105.855 Y-46.152
X-105.694 Y-46.879
X-105.557 Y-47.612
X-105.445 Y-48.348
X-105.358 Y-49.088
X-105.296 Y-49.831
X-105.259 Y-50.575
X-105.248 Y-51.32
X-105.262 Y-52.065
X-105.301 Y-52.809
X-105.364 Y-53.551
X-105.453 Y-54.291
X-105.567 Y-55.027
X-105.706 Y-55.759
X-105.87 Y-56.486
X-106.059 Y-57.207
X-106.272 Y-57.921
X-106.51 Y-58.627
X-106.771 Y-59.324
X-107.057 Y-60.013
X-107.365 Y-60.691
X-107.696 Y-61.359
X-108.049 Y-62.014
X-108.425 Y-62.658
X-108.822 Y-63.288
X-109.241 Y-63.905
X-109.68 Y-64.506
X-110.139 Y-65.093
X-110.618 Y-65.664
X-111.116 Y-66.218
X-111.632 Y-66.755
X-112.167 Y-67.275
X-112.718 Y-67.775
X-113.287 Y-68.257
X-113.871 Y-68.719
X-114.472 Y-69.16
X-115.086 Y-69.582
X-115.715 Y-69.982
X-116.356 Y-70.36
X-117.01 Y-70.717
X-117.676 Y-71.052
X-118.353 Y-71.364
X-119.04 Y-71.653
X-119.736 Y-71.918
X-120.44 Y-72.16
X-121.153 Y-72.379
X-121.872 Y-72.573
X-122.597 Y-72.743
X-123.328 Y-72.889
X-124.063 Y-73.01
X-124.802 Y-73.106
X-125.544 Y-73.177
X-126.287 Y-73.222
X-127.032 Y-73.243
X-127.777 Y-73.239
X-128.522 Y-73.209
X-129.265 Y-73.155
X-130.006 Y-73.076
X-130.743 Y-72.972
X-131.477 Y-72.844
X-132.206 Y-72.691
X-132.93 Y-72.513
X-133.647 Y-72.312
X-134.358 Y-72.087
X-135.06 Y-71.838
X-135.754 Y-71.566
X-136.438 Y-71.271
X-137.112 Y-70.953
X-137.775 Y-70.614
X-138.426 Y-70.251
X-139.064 Y-69.867
X-139.69 Y-69.462
X-140.301 Y-69.037
X-140.899 Y-68.591
X-141.481 Y-68.126
X-142.047 Y-67.642
X-142.597 Y-67.14
X-143.131 Y-66.62
X-143.646 Y-66.082
X-144.144 Y-65.527
X-144.622 Y-64.956
X-145.082 Y-64.37
X-145.523 Y-63.769
X-145.943 Y-63.154
X-146.342 Y-62.525
X-146.721 Y-61.883
X-147.078 Y-61.229
X-147.413 Y-60.563
X-147.725 Y-59.887
X-148.015 Y-59.201
X-148.281 Y-58.505
X-148.525 Y-57.801
X-148.745 Y-57.089
X-148.942 Y-56.37
X-149.115 Y-55.646
X-149.264 Y-54.916
X-149.389 Y-54.181
X-149.489 Y-53.443
X-149.566 Y-52.702
X-149.618 Y-51.959
X-149.645 Y-51.214
X-149.649 Y-50.469
X-149.627 Y-49.724
X-149.581 Y-48.981
X-149.511 Y-48.239
X-149.416 Y-47.5
X-149.296 Y-46.764
X-149.152 Y-46.033
X-148.984 Y-45.308
X-148.792 Y-44.588
X-148.577 Y-43.874
X-148.338 Y-43.169
X-148.076 Y-42.471
X-147.791 Y-41.783
X-147.484 Y-41.104
X-147.155 Y-40.436
X-146.803 Y-39.779
X-146.431 Y-39.133
X-146.037 Y-38.501
X-145.624 Y-37.881
X-145.19 Y-37.275
X-144.736 Y-36.684
X-144.264 Y-36.108
X-143.772 Y-35.548
X-143.262 Y-35.005
X-142.734 Y-34.479
X-142.19 Y-33.971
X-141.629 Y-33.481
X-141.052 Y-33.009
X-140.46 Y-32.557
X-139.853 Y-32.124
X-139.232 Y-31.712
X-138.599 Y-31.32
X-137.952 Y-30.95
X-137.294 Y-30.601
X-136.625 Y-30.273
X-135.945 Y-29.968
X-135.256 Y-29.685
X-134.558 Y-29.424
X-133.852 Y-29.187
X-133.138 Y-28.973
X-132.418 Y-28.782
X-131.691 Y-28.616
X-130.96 Y-28.474
X-130.224 Y-28.356
X-129.485 Y-28.262
X-128.743 Y-28.193
X-128 Y-28.147
X-127.255 Y-28.126
X-126.51 Y-28.13
X-125.765 Y-28.158
X-125.022 Y-28.211
X-124.281 Y-28.288
X-123.543 Y-28.389
X-122.808 Y-28.514
X-122.078 Y-28.663
X-121.354 Y-28.836
X-120.635 Y-29.032
X-119.923 Y-29.251
X-119.218 Y-29.494
X-118.522 Y-29.759
X-117.835 Y-30.048
X-117.158 Y-30.358
X-116.491 Y-30.691
X-115.836 Y-31.045
X-115.192 Y-31.42
X-114.56 Y-31.815
X-113.942 Y-32.231
X-113.338 Y-32.667
X-112.748 Y-33.122
X-112.173 Y-33.596
X-111.614 Y-34.088
X-111.071 Y-34.598
X-110.544 Y-35.125
X-110.034 Y-35.669
X-109.542 Y-36.228
X-109.069 Y-36.804
X-108.614 Y-37.393
X-108.178 Y-37.998
X-107.762 Y-38.616
X-107.366 Y-39.247
X-106.991 Y-39.891
X-106.636 Y-40.546
X-106.303 Y-41.212
X-105.991 Y-41.889
X-105.701 Y-42.575
X-105.433 Y-43.27
X-105.187 Y-43.974
X-104.964 Y-44.685
X-104.764 Y-45.403
X-104.588 Y-46.126
X-104.434 Y-46.855
X-104.303 Y-47.589
X-104.196 Y-48.326
X-104.113 Y-49.067
X-104.053 Y-49.809
X-104.017 Y-50.553
X-104.005 Y-51.298
X-104.017 Y-52.043
X-104.054 Y-52.788
X-104.114 Y-53.53
X-104.198 Y-54.271
X-104.306 Y-55.008
X-104.437 Y-55.741
X-104.592 Y-56.47
X-104.77 Y-57.193
X-104.972 Y-57.911
X-105.196 Y-58.621
X-105.444 Y-59.324
X-105.713 Y-60.018
X-106.005 Y-60.704
X-106.319 Y-61.38
X-106.654 Y-62.045
X-107.01 Y-62.7
X-107.387 Y-63.342
X-107.785 Y-63.972
X-108.203 Y-64.589
X-108.641 Y-65.192
X-109.098 Y-65.78
X-109.573 Y-66.354
X-110.067 Y-66.912
X-110.579 Y-67.454
X-111.107 Y-67.979
X-111.652 Y-68.487
X-112.213 Y-68.977
X-112.79 Y-69.449
X-113.381 Y-69.902
X-113.987 Y-70.336
X-114.607 Y-70.75
X-115.239 Y-71.144
X-115.883 Y-71.518
X-116.539 Y-71.871
X-117.206 Y-72.204
X-117.883 Y-72.514
X-118.57 Y-72.803
X-119.266 Y-73.07
X-119.97 Y-73.314
X-120.681 Y-73.535
X-121.399 Y-73.734
X-122.123 Y-73.91
X-122.852 Y-74.062
X-123.586 Y-74.192
X-124.324 Y-74.298
X-125.064 Y-74.38
X-125.807 Y-74.439
X-126.551 Y-74.474
X-127.296 Y-74.485
X-128.041 Y-74.473
X-128.785 Y-74.437
X-129.528 Y-74.377
X-130.268 Y-74.295
X-131.006 Y-74.188
X-131.74 Y-74.059
X-132.469 Y-73.906
X-133.193 Y-73.729
X-133.911 Y-73.53
X-134.622 Y-73.308
X-135.326 Y-73.064
X-136.021 Y-72.797
X-136.708 Y-72.509
X-137.386 Y-72.199
X-138.054 Y-71.868
X-138.71 Y-71.516
X-139.355 Y-71.144
X-139.988 Y-70.751
X-140.609 Y-70.338
X-141.216 Y-69.906
X-141.809 Y-69.456
X-142.388 Y-68.987
X-142.952 Y-68.5
X-143.501 Y-67.996
X-144.033 Y-67.474
X-144.549 Y-66.937
X-145.047 Y-66.383
X-145.528 Y-65.813
X-145.99 Y-65.229
X-146.434 Y-64.631
X-146.859 Y-64.019
X-147.264 Y-63.394
X-147.65 Y-62.756
X-148.016 Y-62.107
X-148.361 Y-61.447
X-148.685 Y-60.776
X-148.987 Y-60.095
X-149.268 Y-59.405
X-149.528 Y-58.706
X-149.765 Y-58
X-149.981 Y-57.287
X-150.174 Y-56.567
X-150.344 Y-55.842
X-150.492 Y-55.112
X-150.617 Y-54.377
X-150.718 Y-53.639
X-150.797 Y-52.898
X-150.852 Y-52.155
X-150.884 Y-51.411
X-150.892 Y-50.666
X-150.878 Y-49.921
X-150.84 Y-49.177
X-150.779 Y-48.434
X-150.695 Y-47.694
X-150.588 Y-46.957
X-150.457 Y-46.223
X-150.304 Y-45.494
X-150.128 Y-44.77
X-149.93 Y-44.052
X-149.709 Y-43.34
X-149.466 Y-42.636
X-149.202 Y-41.939
X-148.916 Y-41.251
X-148.608 Y-40.573
X-148.279 Y-39.904
X-147.93 Y-39.246
X-147.56 Y-38.599
X-147.17 Y-37.964
X-146.76 Y-37.342
X-146.332 Y-36.732
X-145.885 Y-36.137
X-145.419 Y-35.555
X-144.936 Y-34.988
X-144.435 Y-34.437
X-143.917 Y-33.901
X-143.382 Y-33.382
X-142.832 Y-32.88
X-142.266 Y-32.395
X-141.685 Y-31.928
X-141.09 Y-31.479
X-140.482 Y-31.049
X-139.86 Y-30.638
X-139.226 Y-30.247
X-138.58 Y-29.876
X-137.923 Y-29.526
X-137.255 Y-29.196
X-136.577 Y-28.887
X-135.889 Y-28.599
X-135.194 Y-28.333
X-134.49 Y-28.089
X-133.779 Y-27.866
X-133.061 Y-27.666
X-132.338 Y-27.488
X-131.609 Y-27.333
X-130.876 Y-27.201
X-130.139 Y-27.091
X-129.399 Y-27.005
X-128.656 Y-26.941
X-127.912 Y-26.901
X-127.167 Y-26.883
X-126.422 Y-26.889
X-125.678 Y-26.918
X-124.935 Y-26.97
X-124.193 Y-27.046
X-123.455 Y-27.145
X-122.72 Y-27.267
X-121.989 Y-27.411
X-121.263 Y-27.578
X-120.542 Y-27.767
X-119.828 Y-27.978
X-119.12 Y-28.211
X-118.42 Y-28.467
X-117.728 Y-28.743
X-117.045 Y-29.041
X-116.372 Y-29.36
X-115.709 Y-29.7
X-115.056 Y-30.059
X-114.415 Y-30.439
X-113.786 Y-30.837
X-113.169 Y-31.255
X-112.565 Y-31.692
X-111.975 Y-32.147
X-111.4 Y-32.621
X-110.839 Y-33.111
X-110.294 Y-33.619
X-109.765 Y-34.143
X-109.251 Y-34.683
X-108.755 Y-35.239
X-108.275 Y-35.809
X-107.813 Y-36.393
X-107.369 Y-36.992
X-106.943 Y-37.603
X-106.537 Y-38.227
X-106.149 Y-38.864
X-105.781 Y-39.512
X-105.433 Y-40.17
X-105.105 Y-40.839
X-104.797 Y-41.518
X-104.51 Y-42.205
X-104.244 Y-42.901
X-103.999 Y-43.605
X-103.776 Y-44.316
X-103.575 Y-45.033
X-103.396 Y-45.757
X-103.239 Y-46.485
X-103.105 Y-47.218
X-102.992 Y-47.954
X-102.902 Y-48.694
X-102.834 Y-49.436
X-102.789 Y-50.179
X-102.766 Y-50.924
X-102.767 Y-51.669
X-102.79 Y-52.414
X-102.835 Y-53.158
X-102.904 Y-53.9
X-102.994 Y-54.639
X-103.108 Y-55.375
X-103.243 Y-56.108
X-103.401 Y-56.836
X-103.581 Y-57.559
X-103.783 Y-58.276
X-104.007 Y-58.987
X-104.253 Y-59.69
X-104.52 Y-60.386
X-104.809 Y-61.073
X-105.118 Y-61.75
X-105.448 Y-62.419
X-105.798 Y-63.076
X-106.168 Y-63.723
X-106.557 Y-64.358
X-106.966 Y-64.981
X-107.393 Y-65.592
X-107.839 Y-66.188
X-108.303 Y-66.771
X-108.784 Y-67.34
X-109.283 Y-67.894
X-109.798 Y-68.432
X-110.329 Y-68.955
X-110.876 Y-69.461
X-111.438 Y-69.95
X-112.015 Y-70.422
X-112.606 Y-70.875
X-113.21 Y-71.311
X-113.828 Y-71.727
X-114.458 Y-72.125
X-115.1 Y-72.503
X-115.753 Y-72.862
X-116.416 Y-73.201
X-117.09 Y-73.52
X-117.772 Y-73.818
X-118.464 Y-74.096
X-119.164 Y-74.352
X-119.871 Y-74.587
X-120.585 Y-74.8
X-121.305 Y-74.992
X-122.03 Y-75.162
X-122.76 Y-75.31
X-123.495 Y-75.436
X-124.232 Y-75.539
X-124.973 Y-75.621
X-125.716 Y-75.68
X-126.46 Y-75.716
X-127.205 Y-75.729
X-127.95 Y-75.72
X-128.694 Y-75.688
X-129.437 Y-75.634
X-130.179 Y-75.558
X-130.917 Y-75.459
X-131.652 Y-75.338
X-132.383 Y-75.196
X-133.11 Y-75.031
X-133.831 Y-74.844
X-134.547 Y-74.636
X-135.255 Y-74.406
X-135.957 Y-74.155
X-136.651 Y-73.883
X-137.336 Y-73.591
X-138.012 Y-73.278
X-138.679 Y-72.945
X-139.335 Y-72.592
X-139.98 Y-72.22
X-140.614 Y-71.828
X-141.236 Y-71.417
X-141.845 Y-70.988
X-142.44 Y-70.541
X-143.023 Y-70.076
X-143.591 Y-69.594
X-144.145 Y-69.095
X-144.683 Y-68.581
X-145.206 Y-68.05
X-145.713 Y-67.504
X-146.203 Y-66.943
X-146.677 Y-66.367
X-147.133 Y-65.778
X-147.571 Y-65.176
X-147.991 Y-64.561
X-148.393 Y-63.933
X-148.776 Y-63.294
X-149.14 Y-62.644
X-149.484 Y-61.983
X-149.808 Y-61.312
X-150.111 Y-60.631
X-150.394 Y-59.942
X-150.657 Y-59.245
X-150.898 Y-58.54
X-151.118 Y-57.828
X-151.318 Y-57.11
X-151.496 Y-56.387
X-151.652 Y-55.658
X-151.787 Y-54.926
X-151.9 Y-54.189
X-151.99 Y-53.45
X-152.059 Y-52.708
X-152.106 Y-51.964
X-152.131 Y-51.22
X-152.134 Y-50.474
X-152.115 Y-49.73
X-152.074 Y-48.986
X-152.01 Y-48.243
X-151.925 Y-47.503
X-151.818 Y-46.766
X-151.688 Y-46.032
X-151.537 Y-45.303
X-151.363 Y-44.578
X-151.169 Y-43.859
X-150.953 Y-43.146
X-150.716 Y-42.439
X-150.459 Y-41.74
X-150.18 Y-41.049
X-149.882 Y-40.366
X-149.563 Y-39.693
X-149.225 Y-39.029
X-148.866 Y-38.376
X-148.489 Y-37.733
X-148.093 Y-37.102
X-147.679 Y-36.483
X-147.246 Y-35.876
X-146.796 Y-35.283
X-146.328 Y-34.703
X-145.844 Y-34.137
X-145.343 Y-33.585
X-144.825 Y-33.049
X-144.292 Y-32.529
X-143.743 Y-32.025
X-143.18 Y-31.538
X-142.602 Y-31.067
X-142.011 Y-30.613
X-141.407 Y-30.178
X-140.79 Y-29.76
X-140.161 Y-29.36
X-139.52 Y-28.98
X-138.869 Y-28.619
X-138.206 Y-28.277
X-137.535 Y-27.955
X-136.853 Y-27.653
X-136.164 Y-27.371
X-135.466 Y-27.11
X-134.761 Y-26.869
X-134.049 Y-26.649
X-133.331 Y-26.45
X-132.607 Y-26.273
X-131.879 Y-26.117
X-131.146 Y-25.984
X-130.409 Y-25.872
X-129.67 Y-25.782
X-128.928 Y-25.714
X-128.184 Y-25.668
X-127.439 Y-25.643
X-126.694 Y-25.641
X-125.95 Y-25.661
X-125.206 Y-25.703
X-124.463 Y-25.767
X-123.723 Y-25.853
X-122.986 Y-25.96
X-122.252 Y-26.09
X-121.523 Y-26.24
X-120.798 Y-26.413
X-120.078 Y-26.606
X-119.364 Y-26.82
X-118.657 Y-27.055
X-117.958 Y-27.311
X-117.266 Y-27.587
X-116.582 Y-27.884
X-115.908 Y-28.201
X-115.244 Y-28.538
X-114.589 Y-28.894
X-113.945 Y-29.269
X-113.312 Y-29.662
X-112.691 Y-30.074
X-112.083 Y-30.504
X-111.487 Y-30.951
X-110.904 Y-31.415
X-110.336 Y-31.897
X-109.781 Y-32.395
X-109.242 Y-32.908
X-108.717 Y-33.437
X-108.208 Y-33.981
X-107.715 Y-34.54
X-107.238 Y-35.112
X-106.778 Y-35.698
X-106.335 Y-36.297
X-105.909 Y-36.909
X-105.502 Y-37.533
X-105.113 Y-38.169
X-104.743 Y-38.815
X-104.392 Y-39.472
X-104.06 Y-40.139
X-103.747 Y-40.815
X-103.454 Y-41.5
X-103.18 Y-42.193
X-102.927 Y-42.894
X-102.694 Y-43.602
X-102.482 Y-44.316
X-102.291 Y-45.036
X-102.121 Y-45.762
X-101.971 Y-46.491
X-101.843 Y-47.225
X-101.736 Y-47.963
X-101.65 Y-48.703
X-101.586 Y-49.445
X-101.543 Y-50.189
X-101.521 Y-50.934
Y-51.679
X-101.543 Y-52.423
X-101.587 Y-53.167
X-101.653 Y-53.909
X-101.74 Y-54.649
X-101.848 Y-55.387
X-101.978 Y-56.12
X-102.129 Y-56.85
X-102.301 Y-57.575
X-102.494 Y-58.294
X-102.707 Y-59.008
X-102.942 Y-59.715
X-103.197 Y-60.415
X-103.473 Y-61.108
X-103.768 Y-61.792
X-104.083 Y-62.467
X-104.417 Y-63.133
X-104.771 Y-63.789
X-105.143 Y-64.434
X-105.534 Y-65.068
X-105.943 Y-65.691
X-106.37 Y-66.302
X-106.815 Y-66.899
X-107.277 Y-67.484
X-107.756 Y-68.054
X-108.251 Y-68.611
X-108.763 Y-69.153
X-109.289 Y-69.68
X-109.831 Y-70.191
X-110.387 Y-70.687
X-110.957 Y-71.166
X-111.542 Y-71.629
X-112.139 Y-72.074
X-112.749 Y-72.502
X-113.371 Y-72.912
X-114.005 Y-73.304
X-114.65 Y-73.677
X-115.305 Y-74.032
X-115.97 Y-74.368
X-116.644 Y-74.685
X-117.328 Y-74.982
X-118.019 Y-75.259
X-118.719 Y-75.516
X-119.425 Y-75.752
X-120.138 Y-75.967
X-120.857 Y-76.163
X-121.582 Y-76.337
X-122.311 Y-76.49
X-123.044 Y-76.623
X-123.781 Y-76.735
X-124.52 Y-76.825
X-125.262 Y-76.894
X-126.006 Y-76.941
X-126.75 Y-76.967
X-127.495 Y-76.971
X-128.24 Y-76.954
X-128.984 Y-76.916
X-129.727 Y-76.857
X-130.468 Y-76.776
X-131.206 Y-76.674
X-131.941 Y-76.551
X-132.672 Y-76.407
X-133.398 Y-76.242
X-134.12 Y-76.057
X-134.836 Y-75.85
X-135.545 Y-75.622
X-136.248 Y-75.375
X-136.943 Y-75.107
X-137.631 Y-74.82
X-138.31 Y-74.514
X-138.98 Y-74.188
X-139.64 Y-73.843
X-140.291 Y-73.48
X-140.93 Y-73.097
X-141.559 Y-72.697
X-142.175 Y-72.279
X-142.78 Y-71.844
X-143.372 Y-71.391
X-143.951 Y-70.922
X-144.517 Y-70.437
X-145.068 Y-69.936
X-145.605 Y-69.42
X-146.127 Y-68.889
X-146.634 Y-68.343
X-147.125 Y-67.782
X-147.6 Y-67.208
X-148.058 Y-66.62
X-148.499 Y-66.02
X-148.923 Y-65.407
X-149.33 Y-64.783
X-149.718 Y-64.147
X-150.089 Y-63.501
X-150.441 Y-62.844
X-150.774 Y-62.177
X-151.088 Y-61.502
X-151.382 Y-60.817
X-151.657 Y-60.125
X-151.912 Y-59.425
X-152.147 Y-58.718
X-152.363 Y-58.005
X-152.558 Y-57.286
X-152.733 Y-56.561
X-152.887 Y-55.832
X-153.021 Y-55.099
X-153.133 Y-54.363
X-153.225 Y-53.624
X-153.295 Y-52.882
X-153.345 Y-52.138
X-153.373 Y-51.394
X-153.38 Y-50.649
X-153.367 Y-49.904
X-153.332 Y-49.16
X-153.276 Y-48.417
X-153.2 Y-47.675
X-153.102 Y-46.937
X-152.984 Y-46.201
X-152.844 Y-45.469
X-152.684 Y-44.742
X-152.503 Y-44.019
X-152.302 Y-43.302
X-152.081 Y-42.59
X-151.84 Y-41.885
X-151.579 Y-41.187
X-151.299 Y-40.497
X-150.999 Y-39.815
X-150.68 Y-39.141
X-150.342 Y-38.477
X-149.985 Y-37.823
X-149.61 Y-37.18
X-149.217 Y-36.547
X-148.806 Y-35.925
X-148.378 Y-35.316
X-147.933 Y-34.718
X-147.471 Y-34.133
X-146.993 Y-33.562
X-146.499 Y-33.004
X-145.989 Y-32.461
X-145.464 Y-31.932
X-144.925 Y-31.418
X-144.371 Y-30.92
X-143.803 Y-30.438
X-143.222 Y-29.971
X-142.628 Y-29.522
X-142.021 Y-29.089
X-141.403 Y-28.673
X-140.773 Y-28.275
X-140.132 Y-27.895
X-139.481 Y-27.533
X-138.819 Y-27.19
X-138.148 Y-26.867
X-137.469 Y-26.562
X-136.78 Y-26.276
X-136.085 Y-26.01
X-135.381 Y-25.763
X-134.672 Y-25.536
X-133.956 Y-25.33
X-133.235 Y-25.143
X-132.508 Y-24.977
X-131.777 Y-24.832
X-131.043 Y-24.707
X-130.305 Y-24.604
X-129.565 Y-24.521
X-128.822 Y-24.459
X-128.078 Y-24.417
X-127.333 Y-24.397
X-126.588 Y-24.398
X-125.844 Y-24.419
X-125.1 Y-24.462
X-124.357 Y-24.525
X-123.617 Y-24.61
X-122.88 Y-24.716
X-122.145 Y-24.842
X-121.415 Y-24.989
X-120.689 Y-25.157
X-119.968 Y-25.344
X-119.252 Y-25.552
X-118.543 Y-25.779
X-117.84 Y-26.026
X-117.144 Y-26.293
X-116.457 Y-26.58
X-115.777 Y-26.885
X-115.107 Y-27.21
X-114.445 Y-27.553
X-113.794 Y-27.914
X-113.152 Y-28.294
X-112.522 Y-28.691
X-111.903 Y-29.105
X-111.295 Y-29.536
X-110.7 Y-29.985
X-110.117 Y-30.449
X-109.548 Y-30.93
X-108.993 Y-31.427
X-108.451 Y-31.939
X-107.924 Y-32.465
X-107.412 Y-33.006
X-106.915 Y-33.561
X-106.433 Y-34.129
X-105.967 Y-34.711
X-105.518 Y-35.305
X-105.085 Y-35.911
X-104.668 Y-36.529
X-104.27 Y-37.159
X-103.889 Y-37.799
X-103.525 Y-38.449
X-103.18 Y-39.109
X-102.853 Y-39.779
X-102.544 Y-40.457
X-102.254 Y-41.143
X-101.984 Y-41.838
X-101.732 Y-42.539
X-101.5 Y-43.247
X-101.287 Y-43.961
X-101.095 Y-44.681
X-100.923 Y-45.406
X-100.771 Y-46.135
X-100.639 Y-46.868
X-100.527 Y-47.605
X-100.436 Y-48.344
X-100.365 Y-49.086
X-100.314 Y-49.829
X-100.284 Y-50.574
X-100.274 Y-51.319
X-100.285 Y-52.064
X-100.317 Y-52.808
X-100.37 Y-53.551
X-100.443 Y-54.293
X-100.536 Y-55.032
X-100.65 Y-55.768
X-100.784 Y-56.501
X-100.938 Y-57.23
X-101.112 Y-57.955
X-101.306 Y-58.674
X-101.52 Y-59.388
X-101.754 Y-60.095
X-102.008 Y-60.795
X-102.282 Y-61.489
X-102.574 Y-62.174
X-102.885 Y-62.851
X-103.215 Y-63.519
X-103.563 Y-64.178
X-103.929 Y-64.827
X-104.313 Y-65.465
X-104.715 Y-66.093
X-105.133 Y-66.709
X-105.569 Y-67.314
X-106.021 Y-67.906
X-106.49 Y-68.485
X-106.974 Y-69.051
X-107.474 Y-69.604
X-107.989 Y-70.142
X-108.518 Y-70.666
X-109.062 Y-71.176
X-109.619 Y-71.67
X-110.19 Y-72.149
X-110.774 Y-72.611
X-111.371 Y-73.057
X-111.98 Y-73.486
X-112.601 Y-73.898
X-113.233 Y-74.293
X-113.875 Y-74.671
X-114.528 Y-75.03
X-115.19 Y-75.372
X-115.861 Y-75.695
X-116.541 Y-76
X-117.229 Y-76.286
X-117.925 Y-76.552
X-118.628 Y-76.8
X-119.337 Y-77.028
X-120.052 Y-77.236
X-120.773 Y-77.425
X-121.499 Y-77.594
X-122.229 Y-77.743
X-122.963 Y-77.872
X-123.7 Y-77.981
X-124.44 Y-78.069
X-125.182 Y-78.137
X-125.925 Y-78.185
X-126.67 Y-78.212
X-127.415 Y-78.218
X-128.16 Y-78.204
X-128.904 Y-78.169
X-129.647 Y-78.115
X-130.388 Y-78.04
X-131.127 Y-77.944
X-131.863 Y-77.829
X-132.596 Y-77.694
X-133.325 Y-77.538
X-134.049 Y-77.363
X-134.768 Y-77.167
X-135.481 Y-76.952
X-136.188 Y-76.718
X-136.889 Y-76.464
X-137.582 Y-76.192
X-138.268 Y-75.901
X-138.946 Y-75.591
X-139.615 Y-75.263
X-140.275 Y-74.917
X-140.925 Y-74.553
X-141.564 Y-74.171
X-142.193 Y-73.772
X-142.811 Y-73.355
X-143.418 Y-72.922
X-144.012 Y-72.473
X-144.594 Y-72.008
X-145.163 Y-71.527
X-145.719 Y-71.031
X-146.261 Y-70.52
X-146.79 Y-69.995
X-147.304 Y-69.455
X-147.802 Y-68.902
X-148.286 Y-68.335
X-148.754 Y-67.756
X-149.206 Y-67.163
X-149.642 Y-66.559
X-150.062 Y-65.943
X-150.465 Y-65.317
X-150.85 Y-64.679
X-151.219 Y-64.032
X-151.569 Y-63.374
X-151.902 Y-62.708
X-152.216 Y-62.032
X-152.512 Y-61.348
X-152.789 Y-60.656
X-153.046 Y-59.957
X-153.285 Y-59.251
X-153.505 Y-58.54
X-153.705 Y-57.822
X-153.887 Y-57.099
X-154.048 Y-56.372
X-154.19 Y-55.64
X-154.312 Y-54.906
X-154.414 Y-54.167
X-154.496 Y-53.427
X-154.558 Y-52.684
X-154.6 Y-51.941
X-154.622 Y-51.196
X-154.624 Y-50.451
X-154.606 Y-49.706
X-154.568 Y-48.962
X-154.51 Y-48.219
X-154.431 Y-47.478
X-154.333 Y-46.74
X-154.215 Y-46.004
X-154.076 Y-45.272
X-153.918 Y-44.544
X-153.74 Y-43.82
X-153.542 Y-43.102
X-153.325 Y-42.389
X-153.09 Y-41.682
X-152.835 Y-40.982
X-152.561 Y-40.289
X-152.269 Y-39.604
X-151.959 Y-38.926
X-151.63 Y-38.258
X-151.284 Y-37.598
X-150.919 Y-36.948
X-150.537 Y-36.309
X-150.139 Y-35.679
X-149.723 Y-35.061
X-149.291 Y-34.454
X-148.843 Y-33.859
X-148.379 Y-33.275
X-147.9 Y-32.705
X-147.405 Y-32.148
X-146.896 Y-31.604
X-146.371 Y-31.075
X-145.833 Y-30.56
X-145.281 Y-30.06
X-144.715 Y-29.575
X-144.137 Y-29.105
X-143.546 Y-28.651
X-142.943 Y-28.213
X-142.329 Y-27.792
X-141.703 Y-27.387
X-141.067 Y-26.999
X-140.421 Y-26.628
X-139.765 Y-26.275
X-139.099 Y-25.94
X-138.425 Y-25.623
X-137.742 Y-25.325
X-137.052 Y-25.044
X-136.354 Y-24.783
X-135.65 Y-24.54
X-134.939 Y-24.316
X-134.223 Y-24.111
X-133.502 Y-23.925
X-132.775 Y-23.759
X-132.045 Y-23.613
X-131.31 Y-23.487
X-130.573 Y-23.381
X-129.833 Y-23.295
X-129.091 Y-23.229
X-128.347 Y-23.182
X-127.602 Y-23.156
X-126.857 Y-23.149
X-126.112 Y-23.163
X-125.368 Y-23.197
X-124.625 Y-23.25
X-123.884 Y-23.324
X-123.144 Y-23.418
X-122.408 Y-23.531
X-121.675 Y-23.664
X-120.946 Y-23.817
X-120.221 Y-23.989
X-119.501 Y-24.181
X-118.786 Y-24.391
X-118.077 Y-24.621
X-117.375 Y-24.869
X-116.679 Y-25.136
X-115.991 Y-25.422
X-115.311 Y-25.727
X-114.64 Y-26.049
X-113.977 Y-26.39
X-113.324 Y-26.748
X-112.68 Y-27.123
X-112.046 Y-27.515
X-111.423 Y-27.924
X-110.812 Y-28.349
X-110.211 Y-28.79
X-109.623 Y-29.247
X-109.047 Y-29.72
X-108.484 Y-30.208
X-107.934 Y-30.711
X-107.398 Y-31.228
X-106.875 Y-31.759
X-106.367 Y-32.304
X-105.873 Y-32.861
X-105.394 Y-33.432
X-104.93 Y-34.015
X-104.481 Y-34.61
X-104.049 Y-35.217
X-103.632 Y-35.834
X-103.233 Y-36.463
X-102.85 Y-37.103
X-102.485 Y-37.752
X-102.136 Y-38.411
X-101.806 Y-39.078
X-101.492 Y-39.754
X-101.197 Y-40.438
X-100.92 Y-41.13
X-100.661 Y-41.828
X-100.42 Y-42.534
X-100.198 Y-43.245
X-99.996 Y-43.962
X-99.812 Y-44.684
X-99.647 Y-45.41
X-99.502 Y-46.141
X-99.376 Y-46.876
X-99.269 Y-47.613
X-99.182 Y-48.353
X-99.114 Y-49.095
X-99.065 Y-49.838
X-99.036 Y-50.583
X-99.027 Y-51.328
X-99.038 Y-52.073
X-99.068 Y-52.817
X-99.119 Y-53.561
X-99.189 Y-54.302
X-99.279 Y-55.042
X-99.388 Y-55.779
X-99.517 Y-56.513
X-99.665 Y-57.243
X-99.832 Y-57.969
X-100.018 Y-58.691
X-100.223 Y-59.407
X-100.448 Y-60.117
X-100.691 Y-60.822
X-100.953 Y-61.519
X-101.233 Y-62.209
X-101.531 Y-62.892
X-101.847 Y-63.567
X-102.181 Y-64.233
X-102.533 Y-64.89
X-102.901 Y-65.537
X-103.286 Y-66.175
X-103.689 Y-66.802
X-104.107 Y-67.419
X-104.542 Y-68.023
X-104.993 Y-68.616
X-105.46 Y-69.197
X-105.942 Y-69.765
X-106.439 Y-70.321
X-106.95 Y-70.862
X-107.476 Y-71.391
X-108.015 Y-71.905
X-108.567 Y-72.405
X-109.132 Y-72.89
X-109.71 Y-73.361
X-110.301 Y-73.815
X-110.903 Y-74.254
X-111.517 Y-74.676
X-112.141 Y-75.082
X-112.776 Y-75.472
X-113.421 Y-75.845
X-114.076 Y-76.201
X-114.74 Y-76.54
X-115.412 Y-76.861
X-116.092 Y-77.164
X-116.781 Y-77.45
X-117.476 Y-77.717
X-118.179 Y-77.965
X-118.887 Y-78.195
X-119.602 Y-78.405
X-120.322 Y-78.597
X-121.047 Y-78.77
X-121.776 Y-78.924
X-122.508 Y-79.059
X-123.244 Y-79.175
X-123.983 Y-79.272
X-124.724 Y-79.349
X-125.467 Y-79.406
X-126.211 Y-79.444
X-126.956 Y-79.462
X-127.701 Y-79.461
X-128.446 Y-79.44
X-129.19 Y-79.4
X-129.932 Y-79.34
X-130.673 Y-79.261
X-131.412 Y-79.163
X-132.148 Y-79.045
X-132.88 Y-78.909
X-133.609 Y-78.753
X-134.333 Y-78.578
X-135.052 Y-78.384
X-135.766 Y-78.17
X-136.474 Y-77.939
X-137.176 Y-77.688
X-137.871 Y-77.42
X-138.559 Y-77.134
X-139.239 Y-76.83
X-139.911 Y-76.508
X-140.575 Y-76.169
X-141.229 Y-75.813
X-141.874 Y-75.44
X-142.509 Y-75.05
X-143.133 Y-74.644
X-143.747 Y-74.221
X-144.349 Y-73.782
X-144.94 Y-73.329
X-145.519 Y-72.86
X-146.086 Y-72.376
X-146.64 Y-71.878
X-147.181 Y-71.366
X-147.708 Y-70.839
X-148.222 Y-70.3
X-148.721 Y-69.747
X-149.206 Y-69.181
X-149.675 Y-68.602
X-150.13 Y-68.012
X-150.569 Y-67.41
X-150.992 Y-66.796
X-151.399 Y-66.173
X-151.79 Y-65.538
X-152.165 Y-64.894
X-152.522 Y-64.241
X-152.863 Y-63.578
X-153.186 Y-62.907
X-153.492 Y-62.227
X-153.779 Y-61.54
X-154.049 Y-60.845
X-154.301 Y-60.144
X-154.534 Y-59.437
X-154.749 Y-58.723
X-154.946 Y-58.005
X-155.125 Y-57.281
X-155.284 Y-56.553
X-155.425 Y-55.822
X-155.547 Y-55.087
X-155.649 Y-54.349
X-155.733 Y-53.608
X-155.796 Y-52.866
X-155.841 Y-52.122
X-155.866 Y-51.378
X-155.872 Y-50.633
X-155.86 Y-49.888
X-155.828 Y-49.143
X-155.776 Y-48.4
X-155.706 Y-47.658
X-155.617 Y-46.919
X-155.508 Y-46.182
X-155.38 Y-45.448
X-155.233 Y-44.717
X-155.067 Y-43.991
X-154.883 Y-43.269
X-154.68 Y-42.552
X-154.458 Y-41.841
X-154.219 Y-41.135
X-153.961 Y-40.436
X-153.686 Y-39.744
X-153.392 Y-39.059
X-153.082 Y-38.382
X-152.753 Y-37.713
X-152.407 Y-37.053
X-152.045 Y-36.402
X-151.665 Y-35.761
X-151.269 Y-35.13
X-150.857 Y-34.509
X-150.429 Y-33.899
X-149.986 Y-33.3
X-149.527 Y-32.713
X-149.054 Y-32.138
X-148.566 Y-31.575
X-148.063 Y-31.025
X-147.547 Y-30.488
X-147.016 Y-29.965
X-146.472 Y-29.455
X-145.916 Y-28.96
X-145.346 Y-28.48
X-144.765 Y-28.014
X-144.172 Y-27.563
X-143.567 Y-27.128
X-142.951 Y-26.708
X-142.325 Y-26.304
X-141.689 Y-25.917
X-141.043 Y-25.546
X-140.387 Y-25.192
X-139.722 Y-24.856
X-139.049 Y-24.537
X-138.368 Y-24.235
X-137.679 Y-23.951
X-136.983 Y-23.684
X-136.281 Y-23.436
X-135.572 Y-23.206
X-134.858 Y-22.993
X-134.138 Y-22.8
X-133.414 Y-22.624
X-132.686 Y-22.468
X-131.953 Y-22.331
X-131.218 Y-22.213
X-130.479 Y-22.114
X-129.739 Y-22.033
X-128.996 Y-21.972
X-128.252 Y-21.93
X-127.507 Y-21.907
X-126.762 Y-21.903
X-126.018 Y-21.918
X-125.273 Y-21.952
X-124.53 Y-22.006
X-123.789 Y-22.079
X-123.049 Y-22.171
X-122.313 Y-22.282
X-121.579 Y-22.412
X-120.849 Y-22.561
X-120.123 Y-22.729
X-119.401 Y-22.915
X-118.685 Y-23.119
X-117.974 Y-23.342
X-117.269 Y-23.582
X-116.57 Y-23.841
X-115.878 Y-24.117
X-115.194 Y-24.411
X-114.517 Y-24.723
X-113.848 Y-25.052
X-113.189 Y-25.398
X-112.538 Y-25.761
X-111.896 Y-26.14
X-111.265 Y-26.535
X-110.643 Y-26.946
X-110.032 Y-27.373
X-109.433 Y-27.815
X-108.844 Y-28.272
X-108.268 Y-28.744
X-107.704 Y-29.231
X-107.153 Y-29.732
X-106.615 Y-30.247
X-106.089 Y-30.776
X-105.578 Y-31.318
X-105.08 Y-31.872
X-104.596 Y-32.439
X-104.127 Y-33.017
X-103.672 Y-33.608
X-103.233 Y-34.209
X-102.809 Y-34.822
X-102.4 Y-35.445
X-102.008 Y-36.078
X-101.632 Y-36.721
X-101.272 Y-37.374
X-100.929 Y-38.035
X-100.602 Y-38.705
X-100.293 Y-39.383
X-100 Y-40.068
X-99.725 Y-40.76
X-99.467 Y-41.459
X-99.228 Y-42.165
X-99.006 Y-42.876
X-98.802 Y-43.593
X-98.617 Y-44.314
X-98.45 Y-45.041
X-98.302 Y-45.771
X-98.172 Y-46.504
X-98.061 Y-47.241
X-97.968 Y-47.98
X-97.893 Y-48.722
X-97.838 Y-49.465
X-97.801 Y-50.209
X-97.783 Y-50.954
Y-51.699
X-97.803 Y-52.444
X-97.842 Y-53.188
X-97.9 Y-53.93
X-97.976 Y-54.672
X-98.071 Y-55.41
X-98.185 Y-56.147
X-98.317 Y-56.88
X-98.468 Y-57.61
X-98.637 Y-58.335
X-98.824 Y-59.056
X-99.03 Y-59.773
X-99.254 Y-60.483
X-99.496 Y-61.188
X-99.756 Y-61.886
X-100.034 Y-62.577
X-100.329 Y-63.261
X-100.642 Y-63.938
X-100.971 Y-64.606
X-101.317 Y-65.266
X-101.68 Y-65.917
X-102.059 Y-66.558
X-102.453 Y-67.19
X-102.864 Y-67.812
X-103.291 Y-68.422
X-103.733 Y-69.022
X-104.19 Y-69.61
X-104.662 Y-70.187
X-105.149 Y-70.751
X-105.649 Y-71.303
X-106.164 Y-71.842
X-106.691 Y-72.368
X-107.232 Y-72.881
X-107.785 Y-73.38
X-108.351 Y-73.864
X-108.929 Y-74.334
X-109.519 Y-74.789
X-110.121 Y-75.229
X-110.733 Y-75.654
X-111.356 Y-76.062
X-111.989 Y-76.455
X-112.632 Y-76.832
X-113.284 Y-77.193
X-113.945 Y-77.537
X-114.614 Y-77.864
X-115.291 Y-78.175
X-115.976 Y-78.468
X-116.668 Y-78.744
X-117.367 Y-79.003
X-118.072 Y-79.243
X-118.783 Y-79.466
X-119.5 Y-79.67
X-120.221 Y-79.857
X-120.947 Y-80.026
X-121.676 Y-80.176
X-122.41 Y-80.308
X-123.146 Y-80.422
X-123.885 Y-80.517
X-124.626 Y-80.593
X-125.369 Y-80.651
X-126.113 Y-80.69
X-126.858 Y-80.71
X-127.603 Y-80.711
X-128.348 Y-80.693
X-129.092 Y-80.656
X-129.835 Y-80.601
X-130.576 Y-80.528
X-131.316 Y-80.436
X-132.053 Y-80.326
X-132.786 Y-80.197
X-133.517 Y-80.05
X-134.243 Y-79.884
X-134.965 Y-79.701
X-135.682 Y-79.499
X-136.394 Y-79.279
X-137.101 Y-79.041
X-137.801 Y-78.786
X-138.494 Y-78.514
X-139.18 Y-78.224
X-139.859 Y-77.917
X-140.531 Y-77.594
X-141.194 Y-77.254
X-141.848 Y-76.897
X-142.493 Y-76.525
X-143.128 Y-76.136
X-143.754 Y-75.73
X-144.369 Y-75.31
X-144.973 Y-74.874
X-145.566 Y-74.423
X-146.148 Y-73.958
X-146.719 Y-73.479
X-147.277 Y-72.985
X-147.823 Y-72.478
X-148.356 Y-71.958
X-148.876 Y-71.424
X-149.383 Y-70.878
X-149.875 Y-70.319
X-150.354 Y-69.748
X-150.818 Y-69.165
X-151.268 Y-68.571
X-151.702 Y-67.966
X-152.122 Y-67.35
X-152.526 Y-66.724
X-152.915 Y-66.089
X-153.288 Y-65.444
X-153.644 Y-64.79
X-153.985 Y-64.127
X-154.308 Y-63.456
X-154.615 Y-62.776
X-154.904 Y-62.09
X-155.176 Y-61.396
X-155.43 Y-60.696
X-155.668 Y-59.99
X-155.888 Y-59.278
X-156.09 Y-58.561
X-156.274 Y-57.839
X-156.441 Y-57.113
X-156.589 Y-56.383
X-156.72 Y-55.649
X-156.832 Y-54.913
X-156.926 Y-54.173
X-157.001 Y-53.432
X-157.058 Y-52.689
X-157.097 Y-51.945
X-157.117 Y-51.2
X-157.119 Y-50.455
X-157.102 Y-49.71
X-157.067 Y-48.966
X-157.014 Y-48.223
X-156.943 Y-47.481
X-156.853 Y-46.742
X-156.744 Y-46.005
X-156.617 Y-45.27
X-156.472 Y-44.54
X-156.309 Y-43.813
X-156.127 Y-43.09
X-155.928 Y-42.372
X-155.711 Y-41.66
X-155.476 Y-40.952
X-155.225 Y-40.251
X-154.956 Y-39.556
X-154.67 Y-38.868
X-154.367 Y-38.187
X-154.047 Y-37.514
X-153.711 Y-36.85
X-153.358 Y-36.193
X-152.989 Y-35.546
X-152.604 Y-34.908
X-152.204 Y-34.28
X-151.788 Y-33.662
X-151.357 Y-33.054
X-150.912 Y-32.457
X-150.452 Y-31.871
X-149.977 Y-31.296
X-149.489 Y-30.733
X-148.986 Y-30.183
X-148.47 Y-29.646
X-147.941 Y-29.121
X-147.399 Y-28.611
X-146.844 Y-28.113
X-146.277 Y-27.63
X-145.698 Y-27.16
X-145.108 Y-26.705
X-144.507 Y-26.265
X-143.896 Y-25.84
X-143.274 Y-25.429
X-142.642 Y-25.034
X-142.001 Y-24.655
X-141.35 Y-24.293
X-140.69 Y-23.946
X-140.022 Y-23.616
X-139.346 Y-23.302
X-138.663 Y-23.006
X-137.973 Y-22.726
X-137.275 Y-22.463
X-136.572 Y-22.217
X-135.863 Y-21.989
X-135.148 Y-21.778
X-134.429 Y-21.585
X-133.704 Y-21.41
X-132.976 Y-21.253
X-132.244 Y-21.114
X-131.509 Y-20.994
X-130.771 Y-20.892
X-130.03 Y-20.808
X-129.288 Y-20.742
X-128.545 Y-20.695
X-127.8 Y-20.666
X-127.055 Y-20.655
X-126.31 Y-20.662
X-125.566 Y-20.688
X-124.822 Y-20.732
X-124.079 Y-20.795
X-123.339 Y-20.876
X-122.6 Y-20.975
X-121.865 Y-21.093
X-121.132 Y-21.229
X-120.403 Y-21.382
X-119.678 Y-21.554
X-118.957 Y-21.743
X-118.241 Y-21.949
X-117.531 Y-22.173
X-116.826 Y-22.414
X-116.127 Y-22.673
X-115.435 Y-22.949
X-114.75 Y-23.242
X-114.072 Y-23.552
X-113.403 Y-23.878
X-112.741 Y-24.221
X-112.088 Y-24.58
X-111.444 Y-24.955
X-110.81 Y-25.345
X-110.185 Y-25.751
X-109.57 Y-26.171
X-108.965 Y-26.607
X-108.371 Y-27.057
X-107.789 Y-27.521
X-107.218 Y-28
X-106.659 Y-28.493
X-106.112 Y-28.999
X-105.578 Y-29.518
X-105.056 Y-30.05
X-104.548 Y-30.595
X-104.052 Y-31.151
X-103.571 Y-31.72
X-103.103 Y-32.3
X-102.649 Y-32.891
X-102.21 Y-33.492
X-101.785 Y-34.105
X-101.376 Y-34.727
X-100.983 Y-35.36
X-100.604 Y-36.002
X-100.242 Y-36.653
X-99.895 Y-37.312
X-99.565 Y-37.98
X-99.25 Y-38.656
X-98.952 Y-39.338
X-98.671 Y-40.028
X-98.406 Y-40.725
X-98.158 Y-41.427
X-97.927 Y-42.136
X-97.714 Y-42.85
X-97.518 Y-43.568
X-97.34 Y-44.292
X-97.179 Y-45.019
X-97.036 Y-45.751
X-96.911 Y-46.485
X-96.804 Y-47.222
X-96.714 Y-47.962
X-96.642 Y-48.704
X-96.588 Y-49.447
X-96.551 Y-50.191
X-96.533 Y-50.936
X-96.534 Y-51.681
X-96.552 Y-52.426
X-96.589 Y-53.17
X-96.644 Y-53.913
X-96.718 Y-54.654
X-96.809 Y-55.394
X-96.918 Y-56.131
X-97.044 Y-56.865
X-97.189 Y-57.596
X-97.351 Y-58.323
X-97.53 Y-59.046
X-97.727 Y-59.765
X-97.942 Y-60.478
X-98.174 Y-61.186
X-98.424 Y-61.888
X-98.69 Y-62.584
X-98.973 Y-63.273
X-99.273 Y-63.955
X-99.59 Y-64.63
X-99.922 Y-65.296
X-100.271 Y-65.955
X-100.635 Y-66.605
X-101.015 Y-67.246
X-101.41 Y-67.877
X-101.821 Y-68.499
X-102.247 Y-69.11
X-102.688 Y-69.711
X-103.144 Y-70.3
X-103.613 Y-70.879
X-104.097 Y-71.445
X-104.594 Y-72
X-105.105 Y-72.543
X-105.628 Y-73.073
X-106.164 Y-73.591
X-106.712 Y-74.095
X-107.273 Y-74.586
X-107.845 Y-75.063
X-108.429 Y-75.526
X-109.024 Y-75.975
X-109.629 Y-76.409
X-110.245 Y-76.828
X-110.871 Y-77.232
X-111.507 Y-77.621
X-112.152 Y-77.994
X-112.805 Y-78.352
X-113.467 Y-78.694
X-114.137 Y-79.02
X-114.815 Y-79.33
X-115.5 Y-79.623
X-116.191 Y-79.9
X-116.89 Y-80.159
X-117.595 Y-80.401
X-118.305 Y-80.626
X-119.02 Y-80.834
X-119.741 Y-81.024
X-120.465 Y-81.197
X-121.194 Y-81.353
X-121.926 Y-81.491
X-122.661 Y-81.612
X-123.399 Y-81.715
X-124.139 Y-81.8
X-124.882 Y-81.867
X-125.625 Y-81.916
X-126.369 Y-81.947
X-127.114 Y-81.96
X-127.859 Y-81.954
X-128.604 Y-81.931
X-129.348 Y-81.89
X-130.091 Y-81.832
X-130.832 Y-81.755
X-131.571 Y-81.661
X-132.308 Y-81.549
X-133.041 Y-81.42
X-133.772 Y-81.273
X-134.498 Y-81.108
X-135.221 Y-80.926
X-135.938 Y-80.725
X-136.651 Y-80.508
X-137.358 Y-80.274
X-138.06 Y-80.022
X-138.755 Y-79.754
X-139.444 Y-79.47
X-140.125 Y-79.169
X-140.799 Y-78.852
X-141.466 Y-78.519
X-142.124 Y-78.17
X-142.774 Y-77.806
X-143.415 Y-77.426
X-144.046 Y-77.03
X-144.668 Y-76.619
X-145.28 Y-76.194
X-145.881 Y-75.754
X-146.472 Y-75.3
X-147.051 Y-74.832
X-147.62 Y-74.35
X-148.177 Y-73.855
X-148.722 Y-73.347
X-149.254 Y-72.826
X-149.775 Y-72.293
X-150.282 Y-71.747
X-150.775 Y-71.189
X-151.255 Y-70.619
X-151.722 Y-70.038
X-152.174 Y-69.446
X-152.612 Y-68.843
X-153.035 Y-68.23
X-153.444 Y-67.608
X-153.838 Y-66.975
X-154.217 Y-66.334
X-154.581 Y-65.683
X-154.929 Y-65.025
X-155.261 Y-64.358
X-155.577 Y-63.683
X-155.876 Y-63.001
X-156.159 Y-62.311
X-156.426 Y-61.616
X-156.676 Y-60.914
X-156.909 Y-60.206
X-157.125 Y-59.493
X-157.325 Y-58.775
X-157.507 Y-58.053
X-157.673 Y-57.326
X-157.821 Y-56.596
X-157.951 Y-55.863
X-158.064 Y-55.126
X-158.159 Y-54.387
X-158.237 Y-53.646
X-158.296 Y-52.904
X-158.338 Y-52.16
X-158.362 Y-51.415
X-158.369 Y-50.67
X-158.358 Y-49.925
X-158.329 Y-49.18
X-158.283 Y-48.437
X-158.219 Y-47.694
X-158.138 Y-46.954
X-158.039 Y-46.215
X-157.922 Y-45.48
X-157.788 Y-44.747
X-157.636 Y-44.017
X-157.466 Y-43.292
X-157.28 Y-42.57
X-157.076 Y-41.854
X-156.856 Y-41.142
X-156.619 Y-40.436
X-156.365 Y-39.735
X-156.095 Y-39.041
X-155.808 Y-38.353
X-155.506 Y-37.672
X-155.187 Y-36.999
X-154.851 Y-36.334
X-154.5 Y-35.676
X-154.133 Y-35.028
X-153.751 Y-34.388
X-153.354 Y-33.758
X-152.943 Y-33.137
X-152.516 Y-32.526
X-152.076 Y-31.925
X-151.621 Y-31.335
X-151.152 Y-30.755
X-150.67 Y-30.187
X-150.175 Y-29.631
X-149.666 Y-29.086
X-149.145 Y-28.554
X-148.61 Y-28.035
X-148.064 Y-27.528
X-147.506 Y-27.035
X-146.936 Y-26.555
X-146.355 Y-26.088
X-145.763 Y-25.636
X-145.161 Y-25.197
X-144.549 Y-24.773
X-143.926 Y-24.363
X-143.294 Y-23.969
X-142.653 Y-23.589
X-142.003 Y-23.225
X-141.344 Y-22.877
X-140.677 Y-22.545
X-140.003 Y-22.228
X-139.321 Y-21.928
X-138.632 Y-21.644
X-137.937 Y-21.376
X-137.236 Y-21.124
X-136.529 Y-20.89
X-135.816 Y-20.672
X-135.099 Y-20.47
X-134.377 Y-20.286
X-133.651 Y-20.119
X-132.921 Y-19.97
X-132.187 Y-19.838
X-131.451 Y-19.724
X-130.712 Y-19.627
X-129.972 Y-19.548
X-129.229 Y-19.486
X-128.485 Y-19.442
X-127.741 Y-19.415
X-126.996 Y-19.405
X-126.251 Y-19.414
X-125.506 Y-19.44
X-124.762 Y-19.483
X-124.02 Y-19.545
X-123.279 Y-19.624
X-122.54 Y-19.722
X-121.804 Y-19.836
X-121.071 Y-19.968
X-120.341 Y-20.117
X-119.615 Y-20.283
X-118.892 Y-20.467
X-118.175 Y-20.667
X-117.462 Y-20.884
X-116.754 Y-21.117
X-116.053 Y-21.367
X-115.357 Y-21.634
X-114.668 Y-21.917
X-113.986 Y-22.217
X-113.311 Y-22.533
X-112.643 Y-22.864
X-111.984 Y-23.211
X-111.333 Y-23.573
X-110.691 Y-23.951
X-110.057 Y-24.343
X-109.433 Y-24.75
X-108.819 Y-25.172
X-108.215 Y-25.607
X-107.621 Y-26.057
X-107.038 Y-26.521
X-106.466 Y-26.999
X-105.905 Y-27.49
X-105.357 Y-27.994
X-104.82 Y-28.51
X-104.295 Y-29.04
X-103.783 Y-29.581
X-103.284 Y-30.134
X-102.797 Y-30.698
X-102.324 Y-31.273
X-101.864 Y-31.859
X-101.418 Y-32.456
X-100.986 Y-33.063
X-100.568 Y-33.68
X-100.165 Y-34.307
X-99.777 Y-34.943
X-99.404 Y-35.588
X-99.046 Y-36.241
X-98.703 Y-36.903
X-98.376 Y-37.572
X-98.064 Y-38.249
X-97.768 Y-38.932
X-97.488 Y-39.623
X-97.223 Y-40.319
X-96.976 Y-41.022
X-96.744 Y-41.73
X-96.53 Y-42.444
X-96.333 Y-43.162
X-96.152 Y-43.885
X-95.988 Y-44.612
X-95.842 Y-45.342
X-95.712 Y-46.076
X-95.599 Y-46.813
X-95.504 Y-47.552
X-95.425 Y-48.292
X-95.364 Y-49.035
X-95.319 Y-49.779
X-95.293 Y-50.523
X-95.283 Y-51.268
X-95.291 Y-52.013
X-95.317 Y-52.758
X-95.36 Y-53.502
X-95.421 Y-54.244
X-95.499 Y-54.985
X-95.594 Y-55.724
X-95.706 Y-56.461
X-95.835 Y-57.195
X-95.981 Y-57.925
X-96.144 Y-58.652
X-96.324 Y-59.375
X-96.521 Y-60.094
X-96.735 Y-60.808
X-96.966 Y-61.516
X-97.214 Y-62.219
X-97.477 Y-62.915
X-97.758 Y-63.606
X-98.054 Y-64.289
X-98.366 Y-64.966
X-98.693 Y-65.635
X-99.036 Y-66.297
X-99.395 Y-66.95
X-99.768 Y-67.595
X-100.156 Y-68.231
X-100.559 Y-68.857
X-100.977 Y-69.474
X-101.409 Y-70.081
X-101.855 Y-70.678
X-102.315 Y-71.264
X-102.789 Y-71.839
X-103.276 Y-72.403
X-103.776 Y-72.955
X-104.289 Y-73.496
X-104.814 Y-74.025
X-105.351 Y-74.541
X-105.9 Y-75.045
X-106.46 Y-75.536
X-107.032 Y-76.013
X-107.615 Y-76.477
X-108.209 Y-76.927
X-108.813 Y-77.363
X-109.428 Y-77.784
X-110.051 Y-78.192
X-110.685 Y-78.584
X-111.327 Y-78.962
X-111.978 Y-79.325
X-112.636 Y-79.673
X-113.303 Y-80.005
X-113.978 Y-80.322
X-114.659 Y-80.624
X-115.347 Y-80.909
X-116.042 Y-81.178
X-116.743 Y-81.43
X-117.45 Y-81.667
X-118.162 Y-81.886
X-118.878 Y-82.09
X-119.6 Y-82.276
X-120.325 Y-82.446
X-121.054 Y-82.599
X-121.787 Y-82.735
X-122.522 Y-82.855
X-123.26 Y-82.957
X-124 Y-83.042
X-124.742 Y-83.11
X-125.486 Y-83.16
X-126.23 Y-83.193
X-126.975 Y-83.208
X-127.72 Y-83.206
X-128.465 Y-83.187
X-129.209 Y-83.151
X-129.952 Y-83.098
X-130.694 Y-83.027
X-131.434 Y-82.94
X-132.172 Y-82.835
X-132.907 Y-82.714
X-133.639 Y-82.576
X-134.367 Y-82.42
X-135.092 Y-82.248
X-135.813 Y-82.059
X-136.529 Y-81.853
X-137.24 Y-81.63
X-137.946 Y-81.391
X-138.646 Y-81.137
X-139.34 Y-80.866
X-140.028 Y-80.579
X-140.709 Y-80.277
X-141.382 Y-79.959
X-142.049 Y-79.625
X-142.707 Y-79.277
X-143.357 Y-78.913
X-143.999 Y-78.534
X-144.631 Y-78.14
X-145.254 Y-77.731
X-145.868 Y-77.309
X-146.472 Y-76.872
X-147.065 Y-76.422
X-147.648 Y-75.958
X-148.221 Y-75.481
X-148.782 Y-74.991
X-149.332 Y-74.489
X-149.871 Y-73.974
X-150.397 Y-73.446
X-150.911 Y-72.907
X-151.413 Y-72.356
X-151.901 Y-71.794
X-152.377 Y-71.22
X-152.839 Y-70.636
X-153.288 Y-70.041
X-153.723 Y-69.436
X-154.144 Y-68.821
X-154.55 Y-68.197
X-154.943 Y-67.564
X-155.321 Y-66.922
X-155.684 Y-66.271
X-156.033 Y-65.613
X-156.365 Y-64.946
X-156.682 Y-64.272
X-156.984 Y-63.59
X-157.269 Y-62.902
X-157.539 Y-62.208
X-157.793 Y-61.507
X-158.03 Y-60.801
X-158.252 Y-60.09
X-158.457 Y-59.373
X-158.646 Y-58.653
X-158.819 Y-57.928
X-158.975 Y-57.199
X-159.114 Y-56.467
X-159.237 Y-55.732
X-159.342 Y-54.995
X-159.43 Y-54.255
X-159.502 Y-53.513
X-159.556 Y-52.77
X-159.594 Y-52.026
X-159.614 Y-51.281
X-159.618 Y-50.536
X-159.604 Y-49.791
X-159.574 Y-49.047
X-159.527 Y-48.303
X-159.462 Y-47.561
X-159.381 Y-46.82
X-159.283 Y-46.082
X-159.168 Y-45.346
X-159.035 Y-44.613
X-158.886 Y-43.883
X-158.72 Y-43.156
X-158.537 Y-42.434
X-158.338 Y-41.716
X-158.123 Y-41.003
X-157.891 Y-40.295
X-157.644 Y-39.592
X-157.381 Y-38.895
X-157.102 Y-38.204
X-156.807 Y-37.52
X-156.496 Y-36.842
X-156.171 Y-36.172
X-155.829 Y-35.51
X-155.473 Y-34.856
X-155.102 Y-34.21
X-154.716 Y-33.572
X-154.315 Y-32.944
X-153.901 Y-32.325
X-153.473 Y-31.715
X-153.031 Y-31.116
X-152.575 Y-30.526
X-152.106 Y-29.947
X-151.624 Y-29.379
X-151.129 Y-28.822
X-150.622 Y-28.276
X-150.101 Y-27.743
X-149.569 Y-27.222
X-149.025 Y-26.713
X-148.469 Y-26.217
X-147.902 Y-25.733
X-147.325 Y-25.262
X-146.737 Y-24.805
X-146.138 Y-24.361
X-145.53 Y-23.931
X-144.912 Y-23.514
X-144.285 Y-23.112
X-143.649 Y-22.725
X-143.003 Y-22.352
X-142.35 Y-21.994
X-141.688 Y-21.651
X-141.019 Y-21.324
X-140.343 Y-21.011
X-139.659 Y-20.715
X-138.969 Y-20.433
X-138.273 Y-20.168
X-137.571 Y-19.918
X-136.864 Y-19.684
X-136.151 Y-19.467
X-135.434 Y-19.265
X-134.712 Y-19.081
X-133.986 Y-18.913
X-133.257 Y-18.762
X-132.524 Y-18.627
X-131.788 Y-18.51
X-131.05 Y-18.409
X-130.31 Y-18.326
X-129.568 Y-18.258
X-128.824 Y-18.208
X-128.08 Y-18.175
X-127.335 Y-18.158
X-126.59 Y-18.159
X-125.845 Y-18.176
X-125.101 Y-18.21
X-124.357 Y-18.262
X-123.616 Y-18.331
X-122.875 Y-18.416
X-122.137 Y-18.519
X-121.402 Y-18.638
X-120.669 Y-18.774
X-119.94 Y-18.926
X-119.214 Y-19.095
X-118.493 Y-19.28
X-117.775 Y-19.481
X-117.063 Y-19.698
X-116.355 Y-19.932
X-115.653 Y-20.181
X-114.957 Y-20.447
X-114.267 Y-20.729
X-113.584 Y-21.026
X-112.908 Y-21.339
X-112.239 Y-21.668
X-111.578 Y-22.011
X-110.924 Y-22.369
X-110.279 Y-22.741
X-109.642 Y-23.128
X-109.015 Y-23.529
X-108.396 Y-23.944
X-107.787 Y-24.373
X-107.187 Y-24.816
X-106.598 Y-25.272
X-106.02 Y-25.742
X-105.452 Y-26.224
X-104.895 Y-26.719
X-104.35 Y-27.227
X-103.816 Y-27.746
X-103.294 Y-28.278
X-102.784 Y-28.821
X-102.286 Y-29.375
X-101.8 Y-29.941
X-101.328 Y-30.516
X-100.868 Y-31.103
X-100.422 Y-31.699
X-99.989 Y-32.306
X-99.57 Y-32.922
X-99.166 Y-33.548
X-98.775 Y-34.182
X-98.399 Y-34.826
X-98.037 Y-35.477
X-97.691 Y-36.136
X-97.358 Y-36.803
X-97.041 Y-37.477
X-96.739 Y-38.159
X-96.452 Y-38.846
X-96.181 Y-39.54
X-95.925 Y-40.24
X-95.685 Y-40.945
X-95.461 Y-41.656
X-95.253 Y-42.371
X-95.061 Y-43.091
X-94.885 Y-43.815
X-94.726 Y-44.543
X-94.583 Y-45.274
X-94.457 Y-46.008
X-94.346 Y-46.745
X-94.253 Y-47.484
X-94.175 Y-48.225
X-94.114 Y-48.968
X-94.07 Y-49.712
X-94.043 Y-50.456
X-94.032 Y-51.201
X-94.039 Y-51.946
X-94.063 Y-52.691
X-94.103 Y-53.435
X-94.16 Y-54.178
X-94.233 Y-54.919
X-94.323 Y-55.659
X-94.43 Y-56.396
X-94.553 Y-57.131
X-94.693 Y-57.863
X-94.848 Y-58.592
X-95.02 Y-59.317
X-95.209 Y-60.037
X-95.413 Y-60.754
X-95.634 Y-61.465
X-95.871 Y-62.172
X-96.124 Y-62.873
X-96.392 Y-63.568
X-96.676 Y-64.257
X-96.976 Y-64.939
X-97.29 Y-65.614
X-97.62 Y-66.282
X-97.964 Y-66.943
X-98.323 Y-67.596
X-98.697 Y-68.241
X-99.085 Y-68.877
X-99.487 Y-69.504
X-99.904 Y-70.121
X-100.334 Y-70.73
X-100.778 Y-71.328
X-101.236 Y-71.916
X-101.707 Y-72.493
X-102.19 Y-73.06
X-102.686 Y-73.616
X-103.194 Y-74.161
X-103.715 Y-74.694
X-104.247 Y-75.216
X-104.79 Y-75.725
X-105.345 Y-76.223
X-105.911 Y-76.707
X-106.488 Y-77.179
X-107.075 Y-77.637
X-107.673 Y-78.083
X-108.28 Y-78.514
X-108.897 Y-78.932
X-109.523 Y-79.336
X-110.158 Y-79.726
X-110.801 Y-80.101
X-111.453 Y-80.463
X-112.112 Y-80.809
X-112.779 Y-81.141
X-113.454 Y-81.458
X-114.135 Y-81.76
X-114.823 Y-82.046
X-115.517 Y-82.317
X-116.217 Y-82.571
X-116.923 Y-82.81
X-117.634 Y-83.033
X-118.349 Y-83.241
X-119.07 Y-83.432
X-119.794 Y-83.607
X-120.522 Y-83.766
X-121.253 Y-83.909
X-121.987 Y-84.036
X-122.724 Y-84.146
X-123.463 Y-84.24
X-124.204 Y-84.317
X-124.947 Y-84.378
X-125.69 Y-84.421
X-126.435 Y-84.448
X-127.18 Y-84.459
X-127.925 Y-84.453
X-128.67 Y-84.43
X-129.414 Y-84.391
X-130.157 Y-84.335
X-130.898 Y-84.263
X-131.638 Y-84.174
X-132.376 Y-84.069
X-133.111 Y-83.948
X-133.843 Y-83.811
X-134.572 Y-83.656
X-135.297 Y-83.486
X-136.019 Y-83.299
X-136.735 Y-83.096
X-137.448 Y-82.877
X-138.155 Y-82.642
X-138.857 Y-82.392
X-139.553 Y-82.126
X-140.243 Y-81.845
X-140.926 Y-81.549
X-141.604 Y-81.238
X-142.273 Y-80.912
X-142.936 Y-80.572
X-143.591 Y-80.216
X-144.237 Y-79.846
X-144.876 Y-79.462
X-145.505 Y-79.063
X-146.126 Y-78.65
X-146.737 Y-78.224
X-147.339 Y-77.785
X-147.93 Y-77.332
X-148.512 Y-76.867
X-149.083 Y-76.389
X-149.644 Y-75.898
X-150.194 Y-75.395
X-150.733 Y-74.881
X-151.26 Y-74.354
X-151.775 Y-73.815
X-152.277 Y-73.266
X-152.768 Y-72.705
X-153.246 Y-72.133
X-153.711 Y-71.551
X-154.163 Y-70.959
X-154.602 Y-70.357
X-155.028 Y-69.745
X-155.44 Y-69.125
X-155.838 Y-68.495
X-156.223 Y-67.857
X-156.593 Y-67.211
X-156.949 Y-66.556
X-157.291 Y-65.894
X-157.617 Y-65.224
X-157.929 Y-64.547
X-158.225 Y-63.864
X-158.506 Y-63.174
X-158.772 Y-62.478
X-159.022 Y-61.776
X-159.258 Y-61.069
X-159.477 Y-60.357
X-159.681 Y-59.64
X-159.869 Y-58.919
X-160.041 Y-58.194
X-160.198 Y-57.466
X-160.338 Y-56.734
X-160.461 Y-55.999
X-160.568 Y-55.262
X-160.659 Y-54.523
X-160.734 Y-53.781
X-160.792 Y-53.039
X-160.834 Y-52.295
X-160.859 Y-51.55
X-160.868 Y-50.805
X-160.861 Y-50.06
X-160.838 Y-49.315
X-160.798 Y-48.571
X-160.742 Y-47.828
X-160.67 Y-47.087
X-160.581 Y-46.347
X-160.475 Y-45.609
X-160.354 Y-44.874
X-160.216 Y-44.142
X-160.062 Y-43.413
X-159.892 Y-42.688
X-159.706 Y-41.966
X-159.504 Y-41.249
X-159.287 Y-40.536
X-159.054 Y-39.829
X-158.806 Y-39.126
X-158.542 Y-38.429
X-158.263 Y-37.738
X-157.969 Y-37.054
X-157.66 Y-36.376
X-157.335 Y-35.705
X-156.996 Y-35.042
X-156.643 Y-34.386
X-156.275 Y-33.738
X-155.892 Y-33.099
X-155.496 Y-32.468
X-155.087 Y-31.845
X-154.663 Y-31.232
X-154.227 Y-30.628
X-153.777 Y-30.034
X-153.315 Y-29.45
X-152.839 Y-28.876
X-152.352 Y-28.313
X-151.851 Y-27.761
X-151.339 Y-27.22
X-150.815 Y-26.691
X-150.279 Y-26.173
X-149.732 Y-25.667
X-149.174 Y-25.173
X-148.606 Y-24.692
X-148.026 Y-24.223
X-147.437 Y-23.767
X-146.838 Y-23.324
X-146.23 Y-22.894
X-145.612 Y-22.477
X-144.985 Y-22.074
X-144.35 Y-21.686
X-143.705 Y-21.312
X-143.053 Y-20.952
X-142.393 Y-20.606
X-141.725 Y-20.275
X-141.051 Y-19.959
X-140.369 Y-19.658
X-139.681 Y-19.372
X-138.987 Y-19.1
X-138.288 Y-18.844
X-137.583 Y-18.604
X-136.872 Y-18.378
X-136.158 Y-18.168
X-135.438 Y-17.975
X-134.715 Y-17.797
X-133.987 Y-17.635
X-133.257 Y-17.49
X-132.523 Y-17.36
X-131.786 Y-17.247
X-131.048 Y-17.15
X-130.307 Y-17.069
X-129.565 Y-17.004
X-128.821 Y-16.956
X-128.077 Y-16.923
X-127.332 Y-16.907
X-126.587
X-125.842 Y-16.924
X-125.098 Y-16.957
X-124.354 Y-17.007
X-123.612 Y-17.074
X-122.872 Y-17.156
X-122.133 Y-17.255
X-121.397 Y-17.37
X-120.664 Y-17.501
X-119.933 Y-17.648
X-119.206 Y-17.811
X-118.483 Y-17.99
X-117.764 Y-18.184
X-117.049 Y-18.394
X-116.339 Y-18.619
X-115.634 Y-18.86
X-114.934 Y-19.116
X-114.24 Y-19.388
X-113.553 Y-19.675
X-112.872 Y-19.977
X-112.197 Y-20.294
X-111.53 Y-20.626
X-110.87 Y-20.971
X-110.218 Y-21.331
X-109.574 Y-21.706
X-108.937 Y-22.094
X-108.31 Y-22.495
X-107.691 Y-22.91
X-107.082 Y-23.339
X-106.482 Y-23.781
X-105.892 Y-24.236
X-105.312 Y-24.703
X-104.742 Y-25.184
X-104.183 Y-25.676
X-103.635 Y-26.181
X-103.098 Y-26.698
X-102.572 Y-27.225
X-102.058 Y-27.764
X-101.556 Y-28.314
X-101.065 Y-28.875
X-100.586 Y-29.446
X-100.12 Y-30.027
X-99.667 Y-30.619
X-99.226 Y-31.22
X-98.799 Y-31.83
X-98.385 Y-32.45
X-97.985 Y-33.078
X-97.599 Y-33.715
X-97.226 Y-34.36
X-96.867 Y-35.013
X-96.523 Y-35.674
X-96.192 Y-36.342
X-95.876 Y-37.016
X-95.575 Y-37.698
X-95.288 Y-38.386
X-95.017 Y-39.079
X-94.76 Y-39.779
X-94.519 Y-40.484
X-94.293 Y-41.194
X-94.083 Y-41.909
X-93.888 Y-42.628
X-93.709 Y-43.351
X-93.546 Y-44.078
X-93.398 Y-44.808
X-93.267 Y-45.542
X-93.15 Y-46.278
X-93.05 Y-47.016
X-92.965 Y-47.756
X-92.897 Y-48.498
X-92.844 Y-49.241
X-92.808 Y-49.985
X-92.787 Y-50.73
X-92.783 Y-51.475
X-92.795 Y-52.22
X-92.824 Y-52.965
X-92.868 Y-53.708
X-92.929 Y-54.451
X-93.006 Y-55.192
X-93.098 Y-55.931
X-93.207 Y-56.668
X-93.331 Y-57.403
X-93.471 Y-58.135
X-93.627 Y-58.863
X-93.798 Y-59.589
X-93.986 Y-60.31
X-94.189 Y-61.026
X-94.408 Y-61.739
X-94.642 Y-62.446
X-94.892 Y-63.148
X-95.157 Y-63.844
X-95.437 Y-64.535
X-95.731 Y-65.219
X-96.041 Y-65.897
X-96.364 Y-66.568
X-96.703 Y-67.232
X-97.055 Y-67.888
X-97.422 Y-68.537
X-97.802 Y-69.178
X-98.196 Y-69.81
X-98.604 Y-70.433
X-99.026 Y-71.047
X-99.461 Y-71.652
X-99.909 Y-72.248
X-100.369 Y-72.833
X-100.842 Y-73.409
X-101.328 Y-73.974
X-101.826 Y-74.529
X-102.335 Y-75.072
X-102.856 Y-75.605
X-103.388 Y-76.126
X-103.931 Y-76.636
X-104.486 Y-77.134
X-105.051 Y-77.619
X-105.627 Y-78.092
X-106.213 Y-78.553
X-106.808 Y-79
X-107.414 Y-79.435
X-108.028 Y-79.856
X-108.652 Y-80.264
X-109.284 Y-80.658
X-109.924 Y-81.039
X-110.572 Y-81.406
X-111.229 Y-81.759
X-111.892 Y-82.098
X-112.563 Y-82.423
X-113.24 Y-82.733
X-113.924 Y-83.028
X-114.615 Y-83.308
X-115.311 Y-83.574
X-116.013 Y-83.824
X-116.72 Y-84.058
X-117.432 Y-84.278
X-118.148 Y-84.482
X-118.869 Y-84.671
X-119.594 Y-84.844
X-120.322 Y-85.002
X-121.053 Y-85.145
X-121.787 Y-85.271
X-122.524 Y-85.382
X-123.263 Y-85.477
X-124.004 Y-85.555
X-124.746 Y-85.618
X-125.49 Y-85.664
X-126.235 Y-85.694
X-126.979 Y-85.709
X-127.725 Y-85.707
X-128.469 Y-85.689
X-129.214 Y-85.655
X-129.957 Y-85.606
X-130.699 Y-85.54
X-131.44 Y-85.459
X-132.179 Y-85.362
X-132.915 Y-85.249
X-133.649 Y-85.121
X-134.38 Y-84.976
X-135.108 Y-84.816
X-135.832 Y-84.64
X-136.552 Y-84.449
X-137.267 Y-84.242
X-137.978 Y-84.02
X-138.685 Y-83.782
X-139.386 Y-83.53
X-140.081 Y-83.263
X-140.771 Y-82.981
X-141.454 Y-82.684
X-142.132 Y-82.373
X-142.802 Y-82.048
X-143.465 Y-81.708
X-144.12 Y-81.354
X-144.768 Y-80.985
X-145.408 Y-80.603
X-146.039 Y-80.207
X-146.661 Y-79.798
X-147.275 Y-79.376
X-147.88 Y-78.941
X-148.475 Y-78.492
X-149.061 Y-78.032
X-149.636 Y-77.559
X-150.202 Y-77.074
X-150.757 Y-76.577
X-151.302 Y-76.069
X-151.835 Y-75.549
X-152.358 Y-75.017
X-152.868 Y-74.475
X-153.367 Y-73.921
X-153.854 Y-73.357
X-154.329 Y-72.783
X-154.791 Y-72.199
X-155.241 Y-71.605
X-155.678 Y-71.002
X-156.103 Y-70.389
X-156.514 Y-69.768
X-156.912 Y-69.138
X-157.297 Y-68.5
X-157.668 Y-67.854
X-158.025 Y-67.2
X-158.367 Y-66.539
X-158.696 Y-65.87
X-159.01 Y-65.194
X-159.309 Y-64.512
X-159.594 Y-63.823
X-159.864 Y-63.129
X-160.119 Y-62.429
X-160.36 Y-61.724
X-160.585 Y-61.014
X-160.796 Y-60.299
X-160.991 Y-59.58
X-161.171 Y-58.857
X-161.336 Y-58.13
X-161.485 Y-57.4
X-161.618 Y-56.667
X-161.736 Y-55.932
X-161.838 Y-55.194
X-161.924 Y-54.454
X-161.995 Y-53.712
X-162.05 Y-52.969
X-162.089 Y-52.225
X-162.112 Y-51.48
X-162.119 Y-50.735
X-162.111 Y-49.99
X-162.087 Y-49.245
X-162.048 Y-48.501
X-161.993 Y-47.758
X-161.921 Y-47.017
X-161.834 Y-46.277
X-161.731 Y-45.539
X-161.612 Y-44.803
X-161.477 Y-44.071
X-161.327 Y-43.341
X-161.161 Y-42.614
X-160.98 Y-41.892
X-160.784 Y-41.173
X-160.572 Y-40.458
X-160.346 Y-39.749
X-160.105 Y-39.044
X-159.849 Y-38.344
X-159.578 Y-37.65
X-159.292 Y-36.962
X-158.992 Y-36.28
X-158.677 Y-35.604
X-158.348 Y-34.936
X-158.005 Y-34.275
X-157.648 Y-33.621
X-157.277 Y-32.975
X-156.892 Y-32.337
X-156.494 Y-31.707
X-156.083 Y-31.085
X-155.659 Y-30.473
X-155.222 Y-29.869
X-154.773 Y-29.275
X-154.311 Y-28.691
X-153.836 Y-28.116
X-153.349 Y-27.552
X-152.851 Y-26.998
X-152.34 Y-26.456
X-151.818 Y-25.924
X-151.285 Y-25.403
X-150.741 Y-24.894
X-150.187 Y-24.397
X-149.622 Y-23.911
X-149.047 Y-23.437
X-148.462 Y-22.976
X-147.867 Y-22.527
X-147.263 Y-22.09
X-146.65 Y-21.667
X-146.029 Y-21.256
X-145.398 Y-20.859
X-144.759 Y-20.476
X-144.112 Y-20.106
X-143.458 Y-19.75
X-142.796 Y-19.409
X-142.127 Y-19.081
X-141.451 Y-18.767
X-140.768 Y-18.468
X-140.08 Y-18.183
X-139.386 Y-17.913
X-138.686 Y-17.657
X-137.981 Y-17.416
X-137.271 Y-17.191
X-136.556 Y-16.98
X-135.837 Y-16.785
X-135.114 Y-16.605
X-134.387 Y-16.441
X-133.657 Y-16.292
X-132.924 Y-16.159
X-132.188 Y-16.041
X-131.45 Y-15.939
X-130.71 Y-15.853
X-129.969 Y-15.782
X-129.226 Y-15.727
X-128.482 Y-15.687
X-127.737 Y-15.663
X-126.992 Y-15.655
X-126.247 Y-15.663
X-125.502 Y-15.686
X-124.758 Y-15.725
X-124.015 Y-15.781
X-123.274 Y-15.852
X-122.534 Y-15.938
X-121.796 Y-16.041
X-121.06 Y-16.159
X-120.327 Y-16.292
X-119.597 Y-16.441
X-118.87 Y-16.605
X-118.147 Y-16.784
X-117.427 Y-16.978
X-116.712 Y-17.187
X-116.002 Y-17.412
X-115.296 Y-17.651
X-114.596 Y-17.906
X-113.902 Y-18.176
X-113.213 Y-18.46
X-112.53 Y-18.758
X-111.854 Y-19.071
X-111.185 Y-19.398
X-110.522 Y-19.739
X-109.867 Y-20.094
X-109.22 Y-20.463
X-108.58 Y-20.844
X-107.948 Y-21.24
X-107.325 Y-21.648
X-106.71 Y-22.069
X-106.105 Y-22.503
X-105.508 Y-22.95
X-104.922 Y-23.409
X-104.345 Y-23.881
X-103.778 Y-24.364
X-103.222 Y-24.86
X-102.676 Y-25.367
X-102.14 Y-25.885
X-101.616 Y-26.414
X-101.102 Y-26.954
X-100.6 Y-27.505
X-100.11 Y-28.065
X-99.631 Y-28.636
X-99.164 Y-29.217
X-98.71 Y-29.807
X-98.268 Y-30.407
X-97.839 Y-31.017
X-97.423 Y-31.635
X-97.02 Y-32.261
X-96.63 Y-32.896
X-96.253 Y-33.539
X-95.89 Y-34.19
X-95.541 Y-34.847
X-95.205 Y-35.513
X-94.883 Y-36.184
X-94.575 Y-36.863
X-94.281 Y-37.547
X-94.001 Y-38.238
X-93.736 Y-38.934
X-93.485 Y-39.636
X-93.25 Y-40.343
X-93.029 Y-41.054
X-92.823 Y-41.77
X-92.632 Y-42.491
X-92.457 Y-43.215
X-92.296 Y-43.942
X-92.15 Y-44.673
X-92.02 Y-45.407
X-91.905 Y-46.143
X-91.805 Y-46.881
X-91.72 Y-47.621
X-91.651 Y-48.363
X-91.598 Y-49.106
X-91.56 Y-49.85
X-91.538 Y-50.595
X-91.531 Y-51.34
X-91.54 Y-52.085
X-91.565 Y-52.83
X-91.605 Y-53.574
X-91.661 Y-54.317
X-91.732 Y-55.058
X-91.819 Y-55.798
X-91.921 Y-56.536
X-92.038 Y-57.272
X-92.171 Y-58.005
X-92.318 Y-58.736
X-92.481 Y-59.463
X-92.66 Y-60.186
X-92.853 Y-60.906
X-93.062 Y-61.621
X-93.285 Y-62.332
X-93.523 Y-63.038
X-93.777 Y-63.738
X-94.044 Y-64.434
X-94.327 Y-65.123
X-94.623 Y-65.807
X-94.934 Y-66.484
X-95.258 Y-67.155
X-95.596 Y-67.818
X-95.949 Y-68.475
X-96.314 Y-69.124
X-96.694 Y-69.765
X-97.087 Y-70.398
X-97.493 Y-71.023
X-97.912 Y-71.639
X-98.344 Y-72.246
X-98.789 Y-72.844
X-99.246 Y-73.432
X-99.715 Y-74.011
X-100.197 Y-74.579
X-100.689 Y-75.138
X-101.194 Y-75.687
X-101.709 Y-76.224
X-102.236 Y-76.751
X-102.774 Y-77.267
X-103.322 Y-77.772
X-103.881 Y-78.265
X-104.45 Y-78.746
X-105.028 Y-79.215
X-105.617 Y-79.672
X-106.215 Y-80.116
X-106.822 Y-80.548
X-107.439 Y-80.967
X-108.063 Y-81.373
X-108.696 Y-81.766
X-109.337 Y-82.146
X-109.986 Y-82.512
X-110.642 Y-82.866
X-111.305 Y-83.205
X-111.975 Y-83.53
X-112.652 Y-83.842
X-113.335 Y-84.139
X-114.025 Y-84.421
X-114.72 Y-84.689
X-115.421 Y-84.943
X-116.126 Y-85.182
X-116.837 Y-85.406
X-117.552 Y-85.615
X-118.271 Y-85.81
X-118.994 Y-85.989
X-119.721 Y-86.154
X-119.893 Y-86.189
X-119.943 Y-86.198
X-119.992 Y-86.203
X-120.042 Y-86.204
X-133.262
X-134.006 Y-86.167
X-134.747 Y-86.096
X-135.482 Y-85.971
X-136.21 Y-85.813
X-136.932 Y-85.631
X-137.649 Y-85.428
X-138.361 Y-85.209
X-139.068 Y-84.973
X-139.77 Y-84.723
X-140.466 Y-84.457
X-141.156 Y-84.177
X-141.841 Y-83.883
X-142.519 Y-83.574
X-143.191 Y-83.252
X-143.856 Y-82.915
X-144.513 Y-82.565
X-145.164 Y-82.202
X-145.806 Y-81.824
X-146.441 Y-81.434
X-147.067 Y-81.031
X-147.685 Y-80.615
X-148.294 Y-80.186
X-148.895 Y-79.745
X-149.486 Y-79.291
X-150.068 Y-78.826
X-150.64 Y-78.349
X-151.202 Y-77.86
X-151.755 Y-77.36
X-152.296 Y-76.848
X-152.828 Y-76.326
X-153.348 Y-75.792
X-153.857 Y-75.248
X-154.355 Y-74.694
X-154.841 Y-74.129
X-155.315 Y-73.555
X-155.778 Y-72.971
X-156.228 Y-72.377
X-156.666 Y-71.774
X-157.092 Y-71.163
X-157.505 Y-70.543
X-157.905 Y-69.914
X-158.292 Y-69.278
X-158.666 Y-68.633
X-159.026 Y-67.981
X-159.373 Y-67.322
X-159.706 Y-66.655
X-160.025 Y-65.982
X-160.33 Y-65.302
X-160.622 Y-64.616
X-160.899 Y-63.925
X-161.162 Y-63.228
X-161.41 Y-62.525
X-161.644 Y-61.818
X-161.864 Y-61.106
X-162.069 Y-60.39
X-162.26 Y-59.669
X-162.435 Y-58.945
X-162.596 Y-58.218
X-162.742 Y-57.487
X-162.873 Y-56.754
X-162.989 Y-56.018
X-163.089 Y-55.279
X-163.174 Y-54.539
X-163.244 Y-53.798
X-163.299 Y-53.055
X-163.339 Y-52.311
X-163.363 Y-51.566
X-163.372 Y-50.821
X-163.366 Y-50.076
X-163.344 Y-49.331
X-163.308 Y-48.587
X-163.256 Y-47.844
X-163.188 Y-47.102
X-163.105 Y-46.361
X-163.007 Y-45.623
X-162.894 Y-44.886
X-162.766 Y-44.152
X-162.622 Y-43.421
X-162.464 Y-42.693
X-162.291 Y-41.968
X-162.103 Y-41.247
X-161.9 Y-40.53
X-161.683 Y-39.818
X-161.452 Y-39.11
X-161.206 Y-38.406
X-160.945 Y-37.708
X-160.671 Y-37.016
X-160.382 Y-36.329
X-160.079 Y-35.648
X-159.763 Y-34.974
X-159.432 Y-34.306
X-159.088 Y-33.645
X-158.73 Y-32.991
X-158.359 Y-32.345
X-157.975 Y-31.707
X-157.578 Y-31.076
X-157.168 Y-30.454
X-156.746 Y-29.84
X-156.311 Y-29.236
X-155.864 Y-28.64
X-155.404 Y-28.053
X-154.933 Y-27.476
X-154.45 Y-26.909
X-153.955 Y-26.352
X-153.449 Y-25.805
X-152.931 Y-25.269
X-152.403 Y-24.744
X-151.864 Y-24.229
X-151.315 Y-23.726
X-150.756 Y-23.233
X-150.186 Y-22.753
X-149.607 Y-22.284
X-149.019 Y-21.827
X-148.421 Y-21.382
X-147.815 Y-20.949
X-147.2 Y-20.529
X-146.576 Y-20.121
X-145.944 Y-19.726
X-145.304 Y-19.345
X-144.656 Y-18.977
X-144.001 Y-18.622
X-143.339 Y-18.28
X-142.67 Y-17.952
X-141.994 Y-17.638
X-141.312 Y-17.338
X-140.624 Y-17.052
X-139.931 Y-16.78
X-139.232 Y-16.522
X-138.528 Y-16.279
X-137.819 Y-16.05
X-137.105 Y-15.836
X-136.387 Y-15.636
X-135.665 Y-15.451
X-135.511 Y-15.415
X-135.455 Y-15.404
X-135.399 Y-15.398
X-135.342 Y-15.396
X-119.892
X-119.148 Y-15.433
X-118.408 Y-15.518
X-117.676 Y-15.66
X-116.953 Y-15.836
X-116.235 Y-16.037
X-115.524 Y-16.258
X-114.818 Y-16.496
X-114.117 Y-16.75
X-113.423 Y-17.019
X-112.734 Y-17.303
X-112.051 Y-17.601
X-111.374 Y-17.913
X-110.704 Y-18.238
X-110.041 Y-18.578
X-109.384 Y-18.93
X-108.735 Y-19.296
X-108.094 Y-19.675
X-107.46 Y-20.067
X-106.834 Y-20.471
X-106.217 Y-20.888
X-105.608 Y-21.317
X-105.008 Y-21.759
X-104.417 Y-22.213
X-103.835 Y-22.679
X-103.263 Y-23.156
X-102.701 Y-23.645
X-102.149 Y-24.146
X-101.607 Y-24.657
X-101.076 Y-25.179
X-100.555 Y-25.712
X-100.044 Y-26.255
X-99.545 Y-26.808
X-99.057 Y-27.371
X-98.581 Y-27.943
X-98.116 Y-28.526
X-97.663 Y-29.117
X-97.222 Y-29.718
X-96.793 Y-30.327
X-96.377 Y-30.945
X-95.974 Y-31.572
X-95.583 Y-32.206
X-95.205 Y-32.848
X-94.841 Y-33.498
X-94.489 Y-34.155
X-94.151 Y-34.819
X-93.826 Y-35.489
X-93.514 Y-36.166
X-93.216 Y-36.849
X-92.932 Y-37.538
X-92.662 Y-38.232
X-92.406 Y-38.932
X-92.164 Y-39.636
X-91.937 Y-40.346
X-91.724 Y-41.06
X-91.525 Y-41.778
X-91.341 Y-42.5
X-91.171 Y-43.225
X-91.016 Y-43.954
X-90.875 Y-44.686
X-90.75 Y-45.42
X-90.639 Y-46.157
X-90.542 Y-46.896
X-90.461 Y-47.636
X-90.394 Y-48.378
X-90.343 Y-49.122
X-90.306 Y-49.866
X-90.285 Y-50.611
X-90.279 Y-51.356
X-90.288 Y-52.101
X-90.312 Y-52.845
X-90.351 Y-53.589
X-90.405 Y-54.332
X-90.475 Y-55.074
X-90.559 Y-55.815
X-90.658 Y-56.553
X-90.772 Y-57.289
X-90.9 Y-58.023
X-91.043 Y-58.754
X-91.201 Y-59.483
X-91.374 Y-60.207
X-91.561 Y-60.928
X-91.763 Y-61.646
X-91.98 Y-62.358
X-92.211 Y-63.067
X-92.456 Y-63.77
X-92.715 Y-64.469
X-92.989 Y-65.162
X-93.276 Y-65.85
X-93.577 Y-66.531
X-93.891 Y-67.207
X-94.219 Y-67.876
X-94.561 Y-68.538
X-94.915 Y-69.193
X-95.283 Y-69.841
X-95.664 Y-70.481
X-96.058 Y-71.114
X-96.465 Y-71.738
X-96.884 Y-72.354
X-97.316 Y-72.961
X-97.76 Y-73.559
X-98.216 Y-74.149
X-98.684 Y-74.728
X-99.163 Y-75.299
X-99.654 Y-75.859
X-100.156 Y-76.41
X-100.669 Y-76.95
X-101.192 Y-77.48
X-101.727 Y-78
X-102.271 Y-78.508
X-102.826 Y-79.006
X-103.391 Y-79.492
X-103.965 Y-79.966
X-104.549 Y-80.429
X-105.142 Y-80.88
X-105.744 Y-81.319
X-106.355 Y-81.745
X-106.974 Y-82.159
X-107.602 Y-82.561
X-108.237 Y-82.95
X-108.88 Y-83.327
X-109.53 Y-83.69
X-110.188 Y-84.041
X-110.852 Y-84.378
X-111.524 Y-84.701
X-112.201 Y-85.011
X-112.885 Y-85.308
X-113.574 Y-85.59
X-114.269 Y-85.858
X-114.97 Y-86.112
X-115.125 Y-86.165
X-115.203 Y-86.187
X-115.283 Y-86.2
X-115.364 Y-86.204
X-120.042
G2 X-120.066 Y-86.203 Z-3.139 I0.011 J0.317 F711.2
X-120.349 Y-85.887 Z-0.773 I0.035 J0.316 F5080
G1 Y-85.876 Z-0.721
X-120.199 Y-15.724
Y-15.712 Z-0.78
G2 X-119.916 Y-15.397 Z-3.139 I0.317 J-0.001
X-119.892 Y-15.396 Z-3.261 I0.035 J-0.316 F711.2
G1 X-115.492 F5080
X-115.035 Y-15.418
X-114.544 Y-15.483
X-113.871 Y-15.627
X-113.157 Y-15.84
X-112.457 Y-16.094
X-111.766 Y-16.374
X-111.085 Y-16.675
X-110.41 Y-16.992
X-109.743 Y-17.324
X-109.084 Y-17.67
X-108.431 Y-18.029
X-107.785 Y-18.401
X-107.147 Y-18.786
X-106.517 Y-19.183
X-105.895 Y-19.593
X-105.28 Y-20.014
X-104.674 Y-20.448
X-104.077 Y-20.894
X-103.489 Y-21.351
X-102.91 Y-21.819
X-102.34 Y-22.299
X-101.779 Y-22.79
X-101.228 Y-23.292
X-100.687 Y-23.804
X-100.156 Y-24.327
X-99.636 Y-24.86
X-99.125 Y-25.402
X-98.626 Y-25.955
X-98.137 Y-26.518
X-97.66 Y-27.09
X-97.194 Y-27.671
X-96.739 Y-28.261
X-96.296 Y-28.86
X-95.865 Y-29.468
X-95.446 Y-30.084
X-95.039 Y-30.708
X-94.644 Y-31.34
X-94.262 Y-31.979
X-93.892 Y-32.626
X-93.535 Y-33.28
X-93.191 Y-33.941
X-92.859 Y-34.608
X-92.541 Y-35.282
X-92.236 Y-35.962
X-91.944 Y-36.647
X-91.665 Y-37.338
X-91.4 Y-38.034
X-91.148 Y-38.736
X-90.91 Y-39.442
X-90.687 Y-40.152
X-90.476 Y-40.867
X-90.28 Y-41.586
X-90.098 Y-42.308
X-89.93 Y-43.034
X-89.776 Y-43.763
X-89.637 Y-44.495
X-89.511 Y-45.229
X-89.4 Y-45.966
X-89.303 Y-46.705
X-89.22 Y-47.445
X-89.152 Y-48.187
X-89.099 Y-48.93
X-89.06 Y-49.675
X-89.036 Y-50.419
X-89.026 Y-51.164
X-89.031 Y-51.909
X-89.051 Y-52.654
X-89.085 Y-53.398
X-89.134 Y-54.142
X-89.198 Y-54.884
X-89.275 Y-55.625
X-89.367 Y-56.364
X-89.474 Y-57.102
X-89.595 Y-57.837
X-89.73 Y-58.57
X-89.879 Y-59.3
X-90.042 Y-60.027
X-90.22 Y-60.75
X-90.412 Y-61.47
X-90.618 Y-62.186
X-90.838 Y-62.898
X-91.071 Y-63.606
X-91.319 Y-64.308
X-91.58 Y-65.006
X-91.855 Y-65.699
X-92.143 Y-66.386
X-92.444 Y-67.067
X-92.758 Y-67.743
X-93.086 Y-68.412
X-93.427 Y-69.075
X-93.78 Y-69.73
X-94.147 Y-70.379
X-94.526 Y-71.021
X-94.917 Y-71.654
X-95.321 Y-72.28
