%
(1001)
(split-top-plate-acrylic)
(T1  D=3.175 CR=0 - ZMIN=-5 - flat end mill)
G90
G17
G21
G28 G91 Z0
G90

(2D Pocket1)
M9
T1 M6
S10000 M3
G54
M7
G0 X-46.839 Y-82.939
Z11.16
Z1.317
G1 X-46.856 Y-82.955 Z1.198 F762
X-46.906 Y-82.999 Z1.097
X-46.984 Y-83.06 Z1.027
X-47.082 Y-83.126 Z1
G2 X-48.668 Y-80.56 Z0.835 I-0.793 J1.283
X-47.082 Y-83.126 Z0.669 I0.793 J-1.283
X-48.668 Y-80.56 Z0.504 I-0.793 J1.283
X-47.082 Y-83.126 Z0.338 I0.793 J-1.283
X-48.668 Y-80.56 Z0.173 I-0.793 J1.283
X-47.082 Y-83.126 Z0.007 I0.793 J-1.283
X-48.668 Y-80.56 Z-0.158 I-0.793 J1.283
X-47.082 Y-83.126 Z-0.324 I0.793 J-1.283
X-48.668 Y-80.56 Z-0.489 I-0.793 J1.283
X-47.082 Y-83.126 Z-0.655 I0.793 J-1.283
X-48.668 Y-80.56 Z-0.82 I-0.793 J1.283
X-47.082 Y-83.126 Z-0.985 I0.793 J-1.283
X-48.668 Y-80.56 Z-1.151 I-0.793 J1.283
X-47.082 Y-83.126 Z-1.316 I0.793 J-1.283
X-48.668 Y-80.56 Z-1.482 I-0.793 J1.283
X-47.082 Y-83.126 Z-1.647 I0.793 J-1.283
X-48.668 Y-80.56 Z-1.813 I-0.793 J1.283
X-47.082 Y-83.126 Z-1.978 I0.793 J-1.283
X-48.668 Y-80.56 Z-2.144 I-0.793 J1.283
X-47.082 Y-83.126 Z-2.309 I0.793 J-1.283
X-48.668 Y-80.56 Z-2.474 I-0.793 J1.283
X-47.082 Y-83.126 Z-2.64 I0.793 J-1.283
X-48.668 Y-80.56 Z-2.805 I-0.793 J1.283
X-47.082 Y-83.126 Z-2.971 I0.793 J-1.283
X-47.875 Y-83.351 Z-3 I-0.793 J1.283
G1 X-48.381 F2032
G2 X-48.701 Y-83.031 I0 J0.32
G1 Y-82.023
G2 X-48.377 Y-81.699 I0.324 J0
G1 X-47.373
G2 X-47.049 Y-82.023 I0 J-0.324
G1 Y-83.027
G2 X-47.373 Y-83.351 I-0.324 J0
G1 X-47.875
G3 X-49.416 Y-84.393 I0 J-1.66
G2 X-51.242 Y-84.04 I-0.879 J0.353
G1 Y-79.483
G2 X-50.917 Y-79.158 I0.324 J0
G1 X-44.833
G2 X-44.508 Y-79.483 I0 J-0.324
G1 Y-85.567
G2 X-44.833 Y-85.892 I-0.324 J0
G1 X-50.921
G2 X-51.242 Y-85.571 I0 J0.32
G1 Y-84.04
G3 X-52.515 Y-82.13 I-2.068 J0
G2 X-53.787 Y-80.221 I0.796 J1.909
G1 Y-76.613
X-41.963
Y-88.438
X-53.787
Y-80.221
G2 X-53.765 Y-80.102 Z-2.976 I0.317 J0
X-53.711 Y-80.015 Z-2.907 I0.295 J-0.119
X-53.661 Y-79.968 Z-2.804 I0.241 J-0.206
G1 X-53.642 Y-79.954 Z-2.683
G0 Z1.317
X-65.839 Y-82.939
G1 X-65.856 Y-82.955 Z1.198 F762
X-65.906 Y-82.999 Z1.097
X-65.984 Y-83.06 Z1.027
X-66.082 Y-83.126 Z1
G2 X-67.668 Y-80.56 Z0.835 I-0.793 J1.283
X-66.082 Y-83.126 Z0.669 I0.793 J-1.283
X-67.668 Y-80.56 Z0.504 I-0.793 J1.283
X-66.082 Y-83.126 Z0.338 I0.793 J-1.283
X-67.668 Y-80.56 Z0.173 I-0.793 J1.283
X-66.082 Y-83.126 Z0.007 I0.793 J-1.283
X-67.668 Y-80.56 Z-0.158 I-0.793 J1.283
X-66.082 Y-83.126 Z-0.324 I0.793 J-1.283
X-67.668 Y-80.56 Z-0.489 I-0.793 J1.283
X-66.082 Y-83.126 Z-0.655 I0.793 J-1.283
X-67.668 Y-80.56 Z-0.82 I-0.793 J1.283
X-66.082 Y-83.126 Z-0.985 I0.793 J-1.283
X-67.668 Y-80.56 Z-1.151 I-0.793 J1.283
X-66.082 Y-83.126 Z-1.316 I0.793 J-1.283
X-67.668 Y-80.56 Z-1.482 I-0.793 J1.283
X-66.082 Y-83.126 Z-1.647 I0.793 J-1.283
X-67.668 Y-80.56 Z-1.813 I-0.793 J1.283
X-66.082 Y-83.126 Z-1.978 I0.793 J-1.283
X-67.668 Y-80.56 Z-2.144 I-0.793 J1.283
X-66.082 Y-83.126 Z-2.309 I0.793 J-1.283
X-67.668 Y-80.56 Z-2.474 I-0.793 J1.283
X-66.082 Y-83.126 Z-2.64 I0.793 J-1.283
X-67.668 Y-80.56 Z-2.805 I-0.793 J1.283
X-66.082 Y-83.126 Z-2.971 I0.793 J-1.283
X-66.875 Y-83.351 Z-3 I-0.793 J1.283
G1 X-67.377 F2032
G2 X-67.701 Y-83.027 I0 J0.324
G1 Y-82.023
G2 X-67.377 Y-81.699 I0.324 J0
G1 X-66.373
G2 X-66.049 Y-82.023 I0 J-0.324
G1 Y-83.027
G2 X-66.373 Y-83.351 I-0.324 J0
G1 X-66.875
G3 X-68.416 Y-84.392 I0 J-1.661
G2 X-70.242 Y-84.038 I-0.879 J0.354
G1 Y-79.483
G2 X-69.917 Y-79.158 I0.324 J0
G1 X-63.833
G2 X-63.508 Y-79.483 I0 J-0.324
G1 Y-85.567
G2 X-63.833 Y-85.892 I-0.324 J0
G1 X-69.917
G2 X-70.242 Y-85.567 I0 J0.324
G1 Y-84.038
G3 X-71.515 Y-82.129 I-2.068 J0
G2 X-72.787 Y-80.219 I0.796 J1.909
G1 Y-76.613
X-60.963
Y-88.438
X-72.787
Y-80.219
G2 X-72.765 Y-80.101 Z-2.976 I0.317 J0
X-72.711 Y-80.013 Z-2.907 I0.295 J-0.119
X-72.661 Y-79.966 Z-2.804 I0.241 J-0.206
G1 X-72.642 Y-79.952 Z-2.683
G0 Z1.317
X-84.839 Y-82.939
G1 X-84.856 Y-82.955 Z1.198 F762
X-84.906 Y-82.999 Z1.097
X-84.984 Y-83.06 Z1.027
X-85.082 Y-83.126 Z1
G2 X-86.668 Y-80.56 Z0.835 I-0.793 J1.283
X-85.082 Y-83.126 Z0.669 I0.793 J-1.283
X-86.668 Y-80.56 Z0.504 I-0.793 J1.283
X-85.082 Y-83.126 Z0.338 I0.793 J-1.283
X-86.668 Y-80.56 Z0.173 I-0.793 J1.283
X-85.082 Y-83.126 Z0.007 I0.793 J-1.283
X-86.668 Y-80.56 Z-0.158 I-0.793 J1.283
X-85.082 Y-83.126 Z-0.324 I0.793 J-1.283
X-86.668 Y-80.56 Z-0.489 I-0.793 J1.283
X-85.082 Y-83.126 Z-0.655 I0.793 J-1.283
X-86.668 Y-80.56 Z-0.82 I-0.793 J1.283
X-85.082 Y-83.126 Z-0.985 I0.793 J-1.283
X-86.668 Y-80.56 Z-1.151 I-0.793 J1.283
X-85.082 Y-83.126 Z-1.316 I0.793 J-1.283
X-86.668 Y-80.56 Z-1.482 I-0.793 J1.283
X-85.082 Y-83.126 Z-1.647 I0.793 J-1.283
X-86.668 Y-80.56 Z-1.813 I-0.793 J1.283
X-85.082 Y-83.126 Z-1.978 I0.793 J-1.283
X-86.668 Y-80.56 Z-2.144 I-0.793 J1.283
X-85.082 Y-83.126 Z-2.309 I0.793 J-1.283
X-86.668 Y-80.56 Z-2.474 I-0.793 J1.283
X-85.082 Y-83.126 Z-2.64 I0.793 J-1.283
X-86.668 Y-80.56 Z-2.805 I-0.793 J1.283
X-85.082 Y-83.126 Z-2.971 I0.793 J-1.283
X-85.875 Y-83.351 Z-3 I-0.793 J1.283
G1 X-86.381 F2032
G2 X-86.701 Y-83.031 I0 J0.32
G1 Y-82.023
G2 X-86.377 Y-81.699 I0.324 J0
G1 X-85.373
G2 X-85.049 Y-82.023 I0 J-0.324
G1 Y-83.027
G2 X-85.373 Y-83.351 I-0.324 J0
G1 X-85.875
G3 X-87.416 Y-84.393 I0 J-1.66
G2 X-89.242 Y-84.04 I-0.879 J0.353
G1 Y-79.483
G2 X-88.917 Y-79.158 I0.324 J0
G1 X-82.833
G2 X-82.508 Y-79.483 I0 J-0.324
G1 Y-85.567
G2 X-82.833 Y-85.892 I-0.324 J0
G1 X-88.921
G2 X-89.242 Y-85.571 I0 J0.32
G1 Y-84.04
G3 X-90.515 Y-82.13 I-2.068 J0
G2 X-91.787 Y-80.221 I0.796 J1.909
G1 Y-76.613
X-79.963
Y-88.438
X-91.787
Y-80.221
G2 X-91.765 Y-80.102 Z-2.976 I0.317 J0
X-91.711 Y-80.015 Z-2.907 I0.295 J-0.119
X-91.661 Y-79.968 Z-2.804 I0.241 J-0.206
G1 X-91.642 Y-79.954 Z-2.683
G0 Z1.317
X-86.289 Y-64.561
G1 X-86.305 Y-64.544 Z1.198 F762
X-86.349 Y-64.494 Z1.097
X-86.41 Y-64.416 Z1.027
X-86.476 Y-64.318 Z1
G2 X-83.91 Y-62.732 Z0.835 I1.283 J0.793
X-86.476 Y-64.318 Z0.669 I-1.283 J-0.793
X-83.91 Y-62.732 Z0.504 I1.283 J0.793
X-86.476 Y-64.318 Z0.338 I-1.283 J-0.793
X-83.91 Y-62.732 Z0.173 I1.283 J0.793
X-86.476 Y-64.318 Z0.007 I-1.283 J-0.793
X-83.91 Y-62.732 Z-0.158 I1.283 J0.793
X-86.476 Y-64.318 Z-0.324 I-1.283 J-0.793
X-83.91 Y-62.732 Z-0.489 I1.283 J0.793
X-86.476 Y-64.318 Z-0.655 I-1.283 J-0.793
X-83.91 Y-62.732 Z-0.82 I1.283 J0.793
X-86.476 Y-64.318 Z-0.985 I-1.283 J-0.793
X-83.91 Y-62.732 Z-1.151 I1.283 J0.793
X-86.476 Y-64.318 Z-1.316 I-1.283 J-0.793
X-83.91 Y-62.732 Z-1.482 I1.283 J0.793
X-86.476 Y-64.318 Z-1.647 I-1.283 J-0.793
X-83.91 Y-62.732 Z-1.813 I1.283 J0.793
X-86.476 Y-64.318 Z-1.978 I-1.283 J-0.793
X-83.91 Y-62.732 Z-2.144 I1.283 J0.793
X-86.476 Y-64.318 Z-2.309 I-1.283 J-0.793
X-83.91 Y-62.732 Z-2.474 I1.283 J0.793
X-86.476 Y-64.318 Z-2.64 I-1.283 J-0.793
X-83.91 Y-62.732 Z-2.805 I1.283 J0.793
X-86.476 Y-64.318 Z-2.971 I-1.283 J-0.793
X-86.701 Y-63.525 Z-3 I1.283 J0.793
G1 Y-63.023 F2032
G2 X-86.377 Y-62.699 I0.324 J0
G1 X-85.373
G2 X-85.049 Y-63.023 I0 J-0.324
G1 Y-64.027
G2 X-85.373 Y-64.351 I-0.324 J0
G1 X-86.377
G2 X-86.701 Y-64.027 I0 J0.324
G1 Y-63.525
G3 X-87.742 Y-61.984 I-1.661 J0
G2 X-87.388 Y-60.158 I0.354 J0.879
G1 X-82.833
G2 X-82.508 Y-60.483 I0 J-0.324
G1 Y-66.567
G2 X-82.833 Y-66.892 I-0.324 J0
G1 X-88.917
G2 X-89.242 Y-66.567 I0 J0.324
G1 Y-60.483
G2 X-88.917 Y-60.158 I0.324 J0
G1 X-87.388
G3 X-85.479 Y-58.885 I0 J2.068
G2 X-83.569 Y-57.612 I1.909 J-0.796
G1 X-79.963
Y-69.438
X-91.787
Y-57.612
X-83.569
G2 X-83.451 Y-57.635 Z-2.976 I0 J-0.318
X-83.363 Y-57.689 Z-2.907 I-0.119 J-0.295
X-83.316 Y-57.739 Z-2.804 I-0.206 J-0.241
G1 X-83.302 Y-57.758 Z-2.683
G0 Z1.317
X-85.461 Y-43.489
G1 X-85.445 Y-43.506 Z1.198 F762
X-85.401 Y-43.556 Z1.097
X-85.34 Y-43.634 Z1.027
X-85.274 Y-43.732 Z1
G2 X-87.84 Y-45.318 Z0.835 I-1.283 J-0.793
X-85.274 Y-43.732 Z0.669 I1.283 J0.793
X-87.84 Y-45.318 Z0.504 I-1.283 J-0.793
X-85.274 Y-43.732 Z0.338 I1.283 J0.793
X-87.84 Y-45.318 Z0.173 I-1.283 J-0.793
X-85.274 Y-43.732 Z0.007 I1.283 J0.793
X-87.84 Y-45.318 Z-0.158 I-1.283 J-0.793
X-85.274 Y-43.732 Z-0.324 I1.283 J0.793
X-87.84 Y-45.318 Z-0.489 I-1.283 J-0.793
X-85.274 Y-43.732 Z-0.655 I1.283 J0.793
X-87.84 Y-45.318 Z-0.82 I-1.283 J-0.793
X-85.274 Y-43.732 Z-0.985 I1.283 J0.793
X-87.84 Y-45.318 Z-1.151 I-1.283 J-0.793
X-85.274 Y-43.732 Z-1.316 I1.283 J0.793
X-87.84 Y-45.318 Z-1.482 I-1.283 J-0.793
X-85.274 Y-43.732 Z-1.647 I1.283 J0.793
X-87.84 Y-45.318 Z-1.813 I-1.283 J-0.793
X-85.274 Y-43.732 Z-1.978 I1.283 J0.793
X-87.84 Y-45.318 Z-2.144 I-1.283 J-0.793
X-85.274 Y-43.732 Z-2.309 I1.283 J0.793
X-87.84 Y-45.318 Z-2.474 I-1.283 J-0.793
X-85.274 Y-43.732 Z-2.64 I1.283 J0.793
X-87.84 Y-45.318 Z-2.805 I-1.283 J-0.793
X-85.274 Y-43.732 Z-2.971 I1.283 J0.793
X-85.049 Y-44.525 Z-3 I-1.283 J-0.793
G1 Y-45.027 F2032
G2 X-85.373 Y-45.351 I-0.324 J0
G1 X-86.381
G2 X-86.701 Y-45.031 I0 J0.32
G1 Y-44.023
G2 X-86.377 Y-43.699 I0.324 J0
G1 X-85.373
G2 X-85.049 Y-44.023 I0 J-0.324
G1 Y-44.525
G3 X-84.008 Y-46.066 I1.661 J0
G2 X-84.362 Y-47.892 I-0.354 J-0.879
G1 X-88.921
G2 X-89.242 Y-47.571 I0 J0.32
G1 Y-41.483
G2 X-88.917 Y-41.158 I0.324 J0
G1 X-82.833
G2 X-82.508 Y-41.483 I0 J-0.324
G1 Y-47.567
G2 X-82.833 Y-47.892 I-0.324 J0
G1 X-84.362
G3 X-86.271 Y-49.165 I0 J-2.068
G2 X-88.181 Y-50.438 I-1.909 J0.796
G1 X-91.787
Y-38.612
X-79.963
Y-50.438
X-88.181
G2 X-88.299 Y-50.415 Z-2.976 I0 J0.318
X-88.387 Y-50.361 Z-2.907 I0.119 J0.295
X-88.434 Y-50.311 Z-2.804 I0.206 J0.241
G1 X-88.448 Y-50.292 Z-2.683
G0 Z1.317
X-65.839 Y-44.939
G1 X-65.856 Y-44.955 Z1.198 F762
X-65.906 Y-44.999 Z1.097
X-65.984 Y-45.06 Z1.027
X-66.082 Y-45.126 Z1
G2 X-67.668 Y-42.56 Z0.835 I-0.793 J1.283
X-66.082 Y-45.126 Z0.669 I0.793 J-1.283
X-67.668 Y-42.56 Z0.504 I-0.793 J1.283
X-66.082 Y-45.126 Z0.338 I0.793 J-1.283
X-67.668 Y-42.56 Z0.173 I-0.793 J1.283
X-66.082 Y-45.126 Z0.007 I0.793 J-1.283
X-67.668 Y-42.56 Z-0.158 I-0.793 J1.283
X-66.082 Y-45.126 Z-0.324 I0.793 J-1.283
X-67.668 Y-42.56 Z-0.489 I-0.793 J1.283
X-66.082 Y-45.126 Z-0.655 I0.793 J-1.283
X-67.668 Y-42.56 Z-0.82 I-0.793 J1.283
X-66.082 Y-45.126 Z-0.985 I0.793 J-1.283
X-67.668 Y-42.56 Z-1.151 I-0.793 J1.283
X-66.082 Y-45.126 Z-1.316 I0.793 J-1.283
X-67.668 Y-42.56 Z-1.482 I-0.793 J1.283
X-66.082 Y-45.126 Z-1.647 I0.793 J-1.283
X-67.668 Y-42.56 Z-1.813 I-0.793 J1.283
X-66.082 Y-45.126 Z-1.978 I0.793 J-1.283
X-67.668 Y-42.56 Z-2.144 I-0.793 J1.283
X-66.082 Y-45.126 Z-2.309 I0.793 J-1.283
X-67.668 Y-42.56 Z-2.474 I-0.793 J1.283
X-66.082 Y-45.126 Z-2.64 I0.793 J-1.283
X-67.668 Y-42.56 Z-2.805 I-0.793 J1.283
X-66.082 Y-45.126 Z-2.971 I0.793 J-1.283
X-66.875 Y-45.351 Z-3 I-0.793 J1.283
G1 X-67.377 F2032
G2 X-67.701 Y-45.027 I0 J0.324
G1 Y-44.023
G2 X-67.377 Y-43.699 I0.324 J0
G1 X-66.373
G2 X-66.049 Y-44.023 I0 J-0.324
G1 Y-45.027
G2 X-66.373 Y-45.351 I-0.324 J0
G1 X-66.875
G3 X-68.416 Y-46.392 I0 J-1.661
G2 X-70.242 Y-46.038 I-0.879 J0.354
G1 Y-41.483
G2 X-69.917 Y-41.158 I0.324 J0
G1 X-63.833
G2 X-63.508 Y-41.483 I0 J-0.324
G1 Y-47.567
G2 X-63.833 Y-47.892 I-0.324 J0
G1 X-69.917
G2 X-70.242 Y-47.567 I0 J0.324
G1 Y-46.038
G3 X-71.515 Y-44.129 I-2.068 J0
G2 X-72.787 Y-42.219 I0.796 J1.909
G1 Y-38.612
X-60.963
Y-50.438
X-72.787
Y-42.219
G2 X-72.765 Y-42.101 Z-2.976 I0.317 J0
X-72.711 Y-42.013 Z-2.907 I0.295 J-0.119
X-72.661 Y-41.966 Z-2.804 I0.241 J-0.206
G1 X-72.642 Y-41.952 Z-2.683
G0 Z1.317
X-67.289 Y-26.561
G1 X-67.305 Y-26.544 Z1.198 F762
X-67.349 Y-26.494 Z1.097
X-67.41 Y-26.416 Z1.027
X-67.476 Y-26.318 Z1
G2 X-64.91 Y-24.732 Z0.835 I1.283 J0.793
X-67.476 Y-26.318 Z0.669 I-1.283 J-0.793
X-64.91 Y-24.732 Z0.504 I1.283 J0.793
X-67.476 Y-26.318 Z0.338 I-1.283 J-0.793
X-64.91 Y-24.732 Z0.173 I1.283 J0.793
X-67.476 Y-26.318 Z0.007 I-1.283 J-0.793
X-64.91 Y-24.732 Z-0.158 I1.283 J0.793
X-67.476 Y-26.318 Z-0.324 I-1.283 J-0.793
X-64.91 Y-24.732 Z-0.489 I1.283 J0.793
X-67.476 Y-26.318 Z-0.655 I-1.283 J-0.793
X-64.91 Y-24.732 Z-0.82 I1.283 J0.793
X-67.476 Y-26.318 Z-0.985 I-1.283 J-0.793
X-64.91 Y-24.732 Z-1.151 I1.283 J0.793
X-67.476 Y-26.318 Z-1.316 I-1.283 J-0.793
X-64.91 Y-24.732 Z-1.482 I1.283 J0.793
X-67.476 Y-26.318 Z-1.647 I-1.283 J-0.793
X-64.91 Y-24.732 Z-1.813 I1.283 J0.793
X-67.476 Y-26.318 Z-1.978 I-1.283 J-0.793
X-64.91 Y-24.732 Z-2.144 I1.283 J0.793
X-67.476 Y-26.318 Z-2.309 I-1.283 J-0.793
X-64.91 Y-24.732 Z-2.474 I1.283 J0.793
X-67.476 Y-26.318 Z-2.64 I-1.283 J-0.793
X-64.91 Y-24.732 Z-2.805 I1.283 J0.793
X-67.476 Y-26.318 Z-2.971 I-1.283 J-0.793
X-67.701 Y-25.525 Z-3 I1.283 J0.793
G1 Y-25.023 F2032
G2 X-67.377 Y-24.699 I0.324 J0
G1 X-66.373
G2 X-66.049 Y-25.023 I0 J-0.324
G1 Y-26.027
G2 X-66.373 Y-26.351 I-0.324 J0
G1 X-67.377
G2 X-67.701 Y-26.027 I0 J0.324
G1 Y-25.525
G3 X-68.742 Y-23.984 I-1.661 J0
G2 X-68.388 Y-22.158 I0.354 J0.879
G1 X-63.833
G2 X-63.508 Y-22.483 I0 J-0.324
G1 Y-28.567
G2 X-63.833 Y-28.892 I-0.324 J0
G1 X-69.917
G2 X-70.242 Y-28.567 I0 J0.324
G1 Y-22.483
G2 X-69.917 Y-22.158 I0.324 J0
G1 X-68.388
G3 X-66.479 Y-20.885 I0 J2.068
G2 X-64.569 Y-19.612 I1.909 J-0.796
G1 X-60.963
Y-31.438
X-72.787
Y-19.612
X-64.569
G2 X-64.451 Y-19.635 Z-2.976 I0 J-0.318
X-64.363 Y-19.689 Z-2.907 I-0.119 J-0.295
X-64.316 Y-19.739 Z-2.804 I-0.206 J-0.241
G1 X-64.302 Y-19.758 Z-2.683
G0 Z1.317
X-48.911 Y-25.111
G1 X-48.894 Y-25.095 Z1.198 F762
X-48.844 Y-25.051 Z1.097
X-48.766 Y-24.99 Z1.027
X-48.668 Y-24.924 Z1
G2 X-47.082 Y-27.49 Z0.835 I0.793 J-1.283
X-48.668 Y-24.924 Z0.669 I-0.793 J1.283
X-47.082 Y-27.49 Z0.504 I0.793 J-1.283
X-48.668 Y-24.924 Z0.338 I-0.793 J1.283
X-47.082 Y-27.49 Z0.173 I0.793 J-1.283
X-48.668 Y-24.924 Z0.007 I-0.793 J1.283
X-47.082 Y-27.49 Z-0.158 I0.793 J-1.283
X-48.668 Y-24.924 Z-0.324 I-0.793 J1.283
X-47.082 Y-27.49 Z-0.489 I0.793 J-1.283
X-48.668 Y-24.924 Z-0.655 I-0.793 J1.283
X-47.082 Y-27.49 Z-0.82 I0.793 J-1.283
X-48.668 Y-24.924 Z-0.985 I-0.793 J1.283
X-47.082 Y-27.49 Z-1.151 I0.793 J-1.283
X-48.668 Y-24.924 Z-1.316 I-0.793 J1.283
X-47.082 Y-27.49 Z-1.482 I0.793 J-1.283
X-48.668 Y-24.924 Z-1.647 I-0.793 J1.283
X-47.082 Y-27.49 Z-1.813 I0.793 J-1.283
X-48.668 Y-24.924 Z-1.978 I-0.793 J1.283
X-47.082 Y-27.49 Z-2.144 I0.793 J-1.283
X-48.668 Y-24.924 Z-2.309 I-0.793 J1.283
X-47.082 Y-27.49 Z-2.474 I0.793 J-1.283
X-48.668 Y-24.924 Z-2.64 I-0.793 J1.283
X-47.082 Y-27.49 Z-2.805 I0.793 J-1.283
X-48.668 Y-24.924 Z-2.971 I-0.793 J1.283
X-47.875 Y-24.699 Z-3 I0.793 J-1.283
G1 X-47.373 F2032
G2 X-47.049 Y-25.023 I0 J-0.324
G1 Y-26.027
G2 X-47.373 Y-26.351 I-0.324 J0
G1 X-48.377
G2 X-48.701 Y-26.027 I0 J0.324
G1 Y-25.023
G2 X-48.377 Y-24.699 I0.324 J0
G1 X-47.875
G3 X-46.334 Y-23.658 I0 J1.661
G2 X-44.508 Y-24.012 I0.879 J-0.354
G1 Y-28.567
G2 X-44.833 Y-28.892 I-0.324 J0
G1 X-50.917
G2 X-51.242 Y-28.567 I0 J0.324
G1 Y-22.483
G2 X-50.917 Y-22.158 I0.324 J0
G1 X-44.833
G2 X-44.508 Y-22.483 I0 J-0.324
G1 Y-24.012
G3 X-43.235 Y-25.921 I2.068 J0
G2 X-41.963 Y-27.831 I-0.796 J-1.909
G1 Y-31.438
X-53.787
Y-19.612
X-41.963
Y-27.831
G2 X-41.985 Y-27.949 Z-2.976 I-0.317 J0
X-42.039 Y-28.037 Z-2.907 I-0.295 J0.119
X-42.089 Y-28.084 Z-2.804 I-0.241 J0.206
G1 X-42.108 Y-28.098 Z-2.683
G0 Z1.317
X-29.911 Y-25.111
G1 X-29.894 Y-25.095 Z1.198 F762
X-29.844 Y-25.051 Z1.097
X-29.766 Y-24.99 Z1.027
X-29.668 Y-24.924 Z1
G2 X-28.082 Y-27.49 Z0.835 I0.793 J-1.283
X-29.668 Y-24.924 Z0.669 I-0.793 J1.283
X-28.082 Y-27.49 Z0.504 I0.793 J-1.283
X-29.668 Y-24.924 Z0.338 I-0.793 J1.283
X-28.082 Y-27.49 Z0.173 I0.793 J-1.283
X-29.668 Y-24.924 Z0.007 I-0.793 J1.283
X-28.082 Y-27.49 Z-0.158 I0.793 J-1.283
X-29.668 Y-24.924 Z-0.324 I-0.793 J1.283
X-28.082 Y-27.49 Z-0.489 I0.793 J-1.283
X-29.668 Y-24.924 Z-0.655 I-0.793 J1.283
X-28.082 Y-27.49 Z-0.82 I0.793 J-1.283
X-29.668 Y-24.924 Z-0.985 I-0.793 J1.283
X-28.082 Y-27.49 Z-1.151 I0.793 J-1.283
X-29.668 Y-24.924 Z-1.316 I-0.793 J1.283
X-28.082 Y-27.49 Z-1.482 I0.793 J-1.283
X-29.668 Y-24.924 Z-1.647 I-0.793 J1.283
X-28.082 Y-27.49 Z-1.813 I0.793 J-1.283
X-29.668 Y-24.924 Z-1.978 I-0.793 J1.283
X-28.082 Y-27.49 Z-2.144 I0.793 J-1.283
X-29.668 Y-24.924 Z-2.309 I-0.793 J1.283
X-28.082 Y-27.49 Z-2.474 I0.793 J-1.283
X-29.668 Y-24.924 Z-2.64 I-0.793 J1.283
X-28.082 Y-27.49 Z-2.805 I0.793 J-1.283
X-29.668 Y-24.924 Z-2.971 I-0.793 J1.283
X-28.875 Y-24.699 Z-3 I0.793 J-1.283
G1 X-28.373 F2032
G2 X-28.049 Y-25.023 I0 J-0.324
G1 Y-26.027
G2 X-28.373 Y-26.351 I-0.324 J0
G1 X-29.381
G2 X-29.701 Y-26.031 I0 J0.32
G1 Y-25.023
G2 X-29.377 Y-24.699 I0.324 J0
G1 X-28.875
G3 X-27.334 Y-23.658 I0 J1.661
G2 X-25.508 Y-24.012 I0.879 J-0.354
G1 Y-28.567
G2 X-25.833 Y-28.892 I-0.324 J0
G1 X-31.921
G2 X-32.242 Y-28.571 I0 J0.32
G1 Y-22.483
G2 X-31.917 Y-22.158 I0.324 J0
G1 X-25.833
G2 X-25.508 Y-22.483 I0 J-0.324
G1 Y-24.012
G3 X-24.235 Y-25.921 I2.068 J0
G2 X-22.962 Y-27.831 I-0.796 J-1.909
G1 Y-31.438
X-34.787
Y-19.612
X-22.962
Y-27.831
G2 X-22.985 Y-27.949 Z-2.976 I-0.318 J0
X-23.039 Y-28.037 Z-2.907 I-0.295 J0.119
X-23.089 Y-28.084 Z-2.804 I-0.241 J0.206
G1 X-23.108 Y-28.098 Z-2.683
G0 Z1.317
X-29.911 Y-44.111
G1 X-29.894 Y-44.095 Z1.198 F762
X-29.844 Y-44.051 Z1.097
X-29.766 Y-43.99 Z1.027
X-29.668 Y-43.924 Z1
G2 X-28.082 Y-46.49 Z0.835 I0.793 J-1.283
X-29.668 Y-43.924 Z0.669 I-0.793 J1.283
X-28.082 Y-46.49 Z0.504 I0.793 J-1.283
X-29.668 Y-43.924 Z0.338 I-0.793 J1.283
X-28.082 Y-46.49 Z0.173 I0.793 J-1.283
X-29.668 Y-43.924 Z0.007 I-0.793 J1.283
X-28.082 Y-46.49 Z-0.158 I0.793 J-1.283
X-29.668 Y-43.924 Z-0.324 I-0.793 J1.283
X-28.082 Y-46.49 Z-0.489 I0.793 J-1.283
X-29.668 Y-43.924 Z-0.655 I-0.793 J1.283
X-28.082 Y-46.49 Z-0.82 I0.793 J-1.283
X-29.668 Y-43.924 Z-0.985 I-0.793 J1.283
X-28.082 Y-46.49 Z-1.151 I0.793 J-1.283
X-29.668 Y-43.924 Z-1.316 I-0.793 J1.283
X-28.082 Y-46.49 Z-1.482 I0.793 J-1.283
X-29.668 Y-43.924 Z-1.647 I-0.793 J1.283
X-28.082 Y-46.49 Z-1.813 I0.793 J-1.283
X-29.668 Y-43.924 Z-1.978 I-0.793 J1.283
X-28.082 Y-46.49 Z-2.144 I0.793 J-1.283
X-29.668 Y-43.924 Z-2.309 I-0.793 J1.283
X-28.082 Y-46.49 Z-2.474 I0.793 J-1.283
X-29.668 Y-43.924 Z-2.64 I-0.793 J1.283
X-28.082 Y-46.49 Z-2.805 I0.793 J-1.283
X-29.668 Y-43.924 Z-2.971 I-0.793 J1.283
X-28.875 Y-43.699 Z-3 I0.793 J-1.283
G1 X-28.373 F2032
G2 X-28.049 Y-44.023 I0 J-0.324
G1 Y-45.027
G2 X-28.373 Y-45.351 I-0.324 J0
G1 X-29.377
G2 X-29.701 Y-45.027 I0 J0.324
G1 Y-44.023
G2 X-29.377 Y-43.699 I0.324 J0
G1 X-28.875
G3 X-27.334 Y-42.658 I0 J1.661
G2 X-25.508 Y-43.012 I0.879 J-0.354
G1 Y-47.567
G2 X-25.833 Y-47.892 I-0.324 J0
G1 X-31.917
G2 X-32.242 Y-47.567 I0 J0.324
G1 Y-41.483
G2 X-31.917 Y-41.158 I0.324 J0
G1 X-25.833
G2 X-25.508 Y-41.483 I0 J-0.324
G1 Y-43.012
G3 X-24.235 Y-44.921 I2.068 J0
G2 X-22.962 Y-46.831 I-0.796 J-1.909
G1 Y-50.438
X-34.787
Y-38.612
X-22.962
Y-46.831
G2 X-22.985 Y-46.949 Z-2.976 I-0.318 J0
X-23.039 Y-47.037 Z-2.907 I-0.295 J0.119
X-23.089 Y-47.084 Z-2.804 I-0.241 J0.206
G1 X-23.108 Y-47.098 Z-2.683
G0 Z1.317
X-29.911 Y-63.111
G1 X-29.894 Y-63.095 Z1.198 F762
X-29.844 Y-63.051 Z1.097
X-29.766 Y-62.99 Z1.027
X-29.668 Y-62.924 Z1
G2 X-28.082 Y-65.49 Z0.835 I0.793 J-1.283
X-29.668 Y-62.924 Z0.669 I-0.793 J1.283
X-28.082 Y-65.49 Z0.504 I0.793 J-1.283
X-29.668 Y-62.924 Z0.338 I-0.793 J1.283
X-28.082 Y-65.49 Z0.173 I0.793 J-1.283
X-29.668 Y-62.924 Z0.007 I-0.793 J1.283
X-28.082 Y-65.49 Z-0.158 I0.793 J-1.283
X-29.668 Y-62.924 Z-0.324 I-0.793 J1.283
X-28.082 Y-65.49 Z-0.489 I0.793 J-1.283
X-29.668 Y-62.924 Z-0.655 I-0.793 J1.283
X-28.082 Y-65.49 Z-0.82 I0.793 J-1.283
X-29.668 Y-62.924 Z-0.985 I-0.793 J1.283
X-28.082 Y-65.49 Z-1.151 I0.793 J-1.283
X-29.668 Y-62.924 Z-1.316 I-0.793 J1.283
X-28.082 Y-65.49 Z-1.482 I0.793 J-1.283
X-29.668 Y-62.924 Z-1.647 I-0.793 J1.283
X-28.082 Y-65.49 Z-1.813 I0.793 J-1.283
X-29.668 Y-62.924 Z-1.978 I-0.793 J1.283
X-28.082 Y-65.49 Z-2.144 I0.793 J-1.283
X-29.668 Y-62.924 Z-2.309 I-0.793 J1.283
X-28.082 Y-65.49 Z-2.474 I0.793 J-1.283
X-29.668 Y-62.924 Z-2.64 I-0.793 J1.283
X-28.082 Y-65.49 Z-2.805 I0.793 J-1.283
X-29.668 Y-62.924 Z-2.971 I-0.793 J1.283
X-28.875 Y-62.699 Z-3 I0.793 J-1.283
G1 X-28.373 F2032
G2 X-28.049 Y-63.023 I0 J-0.324
G1 Y-64.027
G2 X-28.373 Y-64.351 I-0.324 J0
G1 X-29.377
G2 X-29.701 Y-64.027 I0 J0.324
G1 Y-63.023
G2 X-29.377 Y-62.699 I0.324 J0
G1 X-28.875
G3 X-27.334 Y-61.658 I0 J1.661
G2 X-25.508 Y-62.012 I0.879 J-0.354
G1 Y-66.567
G2 X-25.833 Y-66.892 I-0.324 J0
G1 X-31.917
G2 X-32.242 Y-66.567 I0 J0.324
G1 Y-60.483
G2 X-31.917 Y-60.158 I0.324 J0
G1 X-25.833
G2 X-25.508 Y-60.483 I0 J-0.324
G1 Y-62.012
G3 X-24.235 Y-63.921 I2.068 J0
G2 X-22.962 Y-65.831 I-0.796 J-1.909
G1 Y-69.438
X-34.787
Y-57.612
X-22.962
Y-65.831
G2 X-22.985 Y-65.949 Z-2.976 I-0.318 J0
X-23.039 Y-66.037 Z-2.907 I-0.295 J0.119
X-23.089 Y-66.084 Z-2.804 I-0.241 J0.206
G1 X-23.108 Y-66.098 Z-2.683
G0 Z1.317
X-27.839 Y-82.939
G1 X-27.856 Y-82.955 Z1.198 F762
X-27.906 Y-82.999 Z1.097
X-27.984 Y-83.06 Z1.027
X-28.082 Y-83.126 Z1
G2 X-29.668 Y-80.56 Z0.835 I-0.793 J1.283
X-28.082 Y-83.126 Z0.669 I0.793 J-1.283
X-29.668 Y-80.56 Z0.504 I-0.793 J1.283
X-28.082 Y-83.126 Z0.338 I0.793 J-1.283
X-29.668 Y-80.56 Z0.173 I-0.793 J1.283
X-28.082 Y-83.126 Z0.007 I0.793 J-1.283
X-29.668 Y-80.56 Z-0.158 I-0.793 J1.283
X-28.082 Y-83.126 Z-0.324 I0.793 J-1.283
X-29.668 Y-80.56 Z-0.489 I-0.793 J1.283
X-28.082 Y-83.126 Z-0.655 I0.793 J-1.283
X-29.668 Y-80.56 Z-0.82 I-0.793 J1.283
X-28.082 Y-83.126 Z-0.985 I0.793 J-1.283
X-29.668 Y-80.56 Z-1.151 I-0.793 J1.283
X-28.082 Y-83.126 Z-1.316 I0.793 J-1.283
X-29.668 Y-80.56 Z-1.482 I-0.793 J1.283
X-28.082 Y-83.126 Z-1.647 I0.793 J-1.283
X-29.668 Y-80.56 Z-1.813 I-0.793 J1.283
X-28.082 Y-83.126 Z-1.978 I0.793 J-1.283
X-29.668 Y-80.56 Z-2.144 I-0.793 J1.283
X-28.082 Y-83.126 Z-2.309 I0.793 J-1.283
X-29.668 Y-80.56 Z-2.474 I-0.793 J1.283
X-28.082 Y-83.126 Z-2.64 I0.793 J-1.283
X-29.668 Y-80.56 Z-2.805 I-0.793 J1.283
X-28.082 Y-83.126 Z-2.971 I0.793 J-1.283
X-28.875 Y-83.351 Z-3 I-0.793 J1.283
G1 X-29.381 F2032
G2 X-29.701 Y-83.031 I0 J0.32
G1 Y-82.023
G2 X-29.377 Y-81.699 I0.324 J0
G1 X-28.373
G2 X-28.049 Y-82.023 I0 J-0.324
G1 Y-83.027
G2 X-28.373 Y-83.351 I-0.324 J0
G1 X-28.875
G3 X-30.416 Y-84.393 I0 J-1.66
G2 X-32.242 Y-84.04 I-0.879 J0.353
G1 Y-79.483
G2 X-31.917 Y-79.158 I0.324 J0
G1 X-25.833
G2 X-25.508 Y-79.483 I0 J-0.324
G1 Y-85.567
G2 X-25.833 Y-85.892 I-0.324 J0
G1 X-31.921
G2 X-32.242 Y-85.571 I0 J0.32
G1 Y-84.04
G3 X-33.515 Y-82.13 I-2.068 J0
G2 X-34.787 Y-80.221 I0.796 J1.909
G1 Y-76.613
X-22.962
Y-88.438
X-34.787
Y-80.221
G2 X-34.765 Y-80.102 Z-2.976 I0.317 J0
X-34.711 Y-80.015 Z-2.907 I0.295 J-0.119
X-34.661 Y-79.968 Z-2.804 I0.241 J-0.206
G1 X-34.642 Y-79.954 Z-2.683
G0 Z1.317
X-29.911 Y-101.111
G1 X-29.894 Y-101.095 Z1.198 F762
X-29.844 Y-101.051 Z1.097
X-29.766 Y-100.99 Z1.027
X-29.668 Y-100.924 Z1
G2 X-28.082 Y-103.49 Z0.835 I0.793 J-1.283
X-29.668 Y-100.924 Z0.669 I-0.793 J1.283
X-28.082 Y-103.49 Z0.504 I0.793 J-1.283
X-29.668 Y-100.924 Z0.338 I-0.793 J1.283
X-28.082 Y-103.49 Z0.173 I0.793 J-1.283
X-29.668 Y-100.924 Z0.007 I-0.793 J1.283
X-28.082 Y-103.49 Z-0.158 I0.793 J-1.283
X-29.668 Y-100.924 Z-0.324 I-0.793 J1.283
X-28.082 Y-103.49 Z-0.489 I0.793 J-1.283
X-29.668 Y-100.924 Z-0.655 I-0.793 J1.283
X-28.082 Y-103.49 Z-0.82 I0.793 J-1.283
X-29.668 Y-100.924 Z-0.985 I-0.793 J1.283
X-28.082 Y-103.49 Z-1.151 I0.793 J-1.283
X-29.668 Y-100.924 Z-1.316 I-0.793 J1.283
X-28.082 Y-103.49 Z-1.482 I0.793 J-1.283
X-29.668 Y-100.924 Z-1.647 I-0.793 J1.283
X-28.082 Y-103.49 Z-1.813 I0.793 J-1.283
X-29.668 Y-100.924 Z-1.978 I-0.793 J1.283
X-28.082 Y-103.49 Z-2.144 I0.793 J-1.283
X-29.668 Y-100.924 Z-2.309 I-0.793 J1.283
X-28.082 Y-103.49 Z-2.474 I0.793 J-1.283
X-29.668 Y-100.924 Z-2.64 I-0.793 J1.283
X-28.082 Y-103.49 Z-2.805 I0.793 J-1.283
X-29.668 Y-100.924 Z-2.971 I-0.793 J1.283
X-28.875 Y-100.699 Z-3 I0.793 J-1.283
G1 X-28.373 F2032
G2 X-28.049 Y-101.023 I0 J-0.324
G1 Y-102.027
G2 X-28.373 Y-102.351 I-0.324 J0
G1 X-29.377
G2 X-29.701 Y-102.027 I0 J0.324
G1 Y-101.023
G2 X-29.377 Y-100.699 I0.324 J0
G1 X-28.875
G3 X-27.334 Y-99.658 I0 J1.661
G2 X-25.508 Y-100.012 I0.879 J-0.354
G1 Y-104.567
G2 X-25.833 Y-104.892 I-0.324 J0
G1 X-31.917
G2 X-32.242 Y-104.567 I0 J0.324
G1 Y-98.483
G2 X-31.917 Y-98.158 I0.324 J0
G1 X-25.833
G2 X-25.508 Y-98.483 I0 J-0.324
G1 Y-100.012
G3 X-24.235 Y-101.921 I2.068 J0
G2 X-22.962 Y-103.831 I-0.796 J-1.909
G1 Y-107.438
X-34.787
Y-95.613
X-22.962
Y-103.831
G2 X-22.985 Y-103.949 Z-2.976 I-0.318 J0
X-23.039 Y-104.037 Z-2.907 I-0.295 J0.119
X-23.089 Y-104.084 Z-2.804 I-0.241 J0.206
G1 X-23.108 Y-104.098 Z-2.683
G0 Z1.317
X-29.911 Y-120.111
G1 X-29.894 Y-120.095 Z1.198 F762
X-29.844 Y-120.051 Z1.097
X-29.766 Y-119.99 Z1.027
X-29.668 Y-119.924 Z1
G2 X-28.082 Y-122.49 Z0.835 I0.793 J-1.283
X-29.668 Y-119.924 Z0.669 I-0.793 J1.283
X-28.082 Y-122.49 Z0.504 I0.793 J-1.283
X-29.668 Y-119.924 Z0.338 I-0.793 J1.283
X-28.082 Y-122.49 Z0.173 I0.793 J-1.283
X-29.668 Y-119.924 Z0.007 I-0.793 J1.283
X-28.082 Y-122.49 Z-0.158 I0.793 J-1.283
X-29.668 Y-119.924 Z-0.324 I-0.793 J1.283
X-28.082 Y-122.49 Z-0.489 I0.793 J-1.283
X-29.668 Y-119.924 Z-0.655 I-0.793 J1.283
X-28.082 Y-122.49 Z-0.82 I0.793 J-1.283
X-29.668 Y-119.924 Z-0.985 I-0.793 J1.283
X-28.082 Y-122.49 Z-1.151 I0.793 J-1.283
X-29.668 Y-119.924 Z-1.316 I-0.793 J1.283
X-28.082 Y-122.49 Z-1.482 I0.793 J-1.283
X-29.668 Y-119.924 Z-1.647 I-0.793 J1.283
X-28.082 Y-122.49 Z-1.813 I0.793 J-1.283
X-29.668 Y-119.924 Z-1.978 I-0.793 J1.283
X-28.082 Y-122.49 Z-2.144 I0.793 J-1.283
X-29.668 Y-119.924 Z-2.309 I-0.793 J1.283
X-28.082 Y-122.49 Z-2.474 I0.793 J-1.283
X-29.668 Y-119.924 Z-2.64 I-0.793 J1.283
X-28.082 Y-122.49 Z-2.805 I0.793 J-1.283
X-29.668 Y-119.924 Z-2.971 I-0.793 J1.283
X-28.875 Y-119.699 Z-3 I0.793 J-1.283
G1 X-28.373 F2032
G2 X-28.049 Y-120.023 I0 J-0.324
G1 Y-121.027
G2 X-28.373 Y-121.351 I-0.324 J0
G1 X-29.377
G2 X-29.701 Y-121.027 I0 J0.324
G1 Y-120.023
G2 X-29.377 Y-119.699 I0.324 J0
G1 X-28.875
G3 X-27.334 Y-118.658 I0 J1.661
G2 X-25.508 Y-119.012 I0.879 J-0.354
G1 Y-123.567
G2 X-25.833 Y-123.892 I-0.324 J0
G1 X-31.917
G2 X-32.242 Y-123.567 I0 J0.324
G1 Y-117.483
G2 X-31.917 Y-117.158 I0.324 J0
G1 X-25.833
G2 X-25.508 Y-117.483 I0 J-0.324
G1 Y-119.012
G3 X-24.235 Y-120.921 I2.068 J0
G2 X-22.962 Y-122.831 I-0.796 J-1.909
G1 Y-126.438
X-34.787
Y-114.613
X-22.962
Y-122.831
G2 X-22.985 Y-122.949 Z-2.976 I-0.318 J0
X-23.039 Y-123.037 Z-2.907 I-0.295 J0.119
X-23.089 Y-123.084 Z-2.804 I-0.241 J0.206
G1 X-23.108 Y-123.098 Z-2.683
G0 Z1.317
X-48.911 Y-120.111
G1 X-48.894 Y-120.095 Z1.198 F762
X-48.844 Y-120.051 Z1.097
X-48.766 Y-119.99 Z1.027
X-48.668 Y-119.924 Z1
G2 X-47.082 Y-122.49 Z0.835 I0.793 J-1.283
X-48.668 Y-119.924 Z0.669 I-0.793 J1.283
X-47.082 Y-122.49 Z0.504 I0.793 J-1.283
X-48.668 Y-119.924 Z0.338 I-0.793 J1.283
X-47.082 Y-122.49 Z0.173 I0.793 J-1.283
X-48.668 Y-119.924 Z0.007 I-0.793 J1.283
X-47.082 Y-122.49 Z-0.158 I0.793 J-1.283
X-48.668 Y-119.924 Z-0.324 I-0.793 J1.283
X-47.082 Y-122.49 Z-0.489 I0.793 J-1.283
X-48.668 Y-119.924 Z-0.655 I-0.793 J1.283
X-47.082 Y-122.49 Z-0.82 I0.793 J-1.283
X-48.668 Y-119.924 Z-0.985 I-0.793 J1.283
X-47.082 Y-122.49 Z-1.151 I0.793 J-1.283
X-48.668 Y-119.924 Z-1.316 I-0.793 J1.283
X-47.082 Y-122.49 Z-1.482 I0.793 J-1.283
X-48.668 Y-119.924 Z-1.647 I-0.793 J1.283
X-47.082 Y-122.49 Z-1.813 I0.793 J-1.283
X-48.668 Y-119.924 Z-1.978 I-0.793 J1.283
X-47.082 Y-122.49 Z-2.144 I0.793 J-1.283
X-48.668 Y-119.924 Z-2.309 I-0.793 J1.283
X-47.082 Y-122.49 Z-2.474 I0.793 J-1.283
X-48.668 Y-119.924 Z-2.64 I-0.793 J1.283
X-47.082 Y-122.49 Z-2.805 I0.793 J-1.283
X-48.668 Y-119.924 Z-2.971 I-0.793 J1.283
X-47.875 Y-119.699 Z-3 I0.793 J-1.283
G1 X-47.373 F2032
G2 X-47.049 Y-120.023 I0 J-0.324
G1 Y-121.027
G2 X-47.373 Y-121.351 I-0.324 J0
G1 X-48.381
G2 X-48.701 Y-121.031 I0 J0.32
G1 Y-120.023
G2 X-48.377 Y-119.699 I0.324 J0
G1 X-47.875
G3 X-46.334 Y-118.658 I0 J1.661
G2 X-44.508 Y-119.012 I0.879 J-0.354
G1 Y-123.567
G2 X-44.833 Y-123.892 I-0.324 J0
G1 X-50.921
G2 X-51.242 Y-123.571 I0 J0.32
G1 Y-117.483
G2 X-50.917 Y-117.158 I0.324 J0
G1 X-44.833
G2 X-44.508 Y-117.483 I0 J-0.324
G1 Y-119.012
G3 X-43.235 Y-120.921 I2.068 J0
G2 X-41.963 Y-122.831 I-0.796 J-1.909
G1 Y-126.438
X-53.787
Y-114.613
X-41.963
Y-122.831
G2 X-41.985 Y-122.949 Z-2.976 I-0.317 J0
X-42.039 Y-123.037 Z-2.907 I-0.295 J0.119
X-42.089 Y-123.084 Z-2.804 I-0.241 J0.206
G1 X-42.108 Y-123.098 Z-2.683
G0 Z1.317
X-48.911 Y-101.111
G1 X-48.894 Y-101.095 Z1.198 F762
X-48.844 Y-101.051 Z1.097
X-48.766 Y-100.99 Z1.027
X-48.668 Y-100.924 Z1
G2 X-47.082 Y-103.49 Z0.835 I0.793 J-1.283
X-48.668 Y-100.924 Z0.669 I-0.793 J1.283
X-47.082 Y-103.49 Z0.504 I0.793 J-1.283
X-48.668 Y-100.924 Z0.338 I-0.793 J1.283
X-47.082 Y-103.49 Z0.173 I0.793 J-1.283
X-48.668 Y-100.924 Z0.007 I-0.793 J1.283
X-47.082 Y-103.49 Z-0.158 I0.793 J-1.283
X-48.668 Y-100.924 Z-0.324 I-0.793 J1.283
X-47.082 Y-103.49 Z-0.489 I0.793 J-1.283
X-48.668 Y-100.924 Z-0.655 I-0.793 J1.283
X-47.082 Y-103.49 Z-0.82 I0.793 J-1.283
X-48.668 Y-100.924 Z-0.985 I-0.793 J1.283
X-47.082 Y-103.49 Z-1.151 I0.793 J-1.283
X-48.668 Y-100.924 Z-1.316 I-0.793 J1.283
X-47.082 Y-103.49 Z-1.482 I0.793 J-1.283
X-48.668 Y-100.924 Z-1.647 I-0.793 J1.283
X-47.082 Y-103.49 Z-1.813 I0.793 J-1.283
X-48.668 Y-100.924 Z-1.978 I-0.793 J1.283
X-47.082 Y-103.49 Z-2.144 I0.793 J-1.283
X-48.668 Y-100.924 Z-2.309 I-0.793 J1.283
X-47.082 Y-103.49 Z-2.474 I0.793 J-1.283
X-48.668 Y-100.924 Z-2.64 I-0.793 J1.283
X-47.082 Y-103.49 Z-2.805 I0.793 J-1.283
X-48.668 Y-100.924 Z-2.971 I-0.793 J1.283
X-47.875 Y-100.699 Z-3 I0.793 J-1.283
G1 X-47.373 F2032
G2 X-47.049 Y-101.023 I0 J-0.324
G1 Y-102.027
G2 X-47.373 Y-102.351 I-0.324 J0
G1 X-48.377
G2 X-48.701 Y-102.027 I0 J0.324
G1 Y-101.023
G2 X-48.377 Y-100.699 I0.324 J0
G1 X-47.875
G3 X-46.334 Y-99.658 I0 J1.661
G2 X-44.508 Y-100.012 I0.879 J-0.354
G1 Y-104.567
G2 X-44.833 Y-104.892 I-0.324 J0
G1 X-50.917
G2 X-51.242 Y-104.567 I0 J0.324
G1 Y-98.483
G2 X-50.917 Y-98.158 I0.324 J0
G1 X-44.833
G2 X-44.508 Y-98.483 I0 J-0.324
G1 Y-100.012
G3 X-43.235 Y-101.921 I2.068 J0
G2 X-41.963 Y-103.831 I-0.796 J-1.909
G1 Y-107.438
X-53.787
Y-95.613
X-41.963
Y-103.831
G2 X-41.985 Y-103.949 Z-2.976 I-0.317 J0
X-42.039 Y-104.037 Z-2.907 I-0.295 J0.119
X-42.089 Y-104.084 Z-2.804 I-0.241 J0.206
G1 X-42.108 Y-104.098 Z-2.683
G0 Z1.317
X-65.839 Y-101.939
G1 X-65.856 Y-101.955 Z1.198 F762
X-65.906 Y-101.999 Z1.097
X-65.984 Y-102.06 Z1.027
X-66.082 Y-102.126 Z1
G2 X-67.668 Y-99.56 Z0.835 I-0.793 J1.283
X-66.082 Y-102.126 Z0.669 I0.793 J-1.283
X-67.668 Y-99.56 Z0.504 I-0.793 J1.283
X-66.082 Y-102.126 Z0.338 I0.793 J-1.283
X-67.668 Y-99.56 Z0.173 I-0.793 J1.283
X-66.082 Y-102.126 Z0.007 I0.793 J-1.283
X-67.668 Y-99.56 Z-0.158 I-0.793 J1.283
X-66.082 Y-102.126 Z-0.324 I0.793 J-1.283
X-67.668 Y-99.56 Z-0.489 I-0.793 J1.283
X-66.082 Y-102.126 Z-0.655 I0.793 J-1.283
X-67.668 Y-99.56 Z-0.82 I-0.793 J1.283
X-66.082 Y-102.126 Z-0.985 I0.793 J-1.283
X-67.668 Y-99.56 Z-1.151 I-0.793 J1.283
X-66.082 Y-102.126 Z-1.316 I0.793 J-1.283
X-67.668 Y-99.56 Z-1.482 I-0.793 J1.283
X-66.082 Y-102.126 Z-1.647 I0.793 J-1.283
X-67.668 Y-99.56 Z-1.813 I-0.793 J1.283
X-66.082 Y-102.126 Z-1.978 I0.793 J-1.283
X-67.668 Y-99.56 Z-2.144 I-0.793 J1.283
X-66.082 Y-102.126 Z-2.309 I0.793 J-1.283
X-67.668 Y-99.56 Z-2.474 I-0.793 J1.283
X-66.082 Y-102.126 Z-2.64 I0.793 J-1.283
X-67.668 Y-99.56 Z-2.805 I-0.793 J1.283
X-66.082 Y-102.126 Z-2.971 I0.793 J-1.283
X-66.875 Y-102.351 Z-3 I-0.793 J1.283
G1 X-67.381 F2032
G2 X-67.701 Y-102.031 I0 J0.32
G1 Y-101.023
G2 X-67.377 Y-100.699 I0.324 J0
G1 X-66.373
G2 X-66.049 Y-101.023 I0 J-0.324
G1 Y-102.027
G2 X-66.373 Y-102.351 I-0.324 J0
G1 X-66.875
G3 X-68.416 Y-103.393 I0 J-1.66
G2 X-70.242 Y-103.04 I-0.879 J0.353
G1 Y-98.483
G2 X-69.917 Y-98.158 I0.324 J0
G1 X-63.833
G2 X-63.508 Y-98.483 I0 J-0.324
G1 Y-104.567
G2 X-63.833 Y-104.892 I-0.324 J0
G1 X-69.921
G2 X-70.242 Y-104.571 I0 J0.32
G1 Y-103.04
G3 X-71.515 Y-101.13 I-2.068 J0
G2 X-72.787 Y-99.221 I0.796 J1.909
G1 Y-95.613
X-60.963
Y-107.438
X-72.787
Y-99.221
G2 X-72.765 Y-99.102 Z-2.976 I0.317 J0
X-72.711 Y-99.015 Z-2.907 I0.295 J-0.119
X-72.661 Y-98.968 Z-2.804 I0.241 J-0.206
G1 X-72.642 Y-98.954 Z-2.683
G0 Z1.317
X-84.839 Y-101.939
G1 X-84.856 Y-101.955 Z1.198 F762
X-84.906 Y-101.999 Z1.097
X-84.984 Y-102.06 Z1.027
X-85.082 Y-102.126 Z1
G2 X-86.668 Y-99.56 Z0.835 I-0.793 J1.283
X-85.082 Y-102.126 Z0.669 I0.793 J-1.283
X-86.668 Y-99.56 Z0.504 I-0.793 J1.283
X-85.082 Y-102.126 Z0.338 I0.793 J-1.283
X-86.668 Y-99.56 Z0.173 I-0.793 J1.283
X-85.082 Y-102.126 Z0.007 I0.793 J-1.283
X-86.668 Y-99.56 Z-0.158 I-0.793 J1.283
X-85.082 Y-102.126 Z-0.324 I0.793 J-1.283
X-86.668 Y-99.56 Z-0.489 I-0.793 J1.283
X-85.082 Y-102.126 Z-0.655 I0.793 J-1.283
X-86.668 Y-99.56 Z-0.82 I-0.793 J1.283
X-85.082 Y-102.126 Z-0.985 I0.793 J-1.283
X-86.668 Y-99.56 Z-1.151 I-0.793 J1.283
X-85.082 Y-102.126 Z-1.316 I0.793 J-1.283
X-86.668 Y-99.56 Z-1.482 I-0.793 J1.283
X-85.082 Y-102.126 Z-1.647 I0.793 J-1.283
X-86.668 Y-99.56 Z-1.813 I-0.793 J1.283
X-85.082 Y-102.126 Z-1.978 I0.793 J-1.283
X-86.668 Y-99.56 Z-2.144 I-0.793 J1.283
X-85.082 Y-102.126 Z-2.309 I0.793 J-1.283
X-86.668 Y-99.56 Z-2.474 I-0.793 J1.283
X-85.082 Y-102.126 Z-2.64 I0.793 J-1.283
X-86.668 Y-99.56 Z-2.805 I-0.793 J1.283
X-85.082 Y-102.126 Z-2.971 I0.793 J-1.283
X-85.875 Y-102.351 Z-3 I-0.793 J1.283
G1 X-86.377 F2032
G2 X-86.701 Y-102.027 I0 J0.324
G1 Y-101.023
G2 X-86.377 Y-100.699 I0.324 J0
G1 X-85.373
G2 X-85.049 Y-101.023 I0 J-0.324
G1 Y-102.027
G2 X-85.373 Y-102.351 I-0.324 J0
G1 X-85.875
G3 X-87.416 Y-103.392 I0 J-1.661
G2 X-89.242 Y-103.038 I-0.879 J0.354
G1 Y-98.483
G2 X-88.917 Y-98.158 I0.324 J0
G1 X-82.833
G2 X-82.508 Y-98.483 I0 J-0.324
G1 Y-104.567
G2 X-82.833 Y-104.892 I-0.324 J0
G1 X-88.917
G2 X-89.242 Y-104.567 I0 J0.324
G1 Y-103.038
G3 X-90.515 Y-101.129 I-2.068 J0
G2 X-91.787 Y-99.219 I0.796 J1.909
G1 Y-95.613
X-79.963
Y-107.438
X-91.787
Y-99.219
G2 X-91.765 Y-99.101 Z-2.976 I0.317 J0
X-91.711 Y-99.013 Z-2.907 I0.295 J-0.119
X-91.661 Y-98.966 Z-2.804 I0.241 J-0.206
G1 X-91.642 Y-98.952 Z-2.683
G0 Z1.317
X-84.839 Y-120.939
G1 X-84.856 Y-120.955 Z1.198 F762
X-84.906 Y-120.999 Z1.097
X-84.984 Y-121.06 Z1.027
X-85.082 Y-121.126 Z1
G2 X-86.668 Y-118.56 Z0.835 I-0.793 J1.283
X-85.082 Y-121.126 Z0.669 I0.793 J-1.283
X-86.668 Y-118.56 Z0.504 I-0.793 J1.283
X-85.082 Y-121.126 Z0.338 I0.793 J-1.283
X-86.668 Y-118.56 Z0.173 I-0.793 J1.283
X-85.082 Y-121.126 Z0.007 I0.793 J-1.283
X-86.668 Y-118.56 Z-0.158 I-0.793 J1.283
X-85.082 Y-121.126 Z-0.324 I0.793 J-1.283
X-86.668 Y-118.56 Z-0.489 I-0.793 J1.283
X-85.082 Y-121.126 Z-0.655 I0.793 J-1.283
X-86.668 Y-118.56 Z-0.82 I-0.793 J1.283
X-85.082 Y-121.126 Z-0.985 I0.793 J-1.283
X-86.668 Y-118.56 Z-1.151 I-0.793 J1.283
X-85.082 Y-121.126 Z-1.316 I0.793 J-1.283
X-86.668 Y-118.56 Z-1.482 I-0.793 J1.283
X-85.082 Y-121.126 Z-1.647 I0.793 J-1.283
X-86.668 Y-118.56 Z-1.813 I-0.793 J1.283
X-85.082 Y-121.126 Z-1.978 I0.793 J-1.283
X-86.668 Y-118.56 Z-2.144 I-0.793 J1.283
X-85.082 Y-121.126 Z-2.309 I0.793 J-1.283
X-86.668 Y-118.56 Z-2.474 I-0.793 J1.283
X-85.082 Y-121.126 Z-2.64 I0.793 J-1.283
X-86.668 Y-118.56 Z-2.805 I-0.793 J1.283
X-85.082 Y-121.126 Z-2.971 I0.793 J-1.283
X-85.875 Y-121.351 Z-3 I-0.793 J1.283
G1 X-86.377 F2032
G2 X-86.701 Y-121.027 I0 J0.324
G1 Y-120.023
G2 X-86.377 Y-119.699 I0.324 J0
G1 X-85.373
G2 X-85.049 Y-120.023 I0 J-0.324
G1 Y-121.027
G2 X-85.373 Y-121.351 I-0.324 J0
G1 X-85.875
G3 X-87.416 Y-122.392 I0 J-1.661
G2 X-89.242 Y-122.038 I-0.879 J0.354
G1 Y-117.483
G2 X-88.917 Y-117.158 I0.324 J0
G1 X-82.833
G2 X-82.508 Y-117.483 I0 J-0.324
G1 Y-123.567
G2 X-82.833 Y-123.892 I-0.324 J0
G1 X-88.917
G2 X-89.242 Y-123.567 I0 J0.324
G1 Y-122.038
G3 X-90.515 Y-120.129 I-2.068 J0
G2 X-91.787 Y-118.219 I0.796 J1.909
G1 Y-114.613
X-79.963
Y-126.438
X-91.787
Y-118.219
G2 X-91.765 Y-118.101 Z-2.976 I0.317 J0
X-91.711 Y-118.013 Z-2.907 I0.295 J-0.119
X-91.661 Y-117.966 Z-2.804 I0.241 J-0.206
G1 X-91.642 Y-117.952 Z-2.683
G0 Z1.317
X-65.839 Y-120.939
G1 X-65.856 Y-120.955 Z1.198 F762
X-65.906 Y-120.999 Z1.097
X-65.984 Y-121.06 Z1.027
X-66.082 Y-121.126 Z1
G2 X-67.668 Y-118.56 Z0.835 I-0.793 J1.283
X-66.082 Y-121.126 Z0.669 I0.793 J-1.283
X-67.668 Y-118.56 Z0.504 I-0.793 J1.283
X-66.082 Y-121.126 Z0.338 I0.793 J-1.283
X-67.668 Y-118.56 Z0.173 I-0.793 J1.283
X-66.082 Y-121.126 Z0.007 I0.793 J-1.283
X-67.668 Y-118.56 Z-0.158 I-0.793 J1.283
X-66.082 Y-121.126 Z-0.324 I0.793 J-1.283
X-67.668 Y-118.56 Z-0.489 I-0.793 J1.283
X-66.082 Y-121.126 Z-0.655 I0.793 J-1.283
X-67.668 Y-118.56 Z-0.82 I-0.793 J1.283
X-66.082 Y-121.126 Z-0.985 I0.793 J-1.283
X-67.668 Y-118.56 Z-1.151 I-0.793 J1.283
X-66.082 Y-121.126 Z-1.316 I0.793 J-1.283
X-67.668 Y-118.56 Z-1.482 I-0.793 J1.283
X-66.082 Y-121.126 Z-1.647 I0.793 J-1.283
X-67.668 Y-118.56 Z-1.813 I-0.793 J1.283
X-66.082 Y-121.126 Z-1.978 I0.793 J-1.283
X-67.668 Y-118.56 Z-2.144 I-0.793 J1.283
X-66.082 Y-121.126 Z-2.309 I0.793 J-1.283
X-67.668 Y-118.56 Z-2.474 I-0.793 J1.283
X-66.082 Y-121.126 Z-2.64 I0.793 J-1.283
X-67.668 Y-118.56 Z-2.805 I-0.793 J1.283
X-66.082 Y-121.126 Z-2.971 I0.793 J-1.283
X-66.875 Y-121.351 Z-3 I-0.793 J1.283
G1 X-67.377 F2032
G2 X-67.701 Y-121.027 I0 J0.324
G1 Y-120.023
G2 X-67.377 Y-119.699 I0.324 J0
G1 X-66.373
G2 X-66.049 Y-120.023 I0 J-0.324
G1 Y-121.027
G2 X-66.373 Y-121.351 I-0.324 J0
G1 X-66.875
G3 X-68.416 Y-122.392 I0 J-1.661
G2 X-70.242 Y-122.038 I-0.879 J0.354
G1 Y-117.483
G2 X-69.917 Y-117.158 I0.324 J0
G1 X-63.833
G2 X-63.508 Y-117.483 I0 J-0.324
G1 Y-123.567
G2 X-63.833 Y-123.892 I-0.324 J0
G1 X-69.917
G2 X-70.242 Y-123.567 I0 J0.324
G1 Y-122.038
G3 X-71.515 Y-120.129 I-2.068 J0
G2 X-72.787 Y-118.219 I0.796 J1.909
G1 Y-114.613
X-60.963
Y-126.438
X-72.787
Y-118.219
G2 X-72.765 Y-118.101 Z-2.976 I0.317 J0
X-72.711 Y-118.013 Z-2.907 I0.295 J-0.119
X-72.661 Y-117.966 Z-2.804 I0.241 J-0.206
G1 X-72.642 Y-117.952 Z-2.683
G0 Z1.317
X-66.461 Y-62.489
G1 X-66.445 Y-62.506 Z1.198 F762
X-66.401 Y-62.556 Z1.097
X-66.34 Y-62.634 Z1.027
X-66.274 Y-62.732 Z1
G2 X-68.84 Y-64.318 Z0.835 I-1.283 J-0.793
X-66.274 Y-62.732 Z0.669 I1.283 J0.793
X-68.84 Y-64.318 Z0.504 I-1.283 J-0.793
X-66.274 Y-62.732 Z0.338 I1.283 J0.793
X-68.84 Y-64.318 Z0.173 I-1.283 J-0.793
X-66.274 Y-62.732 Z0.007 I1.283 J0.793
X-68.84 Y-64.318 Z-0.158 I-1.283 J-0.793
X-66.274 Y-62.732 Z-0.324 I1.283 J0.793
X-68.84 Y-64.318 Z-0.489 I-1.283 J-0.793
X-66.274 Y-62.732 Z-0.655 I1.283 J0.793
X-68.84 Y-64.318 Z-0.82 I-1.283 J-0.793
X-66.274 Y-62.732 Z-0.985 I1.283 J0.793
X-68.84 Y-64.318 Z-1.151 I-1.283 J-0.793
X-66.274 Y-62.732 Z-1.316 I1.283 J0.793
X-68.84 Y-64.318 Z-1.482 I-1.283 J-0.793
X-66.274 Y-62.732 Z-1.647 I1.283 J0.793
X-68.84 Y-64.318 Z-1.813 I-1.283 J-0.793
X-66.274 Y-62.732 Z-1.978 I1.283 J0.793
X-68.84 Y-64.318 Z-2.144 I-1.283 J-0.793
X-66.274 Y-62.732 Z-2.309 I1.283 J0.793
X-68.84 Y-64.318 Z-2.474 I-1.283 J-0.793
X-66.274 Y-62.732 Z-2.64 I1.283 J0.793
X-68.84 Y-64.318 Z-2.805 I-1.283 J-0.793
X-66.274 Y-62.732 Z-2.971 I1.283 J0.793
X-66.049 Y-63.525 Z-3 I-1.283 J-0.793
G1 Y-64.027 F2032
G2 X-66.373 Y-64.351 I-0.324 J0
G1 X-67.381
G2 X-67.701 Y-64.031 I0 J0.32
G1 Y-63.023
G2 X-67.377 Y-62.699 I0.324 J0
G1 X-66.373
G2 X-66.049 Y-63.023 I0 J-0.324
G1 Y-63.525
G3 X-65.008 Y-65.066 I1.661 J0
G2 X-65.362 Y-66.892 I-0.354 J-0.879
G1 X-69.921
G2 X-70.242 Y-66.571 I0 J0.32
G1 Y-60.483
G2 X-69.917 Y-60.158 I0.324 J0
G1 X-63.833
G2 X-63.508 Y-60.483 I0 J-0.324
G1 Y-66.567
G2 X-63.833 Y-66.892 I-0.324 J0
G1 X-65.362
G3 X-67.271 Y-68.165 I0 J-2.068
G2 X-69.181 Y-69.438 I-1.909 J0.796
G1 X-72.787
Y-57.612
X-60.963
Y-69.438
X-69.181
G2 X-69.299 Y-69.415 Z-2.976 I0 J0.317
X-69.387 Y-69.361 Z-2.907 I0.119 J0.295
X-69.434 Y-69.311 Z-2.804 I0.206 J0.241
G1 X-69.448 Y-69.292 Z-2.683
G0 Z1.317
X-48.911 Y-63.111
G1 X-48.894 Y-63.095 Z1.198 F762
X-48.844 Y-63.051 Z1.097
X-48.766 Y-62.99 Z1.027
X-48.668 Y-62.924 Z1
G2 X-47.082 Y-65.49 Z0.835 I0.793 J-1.283
X-48.668 Y-62.924 Z0.669 I-0.793 J1.283
X-47.082 Y-65.49 Z0.504 I0.793 J-1.283
X-48.668 Y-62.924 Z0.338 I-0.793 J1.283
X-47.082 Y-65.49 Z0.173 I0.793 J-1.283
X-48.668 Y-62.924 Z0.007 I-0.793 J1.283
X-47.082 Y-65.49 Z-0.158 I0.793 J-1.283
X-48.668 Y-62.924 Z-0.324 I-0.793 J1.283
X-47.082 Y-65.49 Z-0.489 I0.793 J-1.283
X-48.668 Y-62.924 Z-0.655 I-0.793 J1.283
X-47.082 Y-65.49 Z-0.82 I0.793 J-1.283
X-48.668 Y-62.924 Z-0.985 I-0.793 J1.283
X-47.082 Y-65.49 Z-1.151 I0.793 J-1.283
X-48.668 Y-62.924 Z-1.316 I-0.793 J1.283
X-47.082 Y-65.49 Z-1.482 I0.793 J-1.283
X-48.668 Y-62.924 Z-1.647 I-0.793 J1.283
X-47.082 Y-65.49 Z-1.813 I0.793 J-1.283
X-48.668 Y-62.924 Z-1.978 I-0.793 J1.283
X-47.082 Y-65.49 Z-2.144 I0.793 J-1.283
X-48.668 Y-62.924 Z-2.309 I-0.793 J1.283
X-47.082 Y-65.49 Z-2.474 I0.793 J-1.283
X-48.668 Y-62.924 Z-2.64 I-0.793 J1.283
X-47.082 Y-65.49 Z-2.805 I0.793 J-1.283
X-48.668 Y-62.924 Z-2.971 I-0.793 J1.283
X-47.875 Y-62.699 Z-3 I0.793 J-1.283
G1 X-47.373 F2032
G2 X-47.049 Y-63.023 I0 J-0.324
G1 Y-64.027
G2 X-47.373 Y-64.351 I-0.324 J0
G1 X-48.377
G2 X-48.701 Y-64.027 I0 J0.324
G1 Y-63.023
G2 X-48.377 Y-62.699 I0.324 J0
G1 X-47.875
G3 X-46.334 Y-61.658 I0 J1.661
G2 X-44.508 Y-62.012 I0.879 J-0.354
G1 Y-66.567
G2 X-44.833 Y-66.892 I-0.324 J0
G1 X-50.917
G2 X-51.242 Y-66.567 I0 J0.324
G1 Y-60.483
G2 X-50.917 Y-60.158 I0.324 J0
G1 X-44.833
G2 X-44.508 Y-60.483 I0 J-0.324
G1 Y-62.012
G3 X-43.235 Y-63.921 I2.068 J0
G2 X-41.963 Y-65.831 I-0.796 J-1.909
G1 Y-69.438
X-53.787
Y-57.612
X-41.963
Y-65.831
G2 X-41.985 Y-65.949 Z-2.976 I-0.317 J0
X-42.039 Y-66.037 Z-2.907 I-0.295 J0.119
X-42.089 Y-66.084 Z-2.804 I-0.241 J0.206
G1 X-42.108 Y-66.098 Z-2.683
G0 Z1.317
X-47.461 Y-43.489
G1 X-47.445 Y-43.506 Z1.198 F762
X-47.401 Y-43.556 Z1.097
X-47.34 Y-43.634 Z1.027
X-47.274 Y-43.732 Z1
G2 X-49.84 Y-45.318 Z0.835 I-1.283 J-0.793
X-47.274 Y-43.732 Z0.669 I1.283 J0.793
X-49.84 Y-45.318 Z0.504 I-1.283 J-0.793
X-47.274 Y-43.732 Z0.338 I1.283 J0.793
X-49.84 Y-45.318 Z0.173 I-1.283 J-0.793
X-47.274 Y-43.732 Z0.007 I1.283 J0.793
X-49.84 Y-45.318 Z-0.158 I-1.283 J-0.793
X-47.274 Y-43.732 Z-0.324 I1.283 J0.793
X-49.84 Y-45.318 Z-0.489 I-1.283 J-0.793
X-47.274 Y-43.732 Z-0.655 I1.283 J0.793
X-49.84 Y-45.318 Z-0.82 I-1.283 J-0.793
X-47.274 Y-43.732 Z-0.985 I1.283 J0.793
X-49.84 Y-45.318 Z-1.151 I-1.283 J-0.793
X-47.274 Y-43.732 Z-1.316 I1.283 J0.793
X-49.84 Y-45.318 Z-1.482 I-1.283 J-0.793
X-47.274 Y-43.732 Z-1.647 I1.283 J0.793
X-49.84 Y-45.318 Z-1.813 I-1.283 J-0.793
X-47.274 Y-43.732 Z-1.978 I1.283 J0.793
X-49.84 Y-45.318 Z-2.144 I-1.283 J-0.793
X-47.274 Y-43.732 Z-2.309 I1.283 J0.793
X-49.84 Y-45.318 Z-2.474 I-1.283 J-0.793
X-47.274 Y-43.732 Z-2.64 I1.283 J0.793
X-49.84 Y-45.318 Z-2.805 I-1.283 J-0.793
X-47.274 Y-43.732 Z-2.971 I1.283 J0.793
X-47.049 Y-44.525 Z-3 I-1.283 J-0.793
G1 Y-45.027 F2032
G2 X-47.373 Y-45.351 I-0.324 J0
G1 X-48.377
G2 X-48.701 Y-45.027 I0 J0.324
G1 Y-44.023
G2 X-48.377 Y-43.699 I0.324 J0
G1 X-47.373
G2 X-47.049 Y-44.023 I0 J-0.324
G1 Y-44.525
G3 X-46.008 Y-46.066 I1.661 J0
G2 X-46.362 Y-47.892 I-0.354 J-0.879
G1 X-50.917
G2 X-51.242 Y-47.567 I0 J0.324
G1 Y-41.483
G2 X-50.917 Y-41.158 I0.324 J0
G1 X-44.833
G2 X-44.508 Y-41.483 I0 J-0.324
G1 Y-47.567
G2 X-44.833 Y-47.892 I-0.324 J0
G1 X-46.362
G3 X-48.271 Y-49.165 I0 J-2.068
G2 X-50.181 Y-50.438 I-1.909 J0.796
G1 X-53.787
Y-38.612
X-41.963
Y-50.438
X-50.181
G2 X-50.299 Y-50.415 Z-2.976 I0 J0.318
X-50.387 Y-50.361 Z-2.907 I0.119 J0.295
X-50.434 Y-50.311 Z-2.804 I0.206 J0.241
G1 X-50.448 Y-50.292 Z-2.683
G0 Z1.317
X-85.461 Y-24.489
G1 X-85.445 Y-24.506 Z1.198 F762
X-85.401 Y-24.556 Z1.097
X-85.34 Y-24.634 Z1.027
X-85.274 Y-24.732 Z1
G2 X-87.84 Y-26.318 Z0.835 I-1.283 J-0.793
X-85.274 Y-24.732 Z0.669 I1.283 J0.793
X-87.84 Y-26.318 Z0.504 I-1.283 J-0.793
X-85.274 Y-24.732 Z0.338 I1.283 J0.793
X-87.84 Y-26.318 Z0.173 I-1.283 J-0.793
X-85.274 Y-24.732 Z0.007 I1.283 J0.793
X-87.84 Y-26.318 Z-0.158 I-1.283 J-0.793
X-85.274 Y-24.732 Z-0.324 I1.283 J0.793
X-87.84 Y-26.318 Z-0.489 I-1.283 J-0.793
X-85.274 Y-24.732 Z-0.655 I1.283 J0.793
X-87.84 Y-26.318 Z-0.82 I-1.283 J-0.793
X-85.274 Y-24.732 Z-0.985 I1.283 J0.793
X-87.84 Y-26.318 Z-1.151 I-1.283 J-0.793
X-85.274 Y-24.732 Z-1.316 I1.283 J0.793
X-87.84 Y-26.318 Z-1.482 I-1.283 J-0.793
X-85.274 Y-24.732 Z-1.647 I1.283 J0.793
X-87.84 Y-26.318 Z-1.813 I-1.283 J-0.793
X-85.274 Y-24.732 Z-1.978 I1.283 J0.793
X-87.84 Y-26.318 Z-2.144 I-1.283 J-0.793
X-85.274 Y-24.732 Z-2.309 I1.283 J0.793
X-87.84 Y-26.318 Z-2.474 I-1.283 J-0.793
X-85.274 Y-24.732 Z-2.64 I1.283 J0.793
X-87.84 Y-26.318 Z-2.805 I-1.283 J-0.793
X-85.274 Y-24.732 Z-2.971 I1.283 J0.793
X-85.049 Y-25.525 Z-3 I-1.283 J-0.793
G1 Y-26.027 F2032
G2 X-85.373 Y-26.351 I-0.324 J0
G1 X-86.381
G2 X-86.701 Y-26.031 I0 J0.32
G1 Y-25.023
G2 X-86.377 Y-24.699 I0.324 J0
G1 X-85.373
G2 X-85.049 Y-25.023 I0 J-0.324
G1 Y-25.525
G3 X-84.008 Y-27.066 I1.661 J0
G2 X-84.362 Y-28.892 I-0.354 J-0.879
G1 X-88.921
G2 X-89.242 Y-28.571 I0 J0.32
G1 Y-22.483
G2 X-88.917 Y-22.158 I0.324 J0
G1 X-82.833
G2 X-82.508 Y-22.483 I0 J-0.324
G1 Y-28.567
G2 X-82.833 Y-28.892 I-0.324 J0
G1 X-84.362
G3 X-86.271 Y-30.165 I0 J-2.068
G2 X-88.181 Y-31.438 I-1.909 J0.796
G1 X-91.787
Y-19.612
X-79.963
Y-31.438
X-88.181
G2 X-88.299 Y-31.415 Z-2.976 I0 J0.317
X-88.387 Y-31.361 Z-2.907 I0.119 J0.295
X-88.434 Y-31.311 Z-2.804 I0.206 J0.241
G1 X-88.448 Y-31.292 Z-2.683
G0 Z11.16

(2D Contour2)
M7
Z15.24
X-61.005 Y-81.851
Z5.08
G1 Z1 F762
Z-3.183
X-60.999 Y-81.857 Z-3.253
X-60.982 Y-81.874 Z-3.32
X-60.956 Y-81.9 Z-3.38
X-60.92 Y-81.936 Z-3.431
X-60.877 Y-81.979 Z-3.469
X-60.83 Y-82.026 Z-3.492
X-60.78 Y-82.076 Z-3.5
X-60.555 Y-82.3
G2 X-60.463 Y-82.525 I-0.225 J-0.225
G1 Y-88.938
X-73.287
Y-76.113
X-60.463
Y-82.525
G2 X-60.555 Y-82.75 I-0.317 J0
G1 X-60.78 Y-82.974
X-60.83 Y-83.024 Z-3.492
X-60.877 Y-83.071 Z-3.469
X-60.92 Y-83.114 Z-3.431
X-60.956 Y-83.15 Z-3.38
X-60.982 Y-83.176 Z-3.32
X-60.999 Y-83.193 Z-3.253
X-61.005 Y-83.199 Z-3.183
G0 Z5.08
X-42.005 Y-81.851
G1 Z1 F762
Z-3.183
X-41.999 Y-81.857 Z-3.253
X-41.982 Y-81.874 Z-3.32
X-41.956 Y-81.9 Z-3.38
X-41.92 Y-81.936 Z-3.431
X-41.877 Y-81.979 Z-3.469
X-41.83 Y-82.026 Z-3.492
X-41.78 Y-82.076 Z-3.5
X-41.555 Y-82.3
G2 X-41.463 Y-82.525 I-0.225 J-0.225
G1 Y-88.938
X-54.287
Y-76.113
X-41.463
Y-82.525
G2 X-41.555 Y-82.75 I-0.317 J0
G1 X-41.78 Y-82.974
X-41.83 Y-83.024 Z-3.492
X-41.877 Y-83.071 Z-3.469
X-41.92 Y-83.114 Z-3.431
X-41.956 Y-83.15 Z-3.38
X-41.982 Y-83.176 Z-3.32
X-41.999 Y-83.193 Z-3.253
X-42.005 Y-83.199 Z-3.183
G0 Z5.08
X-23.005 Y-81.851
G1 Z1 F762
Z-3.183
X-22.999 Y-81.857 Z-3.253
X-22.982 Y-81.874 Z-3.32
X-22.956 Y-81.9 Z-3.38
X-22.92 Y-81.936 Z-3.431
X-22.877 Y-81.979 Z-3.469
X-22.83 Y-82.026 Z-3.492
X-22.78 Y-82.076 Z-3.5
X-22.555 Y-82.3
G2 X-22.462 Y-82.525 I-0.225 J-0.225
G1 Y-88.938
X-35.287
Y-76.113
X-22.462
Y-82.525
G2 X-22.555 Y-82.75 I-0.318 J0
G1 X-22.78 Y-82.974
X-22.83 Y-83.024 Z-3.492
X-22.877 Y-83.071 Z-3.469
X-22.92 Y-83.114 Z-3.431
X-22.956 Y-83.15 Z-3.38
X-22.982 Y-83.176 Z-3.32
X-22.999 Y-83.193 Z-3.253
X-23.005 Y-83.199 Z-3.183
G0 Z5.08
Y-100.851
G1 Z1 F762
Z-3.183
X-22.999 Y-100.857 Z-3.253
X-22.982 Y-100.874 Z-3.32
X-22.956 Y-100.9 Z-3.38
X-22.92 Y-100.936 Z-3.431
X-22.877 Y-100.979 Z-3.469
X-22.83 Y-101.026 Z-3.492
X-22.78 Y-101.076 Z-3.5
X-22.555 Y-101.3
G2 X-22.462 Y-101.525 I-0.225 J-0.225
G1 Y-107.938
X-35.287
Y-95.113
X-22.462
Y-101.525
G2 X-22.555 Y-101.75 I-0.318 J0
G1 X-22.78 Y-101.974
X-22.83 Y-102.024 Z-3.492
X-22.877 Y-102.071 Z-3.469
X-22.92 Y-102.114 Z-3.431
X-22.956 Y-102.15 Z-3.38
X-22.982 Y-102.176 Z-3.32
X-22.999 Y-102.193 Z-3.253
X-23.005 Y-102.199 Z-3.183
G0 Z5.08
Y-119.851
G1 Z1 F762
Z-3.183
X-22.999 Y-119.857 Z-3.253
X-22.982 Y-119.874 Z-3.32
X-22.956 Y-119.9 Z-3.38
X-22.92 Y-119.936 Z-3.431
X-22.877 Y-119.979 Z-3.469
X-22.83 Y-120.026 Z-3.492
X-22.78 Y-120.076 Z-3.5
X-22.555 Y-120.3
G2 X-22.462 Y-120.525 I-0.225 J-0.225
G1 Y-126.938
X-35.287
Y-114.113
X-22.462
Y-120.525
G2 X-22.555 Y-120.75 I-0.318 J0
G1 X-22.78 Y-120.974
X-22.83 Y-121.024 Z-3.492
X-22.877 Y-121.071 Z-3.469
X-22.92 Y-121.114 Z-3.431
X-22.956 Y-121.15 Z-3.38
X-22.982 Y-121.176 Z-3.32
X-22.999 Y-121.193 Z-3.253
X-23.005 Y-121.199 Z-3.183
G0 Z5.08
X-42.005 Y-119.851
G1 Z1 F762
Z-3.183
X-41.999 Y-119.857 Z-3.253
X-41.982 Y-119.874 Z-3.32
X-41.956 Y-119.9 Z-3.38
X-41.92 Y-119.936 Z-3.431
X-41.877 Y-119.979 Z-3.469
X-41.83 Y-120.026 Z-3.492
X-41.78 Y-120.076 Z-3.5
X-41.555 Y-120.3
G2 X-41.463 Y-120.525 I-0.225 J-0.225
G1 Y-126.938
X-54.287
Y-114.113
X-41.463
Y-120.525
G2 X-41.555 Y-120.75 I-0.317 J0
G1 X-41.78 Y-120.974
X-41.83 Y-121.024 Z-3.492
X-41.877 Y-121.071 Z-3.469
X-41.92 Y-121.114 Z-3.431
X-41.956 Y-121.15 Z-3.38
X-41.982 Y-121.176 Z-3.32
X-41.999 Y-121.193 Z-3.253
X-42.005 Y-121.199 Z-3.183
G0 Z5.08
Y-100.851
G1 Z1 F762
Z-3.183
X-41.999 Y-100.857 Z-3.253
X-41.982 Y-100.874 Z-3.32
X-41.956 Y-100.9 Z-3.38
X-41.92 Y-100.936 Z-3.431
X-41.877 Y-100.979 Z-3.469
X-41.83 Y-101.026 Z-3.492
X-41.78 Y-101.076 Z-3.5
X-41.555 Y-101.3
G2 X-41.463 Y-101.525 I-0.225 J-0.225
G1 Y-107.938
X-54.287
Y-95.113
X-41.463
Y-101.525
G2 X-41.555 Y-101.75 I-0.317 J0
G1 X-41.78 Y-101.974
X-41.83 Y-102.024 Z-3.492
X-41.877 Y-102.071 Z-3.469
X-41.92 Y-102.114 Z-3.431
X-41.956 Y-102.15 Z-3.38
X-41.982 Y-102.176 Z-3.32
X-41.999 Y-102.193 Z-3.253
X-42.005 Y-102.199 Z-3.183
G0 Z5.08
X-61.005 Y-100.851
G1 Z1 F762
Z-3.183
X-60.999 Y-100.857 Z-3.253
X-60.982 Y-100.874 Z-3.32
X-60.956 Y-100.9 Z-3.38
X-60.92 Y-100.936 Z-3.431
X-60.877 Y-100.979 Z-3.469
X-60.83 Y-101.026 Z-3.492
X-60.78 Y-101.076 Z-3.5
X-60.555 Y-101.3
G2 X-60.463 Y-101.525 I-0.225 J-0.225
G1 Y-107.938
X-73.287
Y-95.113
X-60.463
Y-101.525
G2 X-60.555 Y-101.75 I-0.317 J0
G1 X-60.78 Y-101.974
X-60.83 Y-102.024 Z-3.492
X-60.877 Y-102.071 Z-3.469
X-60.92 Y-102.114 Z-3.431
X-60.956 Y-102.15 Z-3.38
X-60.982 Y-102.176 Z-3.32
X-60.999 Y-102.193 Z-3.253
X-61.005 Y-102.199 Z-3.183
G0 Z5.08
Y-119.851
G1 Z1 F762
Z-3.183
X-60.999 Y-119.857 Z-3.253
X-60.982 Y-119.874 Z-3.32
X-60.956 Y-119.9 Z-3.38
X-60.92 Y-119.936 Z-3.431
X-60.877 Y-119.979 Z-3.469
X-60.83 Y-120.026 Z-3.492
X-60.78 Y-120.076 Z-3.5
X-60.555 Y-120.3
G2 X-60.463 Y-120.525 I-0.225 J-0.225
G1 Y-126.938
X-73.287
Y-114.113
X-60.463
Y-120.525
G2 X-60.555 Y-120.75 I-0.317 J0
G1 X-60.78 Y-120.974
X-60.83 Y-121.024 Z-3.492
X-60.877 Y-121.071 Z-3.469
X-60.92 Y-121.114 Z-3.431
X-60.956 Y-121.15 Z-3.38
X-60.982 Y-121.176 Z-3.32
X-60.999 Y-121.193 Z-3.253
X-61.005 Y-121.199 Z-3.183
G0 Z5.08
X-80.005 Y-119.851
G1 Z1 F762
Z-3.183
X-79.999 Y-119.857 Z-3.253
X-79.982 Y-119.874 Z-3.32
X-79.956 Y-119.9 Z-3.38
X-79.92 Y-119.936 Z-3.431
X-79.877 Y-119.979 Z-3.469
X-79.83 Y-120.026 Z-3.492
X-79.78 Y-120.076 Z-3.5
X-79.555 Y-120.3
G2 X-79.463 Y-120.525 I-0.225 J-0.225
G1 Y-126.938
X-92.287
Y-114.113
X-79.463
Y-120.525
G2 X-79.555 Y-120.75 I-0.317 J0
G1 X-79.78 Y-120.974
X-79.83 Y-121.024 Z-3.492
X-79.877 Y-121.071 Z-3.469
X-79.92 Y-121.114 Z-3.431
X-79.956 Y-121.15 Z-3.38
X-79.982 Y-121.176 Z-3.32
X-79.999 Y-121.193 Z-3.253
X-80.005 Y-121.199 Z-3.183
G0 Z5.08
Y-100.851
G1 Z1 F762
Z-3.183
X-79.999 Y-100.857 Z-3.253
X-79.982 Y-100.874 Z-3.32
X-79.956 Y-100.9 Z-3.38
X-79.92 Y-100.936 Z-3.431
X-79.877 Y-100.979 Z-3.469
X-79.83 Y-101.026 Z-3.492
X-79.78 Y-101.076 Z-3.5
X-79.555 Y-101.3
G2 X-79.463 Y-101.525 I-0.225 J-0.225
G1 Y-107.938
X-92.287
Y-95.113
X-79.463
Y-101.525
G2 X-79.555 Y-101.75 I-0.317 J0
G1 X-79.78 Y-101.974
X-79.83 Y-102.024 Z-3.492
X-79.877 Y-102.071 Z-3.469
X-79.92 Y-102.114 Z-3.431
X-79.956 Y-102.15 Z-3.38
X-79.982 Y-102.176 Z-3.32
X-79.999 Y-102.193 Z-3.253
X-80.005 Y-102.199 Z-3.183
G0 Z5.08
Y-81.851
G1 Z1 F762
Z-3.183
X-79.999 Y-81.857 Z-3.253
X-79.982 Y-81.874 Z-3.32
X-79.956 Y-81.9 Z-3.38
X-79.92 Y-81.936 Z-3.431
X-79.877 Y-81.979 Z-3.469
X-79.83 Y-82.026 Z-3.492
X-79.78 Y-82.076 Z-3.5
X-79.555 Y-82.3
G2 X-79.463 Y-82.525 I-0.225 J-0.225
G1 Y-88.938
X-92.287
Y-76.113
X-79.463
Y-82.525
G2 X-79.555 Y-82.75 I-0.317 J0
G1 X-79.78 Y-82.974
X-79.83 Y-83.024 Z-3.492
X-79.877 Y-83.071 Z-3.469
X-79.92 Y-83.114 Z-3.431
X-79.956 Y-83.15 Z-3.38
X-79.982 Y-83.176 Z-3.32
X-79.999 Y-83.193 Z-3.253
X-80.005 Y-83.199 Z-3.183
G0 Z5.08
Y-62.851
G1 Z1 F762
Z-3.183
X-79.999 Y-62.857 Z-3.253
X-79.982 Y-62.874 Z-3.32
X-79.956 Y-62.9 Z-3.38
X-79.92 Y-62.936 Z-3.431
X-79.877 Y-62.979 Z-3.469
X-79.83 Y-63.026 Z-3.492
X-79.78 Y-63.076 Z-3.5
X-79.555 Y-63.3
G2 X-79.463 Y-63.525 I-0.225 J-0.225
G1 Y-69.938
X-92.287
Y-57.112
X-79.463
Y-63.525
G2 X-79.555 Y-63.75 I-0.317 J0
G1 X-79.78 Y-63.974
X-79.83 Y-64.024 Z-3.492
X-79.877 Y-64.071 Z-3.469
X-79.92 Y-64.114 Z-3.431
X-79.956 Y-64.15 Z-3.38
X-79.982 Y-64.176 Z-3.32
X-79.999 Y-64.193 Z-3.253
X-80.005 Y-64.199 Z-3.183
G0 Z5.08
X-61.005 Y-62.851
G1 Z1 F762
Z-3.183
X-60.999 Y-62.857 Z-3.253
X-60.982 Y-62.874 Z-3.32
X-60.956 Y-62.9 Z-3.38
X-60.92 Y-62.936 Z-3.431
X-60.877 Y-62.979 Z-3.469
X-60.83 Y-63.026 Z-3.492
X-60.78 Y-63.076 Z-3.5
X-60.555 Y-63.3
G2 X-60.463 Y-63.525 I-0.225 J-0.225
G1 Y-69.938
X-73.287
Y-57.112
X-60.463
Y-63.525
G2 X-60.555 Y-63.75 I-0.317 J0
G1 X-60.78 Y-63.974
X-60.83 Y-64.024 Z-3.492
X-60.877 Y-64.071 Z-3.469
X-60.92 Y-64.114 Z-3.431
X-60.956 Y-64.15 Z-3.38
X-60.982 Y-64.176 Z-3.32
X-60.999 Y-64.193 Z-3.253
X-61.005 Y-64.199 Z-3.183
G0 Z5.08
X-42.005 Y-62.851
G1 Z1 F762
Z-3.183
X-41.999 Y-62.857 Z-3.253
X-41.982 Y-62.874 Z-3.32
X-41.956 Y-62.9 Z-3.38
X-41.92 Y-62.936 Z-3.431
X-41.877 Y-62.979 Z-3.469
X-41.83 Y-63.026 Z-3.492
X-41.78 Y-63.076 Z-3.5
X-41.555 Y-63.3
G2 X-41.463 Y-63.525 I-0.225 J-0.225
G1 Y-69.938
X-54.287
Y-57.112
X-41.463
Y-63.525
G2 X-41.555 Y-63.75 I-0.317 J0
G1 X-41.78 Y-63.974
X-41.83 Y-64.024 Z-3.492
X-41.877 Y-64.071 Z-3.469
X-41.92 Y-64.114 Z-3.431
X-41.956 Y-64.15 Z-3.38
X-41.982 Y-64.176 Z-3.32
X-41.999 Y-64.193 Z-3.253
X-42.005 Y-64.199 Z-3.183
G0 Z5.08
X-23.005 Y-62.851
G1 Z1 F762
Z-3.183
X-22.999 Y-62.857 Z-3.253
X-22.982 Y-62.874 Z-3.32
X-22.956 Y-62.9 Z-3.38
X-22.92 Y-62.936 Z-3.431
X-22.877 Y-62.979 Z-3.469
X-22.83 Y-63.026 Z-3.492
X-22.78 Y-63.076 Z-3.5
X-22.555 Y-63.3
G2 X-22.462 Y-63.525 I-0.225 J-0.225
G1 Y-69.938
X-35.287
Y-57.112
X-22.462
Y-63.525
G2 X-22.555 Y-63.75 I-0.318 J0
G1 X-22.78 Y-63.974
X-22.83 Y-64.024 Z-3.492
X-22.877 Y-64.071 Z-3.469
X-22.92 Y-64.114 Z-3.431
X-22.956 Y-64.15 Z-3.38
X-22.982 Y-64.176 Z-3.32
X-22.999 Y-64.193 Z-3.253
X-23.005 Y-64.199 Z-3.183
G0 Z5.08
Y-43.851
G1 Z1 F762
Z-3.183
X-22.999 Y-43.857 Z-3.253
X-22.982 Y-43.874 Z-3.32
X-22.956 Y-43.9 Z-3.38
X-22.92 Y-43.936 Z-3.431
X-22.877 Y-43.979 Z-3.469
X-22.83 Y-44.026 Z-3.492
X-22.78 Y-44.076 Z-3.5
X-22.555 Y-44.3
G2 X-22.462 Y-44.525 I-0.225 J-0.225
G1 Y-50.938
X-35.287
Y-38.112
X-22.462
Y-44.525
G2 X-22.555 Y-44.75 I-0.318 J0
G1 X-22.78 Y-44.974
X-22.83 Y-45.024 Z-3.492
X-22.877 Y-45.071 Z-3.469
X-22.92 Y-45.114 Z-3.431
X-22.956 Y-45.15 Z-3.38
X-22.982 Y-45.176 Z-3.32
X-22.999 Y-45.193 Z-3.253
X-23.005 Y-45.199 Z-3.183
G0 Z5.08
Y-24.851
G1 Z1 F762
Z-3.183
X-22.999 Y-24.857 Z-3.253
X-22.982 Y-24.874 Z-3.32
X-22.956 Y-24.9 Z-3.38
X-22.92 Y-24.936 Z-3.431
X-22.877 Y-24.979 Z-3.469
X-22.83 Y-25.026 Z-3.492
X-22.78 Y-25.076 Z-3.5
X-22.555 Y-25.3
G2 X-22.462 Y-25.525 I-0.225 J-0.225
G1 Y-31.938
X-35.287
Y-19.112
X-22.462
Y-25.525
G2 X-22.555 Y-25.75 I-0.318 J0
G1 X-22.78 Y-25.974
X-22.83 Y-26.024 Z-3.492
X-22.877 Y-26.071 Z-3.469
X-22.92 Y-26.114 Z-3.431
X-22.956 Y-26.15 Z-3.38
X-22.982 Y-26.176 Z-3.32
X-22.999 Y-26.193 Z-3.253
X-23.005 Y-26.199 Z-3.183
G0 Z5.08
X-42.005 Y-24.851
G1 Z1 F762
Z-3.183
X-41.999 Y-24.857 Z-3.253
X-41.982 Y-24.874 Z-3.32
X-41.956 Y-24.9 Z-3.38
X-41.92 Y-24.936 Z-3.431
X-41.877 Y-24.979 Z-3.469
X-41.83 Y-25.026 Z-3.492
X-41.78 Y-25.076 Z-3.5
X-41.555 Y-25.3
G2 X-41.463 Y-25.525 I-0.225 J-0.225
G1 Y-31.938
X-54.287
Y-19.112
X-41.463
Y-25.525
G2 X-41.555 Y-25.75 I-0.317 J0
G1 X-41.78 Y-25.974
X-41.83 Y-26.024 Z-3.492
X-41.877 Y-26.071 Z-3.469
X-41.92 Y-26.114 Z-3.431
X-41.956 Y-26.15 Z-3.38
X-41.982 Y-26.176 Z-3.32
X-41.999 Y-26.193 Z-3.253
X-42.005 Y-26.199 Z-3.183
G0 Z5.08
Y-43.851
G1 Z1 F762
Z-3.183
X-41.999 Y-43.857 Z-3.253
X-41.982 Y-43.874 Z-3.32
X-41.956 Y-43.9 Z-3.38
X-41.92 Y-43.936 Z-3.431
X-41.877 Y-43.979 Z-3.469
X-41.83 Y-44.026 Z-3.492
X-41.78 Y-44.076 Z-3.5
X-41.555 Y-44.3
G2 X-41.463 Y-44.525 I-0.225 J-0.225
G1 Y-50.938
X-54.287
Y-38.112
X-41.463
Y-44.525
G2 X-41.555 Y-44.75 I-0.317 J0
G1 X-41.78 Y-44.974
X-41.83 Y-45.024 Z-3.492
X-41.877 Y-45.071 Z-3.469
X-41.92 Y-45.114 Z-3.431
X-41.956 Y-45.15 Z-3.38
X-41.982 Y-45.176 Z-3.32
X-41.999 Y-45.193 Z-3.253
X-42.005 Y-45.199 Z-3.183
G0 Z5.08
X-61.005 Y-43.851
G1 Z1 F762
Z-3.183
X-60.999 Y-43.857 Z-3.253
X-60.982 Y-43.874 Z-3.32
X-60.956 Y-43.9 Z-3.38
X-60.92 Y-43.936 Z-3.431
X-60.877 Y-43.979 Z-3.469
X-60.83 Y-44.026 Z-3.492
X-60.78 Y-44.076 Z-3.5
X-60.555 Y-44.3
G2 X-60.463 Y-44.525 I-0.225 J-0.225
G1 Y-50.938
X-73.287
Y-38.112
X-60.463
Y-44.525
G2 X-60.555 Y-44.75 I-0.317 J0
G1 X-60.78 Y-44.974
X-60.83 Y-45.024 Z-3.492
X-60.877 Y-45.071 Z-3.469
X-60.92 Y-45.114 Z-3.431
X-60.956 Y-45.15 Z-3.38
X-60.982 Y-45.176 Z-3.32
X-60.999 Y-45.193 Z-3.253
X-61.005 Y-45.199 Z-3.183
G0 Z5.08
Y-24.851
G1 Z1 F762
Z-3.183
X-60.999 Y-24.857 Z-3.253
X-60.982 Y-24.874 Z-3.32
X-60.956 Y-24.9 Z-3.38
X-60.92 Y-24.936 Z-3.431
X-60.877 Y-24.979 Z-3.469
X-60.83 Y-25.026 Z-3.492
X-60.78 Y-25.076 Z-3.5
X-60.555 Y-25.3
G2 X-60.463 Y-25.525 I-0.225 J-0.225
G1 Y-31.938
X-73.287
Y-19.112
X-60.463
Y-25.525
G2 X-60.555 Y-25.75 I-0.317 J0
G1 X-60.78 Y-25.974
X-60.83 Y-26.024 Z-3.492
X-60.877 Y-26.071 Z-3.469
X-60.92 Y-26.114 Z-3.431
X-60.956 Y-26.15 Z-3.38
X-60.982 Y-26.176 Z-3.32
X-60.999 Y-26.193 Z-3.253
X-61.005 Y-26.199 Z-3.183
G0 Z5.08
X-80.005 Y-24.851
G1 Z1 F762
Z-3.183
X-79.999 Y-24.857 Z-3.253
X-79.982 Y-24.874 Z-3.32
X-79.956 Y-24.9 Z-3.38
X-79.92 Y-24.936 Z-3.431
X-79.877 Y-24.979 Z-3.469
X-79.83 Y-25.026 Z-3.492
X-79.78 Y-25.076 Z-3.5
X-79.555 Y-25.3
G2 X-79.463 Y-25.525 I-0.225 J-0.225
G1 Y-31.938
X-92.287
Y-19.112
X-79.463
Y-25.525
G2 X-79.555 Y-25.75 I-0.317 J0
G1 X-79.78 Y-25.974
X-79.83 Y-26.024 Z-3.492
X-79.877 Y-26.071 Z-3.469
X-79.92 Y-26.114 Z-3.431
X-79.956 Y-26.15 Z-3.38
X-79.982 Y-26.176 Z-3.32
X-79.999 Y-26.193 Z-3.253
X-80.005 Y-26.199 Z-3.183
G0 Z5.08
Y-43.851
G1 Z1 F762
Z-3.183
X-79.999 Y-43.857 Z-3.253
X-79.982 Y-43.874 Z-3.32
X-79.956 Y-43.9 Z-3.38
X-79.92 Y-43.936 Z-3.431
X-79.877 Y-43.979 Z-3.469
X-79.83 Y-44.026 Z-3.492
X-79.78 Y-44.076 Z-3.5
X-79.555 Y-44.3
G2 X-79.463 Y-44.525 I-0.225 J-0.225
G1 Y-50.938
X-92.287
Y-38.112
X-79.463
Y-44.525
G2 X-79.555 Y-44.75 I-0.317 J0
G1 X-79.78 Y-44.974
X-79.83 Y-45.024 Z-3.492
X-79.877 Y-45.071 Z-3.469
X-79.92 Y-45.114 Z-3.431
X-79.956 Y-45.15 Z-3.38
X-79.982 Y-45.176 Z-3.32
X-79.999 Y-45.193 Z-3.253
X-80.005 Y-45.199 Z-3.183
G0 Z15.24

(2D Pocket1 2)
M7
X-64.858 Y-81.738
Z11.16
Z-2.182
G1 Z-2.183 F2032
X-64.846 Y-81.757 Z-2.302 F762
X-64.814 Y-81.815 Z-2.403
X-64.77 Y-81.904 Z-2.473
X-64.726 Y-82.013 Z-2.5
G2 X-67.563 Y-83.037 Z-2.665 I-1.419 J-0.512
X-64.726 Y-82.013 Z-2.831 I1.419 J0.512
X-67.563 Y-83.037 Z-2.996 I-1.419 J-0.512
X-64.726 Y-82.013 Z-3.162 I1.419 J0.512
X-67.563 Y-83.037 Z-3.327 I-1.419 J-0.512
X-64.726 Y-82.013 Z-3.493 I1.419 J0.512
X-67.563 Y-83.037 Z-3.658 I-1.419 J-0.512
X-64.726 Y-82.013 Z-3.824 I1.419 J0.512
X-67.563 Y-83.037 Z-3.989 I-1.419 J-0.512
X-64.726 Y-82.013 Z-4.155 I1.419 J0.512
X-67.563 Y-83.037 Z-4.32 I-1.419 J-0.512
X-64.726 Y-82.013 Z-4.485 I1.419 J0.512
X-67.563 Y-83.037 Z-4.651 I-1.419 J-0.512
X-64.726 Y-82.013 Z-4.816 I1.419 J0.512
X-67.563 Y-83.037 Z-4.982 I-1.419 J-0.512
X-67.653 Y-82.525 Z-5 I1.419 J0.512
G1 Y-82.072 F2032
G2 X-67.328 Y-81.747 I0.324 J0
G1 X-66.422
G2 X-66.097 Y-82.072 I0 J-0.324
G1 Y-82.978
G2 X-66.422 Y-83.303 I-0.324 J0
G1 X-67.332
G2 X-67.653 Y-82.982 I0 J0.32
G1 Y-82.525
G3 X-68.263 Y-81.392 I-1.357 J0
G2 X-67.894 Y-80.158 I0.37 J0.561
G1 X-64.833
G2 X-64.508 Y-80.483 I0 J-0.324
G1 Y-84.567
G2 X-64.833 Y-84.892 I-0.324 J0
G1 X-68.921
G2 X-69.242 Y-84.571 I0 J0.32
G1 Y-80.483
G2 X-68.917 Y-80.158 I0.324 J0
G1 X-67.894
G3 X-65.984 Y-78.885 I0 J2.068
G2 X-64.075 Y-77.613 I1.909 J-0.796
G1 X-61.963
Y-87.438
X-71.787
Y-77.613
X-64.075
G2 X-63.957 Y-77.635 Z-4.976 I0 J-0.317
X-63.869 Y-77.689 Z-4.907 I-0.119 J-0.295
X-63.822 Y-77.739 Z-4.804 I-0.206 J-0.241
G1 X-63.808 Y-77.758 Z-4.683
G0 Z1
X-49.892 Y-83.312
Z-2.182
G1 Z-2.183 F2032
X-49.904 Y-83.293 Z-2.302 F762
X-49.936 Y-83.235 Z-2.403
X-49.98 Y-83.146 Z-2.473
X-50.024 Y-83.037 Z-2.5
G2 X-47.187 Y-82.013 Z-2.665 I1.419 J0.512
X-50.024 Y-83.037 Z-2.831 I-1.419 J-0.512
X-47.187 Y-82.013 Z-2.996 I1.419 J0.512
X-50.024 Y-83.037 Z-3.162 I-1.419 J-0.512
X-47.187 Y-82.013 Z-3.327 I1.419 J0.512
X-50.024 Y-83.037 Z-3.493 I-1.419 J-0.512
X-47.187 Y-82.013 Z-3.658 I1.419 J0.512
X-50.024 Y-83.037 Z-3.824 I-1.419 J-0.512
X-47.187 Y-82.013 Z-3.989 I1.419 J0.512
X-50.024 Y-83.037 Z-4.155 I-1.419 J-0.512
X-47.187 Y-82.013 Z-4.32 I1.419 J0.512
X-50.024 Y-83.037 Z-4.485 I-1.419 J-0.512
X-47.187 Y-82.013 Z-4.651 I1.419 J0.512
X-50.024 Y-83.037 Z-4.816 I-1.419 J-0.512
X-47.187 Y-82.013 Z-4.982 I1.419 J0.512
X-47.097 Y-82.525 Z-5 I-1.419 J-0.512
G1 Y-82.978 F2032
G2 X-47.422 Y-83.303 I-0.324 J0
G1 X-48.328
G2 X-48.653 Y-82.978 I0 J0.324
G1 Y-82.072
G2 X-48.328 Y-81.747 I0.324 J0
G1 X-47.422
G2 X-47.097 Y-82.072 I0 J-0.324
G1 Y-82.525
G3 X-46.487 Y-83.658 I1.357 J0
G2 X-46.856 Y-84.892 I-0.37 J-0.561
G1 X-49.917
G2 X-50.242 Y-84.567 I0 J0.324
G1 Y-80.483
G2 X-49.917 Y-80.158 I0.324 J0
G1 X-45.833
G2 X-45.508 Y-80.483 I0 J-0.324
G1 Y-84.567
G2 X-45.833 Y-84.892 I-0.324 J0
G1 X-46.856
G3 X-48.766 Y-86.165 I0 J-2.068
G2 X-50.675 Y-87.438 I-1.909 J0.796
G1 X-52.787
Y-77.613
X-42.963
Y-87.438
X-50.675
G2 X-50.793 Y-87.415 Z-4.976 I0 J0.317
X-50.881 Y-87.361 Z-4.907 I0.119 J0.295
X-50.928 Y-87.311 Z-4.804 I0.206 J0.241
G1 X-50.942 Y-87.292 Z-4.683
G0 Z1
X-48.662 Y-99.508
Z-2.182
G1 Z-2.183 F2032
X-48.643 Y-99.496 Z-2.302 F762
X-48.585 Y-99.464 Z-2.403
X-48.496 Y-99.42 Z-2.473
X-48.387 Y-99.376 Z-2.5
G2 X-47.363 Y-102.213 Z-2.665 I0.512 J-1.419
X-48.387 Y-99.376 Z-2.831 I-0.512 J1.419
X-47.363 Y-102.213 Z-2.996 I0.512 J-1.419
X-48.387 Y-99.376 Z-3.162 I-0.512 J1.419
X-47.363 Y-102.213 Z-3.327 I0.512 J-1.419
X-48.387 Y-99.376 Z-3.493 I-0.512 J1.419
X-47.363 Y-102.213 Z-3.658 I0.512 J-1.419
X-48.387 Y-99.376 Z-3.824 I-0.512 J1.419
X-47.363 Y-102.213 Z-3.989 I0.512 J-1.419
X-48.387 Y-99.376 Z-4.155 I-0.512 J1.419
X-47.363 Y-102.213 Z-4.32 I0.512 J-1.419
X-48.387 Y-99.376 Z-4.485 I-0.512 J1.419
X-47.363 Y-102.213 Z-4.651 I0.512 J-1.419
X-48.387 Y-99.376 Z-4.816 I-0.512 J1.419
X-47.363 Y-102.213 Z-4.982 I0.512 J-1.419
X-47.875 Y-102.303 Z-5 I-0.512 J1.419
G1 X-48.328 F2032
G2 X-48.653 Y-101.978 I0 J0.324
G1 Y-101.072
G2 X-48.328 Y-100.747 I0.324 J0
G1 X-47.422
G2 X-47.097 Y-101.072 I0 J-0.324
G1 Y-101.978
G2 X-47.422 Y-102.303 I-0.324 J0
G1 X-47.875
G3 X-49.008 Y-102.913 I0 J-1.357
G2 X-50.242 Y-102.544 I-0.561 J0.37
G1 Y-99.483
G2 X-49.917 Y-99.158 I0.324 J0
G1 X-45.833
G2 X-45.508 Y-99.483 I0 J-0.324
G1 Y-103.567
G2 X-45.833 Y-103.892 I-0.324 J0
G1 X-49.917
G2 X-50.242 Y-103.567 I0 J0.324
G1 Y-102.544
G3 X-51.515 Y-100.634 I-2.068 J0
G2 X-52.787 Y-98.725 I0.796 J1.909
G1 Y-96.613
X-42.963
Y-106.438
X-52.787
Y-98.725
G2 X-52.765 Y-98.607 Z-4.976 I0.317 J0
X-52.711 Y-98.519 Z-4.907 I0.295 J-0.119
X-52.661 Y-98.472 Z-4.804 I0.241 J-0.206
G1 X-52.642 Y-98.458 Z-4.683
G0 Z1
X-67.662 Y-99.508
Z-2.182
G1 Z-2.183 F2032
X-67.643 Y-99.496 Z-2.302 F762
X-67.585 Y-99.464 Z-2.403
X-67.496 Y-99.42 Z-2.473
X-67.387 Y-99.376 Z-2.5
G2 X-66.363 Y-102.213 Z-2.665 I0.512 J-1.419
X-67.387 Y-99.376 Z-2.831 I-0.512 J1.419
X-66.363 Y-102.213 Z-2.996 I0.512 J-1.419
X-67.387 Y-99.376 Z-3.162 I-0.512 J1.419
X-66.363 Y-102.213 Z-3.327 I0.512 J-1.419
X-67.387 Y-99.376 Z-3.493 I-0.512 J1.419
X-66.363 Y-102.213 Z-3.658 I0.512 J-1.419
X-67.387 Y-99.376 Z-3.824 I-0.512 J1.419
X-66.363 Y-102.213 Z-3.989 I0.512 J-1.419
X-67.387 Y-99.376 Z-4.155 I-0.512 J1.419
X-66.363 Y-102.213 Z-4.32 I0.512 J-1.419
X-67.387 Y-99.376 Z-4.485 I-0.512 J1.419
X-66.363 Y-102.213 Z-4.651 I0.512 J-1.419
X-67.387 Y-99.376 Z-4.816 I-0.512 J1.419
X-66.363 Y-102.213 Z-4.982 I0.512 J-1.419
X-66.875 Y-102.303 Z-5 I-0.512 J1.419
G1 X-67.328 F2032
G2 X-67.653 Y-101.978 I0 J0.324
G1 Y-101.072
G2 X-67.328 Y-100.747 I0.324 J0
G1 X-66.422
G2 X-66.097 Y-101.072 I0 J-0.324
G1 Y-101.978
G2 X-66.422 Y-102.303 I-0.324 J0
G1 X-66.875
G3 X-68.008 Y-102.913 I0 J-1.357
G2 X-69.242 Y-102.544 I-0.561 J0.37
G1 Y-99.483
G2 X-68.917 Y-99.158 I0.324 J0
G1 X-64.833
G2 X-64.508 Y-99.483 I0 J-0.324
G1 Y-103.567
G2 X-64.833 Y-103.892 I-0.324 J0
G1 X-68.917
G2 X-69.242 Y-103.567 I0 J0.324
G1 Y-102.544
G3 X-70.515 Y-100.634 I-2.068 J0
G2 X-71.787 Y-98.725 I0.796 J1.909
G1 Y-96.613
X-61.963
Y-106.438
X-71.787
Y-98.725
G2 X-71.765 Y-98.607 Z-4.976 I0.317 J0
X-71.711 Y-98.519 Z-4.907 I0.295 J-0.119
X-71.661 Y-98.472 Z-4.804 I0.241 J-0.206
G1 X-71.642 Y-98.458 Z-4.683
G0 Z1
X-83.858 Y-100.738
Z-2.182
G1 Z-2.183 F2032
X-83.846 Y-100.757 Z-2.302 F762
X-83.814 Y-100.815 Z-2.403
X-83.77 Y-100.904 Z-2.473
X-83.726 Y-101.013 Z-2.5
G2 X-86.563 Y-102.037 Z-2.665 I-1.419 J-0.512
X-83.726 Y-101.013 Z-2.831 I1.419 J0.512
X-86.563 Y-102.037 Z-2.996 I-1.419 J-0.512
X-83.726 Y-101.013 Z-3.162 I1.419 J0.512
X-86.563 Y-102.037 Z-3.327 I-1.419 J-0.512
X-83.726 Y-101.013 Z-3.493 I1.419 J0.512
X-86.563 Y-102.037 Z-3.658 I-1.419 J-0.512
X-83.726 Y-101.013 Z-3.824 I1.419 J0.512
X-86.563 Y-102.037 Z-3.989 I-1.419 J-0.512
X-83.726 Y-101.013 Z-4.155 I1.419 J0.512
X-86.563 Y-102.037 Z-4.32 I-1.419 J-0.512
X-83.726 Y-101.013 Z-4.485 I1.419 J0.512
X-86.563 Y-102.037 Z-4.651 I-1.419 J-0.512
X-83.726 Y-101.013 Z-4.816 I1.419 J0.512
X-86.563 Y-102.037 Z-4.982 I-1.419 J-0.512
X-86.653 Y-101.525 Z-5 I1.419 J0.512
G1 Y-101.072 F2032
G2 X-86.328 Y-100.747 I0.324 J0
G1 X-85.422
G2 X-85.097 Y-101.072 I0 J-0.324
G1 Y-101.978
G2 X-85.422 Y-102.303 I-0.324 J0
G1 X-86.328
G2 X-86.653 Y-101.978 I0 J0.324
G1 Y-101.525
G3 X-87.263 Y-100.392 I-1.357 J0
G2 X-86.894 Y-99.158 I0.37 J0.561
G1 X-83.833
G2 X-83.508 Y-99.483 I0 J-0.324
G1 Y-103.567
G2 X-83.833 Y-103.892 I-0.324 J0
G1 X-87.917
G2 X-88.242 Y-103.567 I0 J0.324
G1 Y-99.483
G2 X-87.917 Y-99.158 I0.324 J0
G1 X-86.894
G3 X-84.984 Y-97.885 I0 J2.068
G2 X-83.075 Y-96.613 I1.909 J-0.796
G1 X-80.963
Y-106.438
X-90.787
Y-96.613
X-83.075
G2 X-82.957 Y-96.635 Z-4.976 I0 J-0.317
X-82.869 Y-96.689 Z-4.907 I-0.119 J-0.295
X-82.822 Y-96.739 Z-4.804 I-0.206 J-0.241
G1 X-82.808 Y-96.758 Z-4.683
G0 Z1
X-86.662 Y-80.508
Z-2.182
G1 Z-2.183 F2032
X-86.643 Y-80.496 Z-2.302 F762
X-86.585 Y-80.464 Z-2.403
X-86.496 Y-80.42 Z-2.473
X-86.387 Y-80.376 Z-2.5
G2 X-85.363 Y-83.213 Z-2.665 I0.512 J-1.419
X-86.387 Y-80.376 Z-2.831 I-0.512 J1.419
X-85.363 Y-83.213 Z-2.996 I0.512 J-1.419
X-86.387 Y-80.376 Z-3.162 I-0.512 J1.419
X-85.363 Y-83.213 Z-3.327 I0.512 J-1.419
X-86.387 Y-80.376 Z-3.493 I-0.512 J1.419
X-85.363 Y-83.213 Z-3.658 I0.512 J-1.419
X-86.387 Y-80.376 Z-3.824 I-0.512 J1.419
X-85.363 Y-83.213 Z-3.989 I0.512 J-1.419
X-86.387 Y-80.376 Z-4.155 I-0.512 J1.419
X-85.363 Y-83.213 Z-4.32 I0.512 J-1.419
X-86.387 Y-80.376 Z-4.485 I-0.512 J1.419
X-85.363 Y-83.213 Z-4.651 I0.512 J-1.419
X-86.387 Y-80.376 Z-4.816 I-0.512 J1.419
X-85.363 Y-83.213 Z-4.982 I0.512 J-1.419
X-85.875 Y-83.303 Z-5 I-0.512 J1.419
G1 X-86.328 F2032
G2 X-86.653 Y-82.978 I0 J0.324
G1 Y-82.072
G2 X-86.328 Y-81.747 I0.324 J0
G1 X-85.422
G2 X-85.097 Y-82.072 I0 J-0.324
G1 Y-82.978
G2 X-85.422 Y-83.303 I-0.324 J0
G1 X-85.875
G3 X-87.008 Y-83.913 I0 J-1.357
G2 X-88.242 Y-83.544 I-0.561 J0.37
G1 Y-80.483
G2 X-87.917 Y-80.158 I0.324 J0
G1 X-83.833
G2 X-83.508 Y-80.483 I0 J-0.324
G1 Y-84.567
G2 X-83.833 Y-84.892 I-0.324 J0
G1 X-87.917
G2 X-88.242 Y-84.567 I0 J0.324
G1 Y-83.544
G3 X-89.515 Y-81.634 I-2.068 J0
G2 X-90.787 Y-79.725 I0.796 J1.909
G1 Y-77.613
X-80.963
Y-87.438
X-90.787
Y-79.725
G2 X-90.765 Y-79.607 Z-4.976 I0.317 J0
X-90.711 Y-79.519 Z-4.907 I0.295 J-0.119
X-90.661 Y-79.472 Z-4.804 I0.241 J-0.206
G1 X-90.642 Y-79.458 Z-4.683
G0 Z1
X-87.892 Y-64.312
Z-2.182
G1 Z-2.183 F2032
X-87.904 Y-64.293 Z-2.302 F762
X-87.936 Y-64.235 Z-2.403
X-87.98 Y-64.146 Z-2.473
X-88.024 Y-64.037 Z-2.5
G2 X-85.187 Y-63.013 Z-2.665 I1.419 J0.512
X-88.024 Y-64.037 Z-2.831 I-1.419 J-0.512
X-85.187 Y-63.013 Z-2.996 I1.419 J0.512
X-88.024 Y-64.037 Z-3.162 I-1.419 J-0.512
X-85.187 Y-63.013 Z-3.327 I1.419 J0.512
X-88.024 Y-64.037 Z-3.493 I-1.419 J-0.512
X-85.187 Y-63.013 Z-3.658 I1.419 J0.512
X-88.024 Y-64.037 Z-3.824 I-1.419 J-0.512
X-85.187 Y-63.013 Z-3.989 I1.419 J0.512
X-88.024 Y-64.037 Z-4.155 I-1.419 J-0.512
X-85.187 Y-63.013 Z-4.32 I1.419 J0.512
X-88.024 Y-64.037 Z-4.485 I-1.419 J-0.512
X-85.187 Y-63.013 Z-4.651 I1.419 J0.512
X-88.024 Y-64.037 Z-4.816 I-1.419 J-0.512
X-85.187 Y-63.013 Z-4.982 I1.419 J0.512
X-85.097 Y-63.525 Z-5 I-1.419 J-0.512
G1 Y-63.978 F2032
G2 X-85.422 Y-64.303 I-0.324 J0
G1 X-86.328
G2 X-86.653 Y-63.978 I0 J0.324
G1 Y-63.072
G2 X-86.328 Y-62.747 I0.324 J0
G1 X-85.422
G2 X-85.097 Y-63.072 I0 J-0.324
G1 Y-63.525
G3 X-84.487 Y-64.658 I1.357 J0
G2 X-84.856 Y-65.892 I-0.37 J-0.561
G1 X-87.917
G2 X-88.242 Y-65.567 I0 J0.324
G1 Y-61.483
G2 X-87.917 Y-61.158 I0.324 J0
G1 X-83.833
G2 X-83.508 Y-61.483 I0 J-0.324
G1 Y-65.567
G2 X-83.833 Y-65.892 I-0.324 J0
G1 X-84.856
G3 X-86.766 Y-67.165 I0 J-2.068
G2 X-88.675 Y-68.438 I-1.909 J0.796
G1 X-90.787
Y-58.612
X-80.963
Y-68.438
X-88.675
G2 X-88.793 Y-68.415 Z-4.976 I0 J0.317
X-88.881 Y-68.361 Z-4.907 I0.119 J0.295
X-88.928 Y-68.311 Z-4.804 I0.206 J0.241
G1 X-88.942 Y-68.292 Z-4.683
G0 Z1
X-85.088 Y-46.542
Z-2.182
G1 Z-2.183 F2032
X-85.107 Y-46.554 Z-2.302 F762
X-85.165 Y-46.586 Z-2.403
X-85.254 Y-46.63 Z-2.473
X-85.363 Y-46.674 Z-2.5
G2 X-86.387 Y-43.837 Z-2.665 I-0.512 J1.419
X-85.363 Y-46.674 Z-2.831 I0.512 J-1.419
X-86.387 Y-43.837 Z-2.996 I-0.512 J1.419
X-85.363 Y-46.674 Z-3.162 I0.512 J-1.419
X-86.387 Y-43.837 Z-3.327 I-0.512 J1.419
X-85.363 Y-46.674 Z-3.493 I0.512 J-1.419
X-86.387 Y-43.837 Z-3.658 I-0.512 J1.419
X-85.363 Y-46.674 Z-3.824 I0.512 J-1.419
X-86.387 Y-43.837 Z-3.989 I-0.512 J1.419
X-85.363 Y-46.674 Z-4.155 I0.512 J-1.419
X-86.387 Y-43.837 Z-4.32 I-0.512 J1.419
X-85.363 Y-46.674 Z-4.485 I0.512 J-1.419
X-86.387 Y-43.837 Z-4.651 I-0.512 J1.419
X-85.363 Y-46.674 Z-4.816 I0.512 J-1.419
X-86.387 Y-43.837 Z-4.982 I-0.512 J1.419
X-85.875 Y-43.747 Z-5 I0.512 J-1.419
G1 X-85.422 F2032
G2 X-85.097 Y-44.072 I0 J-0.324
G1 Y-44.978
G2 X-85.422 Y-45.303 I-0.324 J0
G1 X-86.332
G2 X-86.653 Y-44.982 I0 J0.32
G1 Y-44.072
G2 X-86.328 Y-43.747 I0.324 J0
G1 X-85.875
G3 X-84.742 Y-43.137 I0 J1.357
G2 X-83.508 Y-43.506 I0.561 J-0.37
G1 Y-46.567
G2 X-83.833 Y-46.892 I-0.324 J0
G1 X-87.921
G2 X-88.242 Y-46.571 I0 J0.32
G1 Y-42.483
G2 X-87.917 Y-42.158 I0.324 J0
G1 X-83.833
G2 X-83.508 Y-42.483 I0 J-0.324
G1 Y-43.506
G3 X-82.235 Y-45.416 I2.068 J0
G2 X-80.963 Y-47.325 I-0.796 J-1.909
G1 Y-49.438
X-90.787
Y-39.612
X-80.963
Y-47.325
G2 X-80.985 Y-47.443 Z-4.976 I-0.317 J0
X-81.039 Y-47.531 Z-4.907 I-0.295 J0.119
X-81.089 Y-47.578 Z-4.804 I-0.241 J0.206
G1 X-81.108 Y-47.592 Z-4.683
G0 Z1
X-68.892 Y-45.312
Z-2.182
G1 Z-2.183 F2032
X-68.904 Y-45.293 Z-2.302 F762
X-68.936 Y-45.235 Z-2.403
X-68.98 Y-45.146 Z-2.473
X-69.024 Y-45.037 Z-2.5
G2 X-66.187 Y-44.013 Z-2.665 I1.419 J0.512
X-69.024 Y-45.037 Z-2.831 I-1.419 J-0.512
X-66.187 Y-44.013 Z-2.996 I1.419 J0.512
X-69.024 Y-45.037 Z-3.162 I-1.419 J-0.512
X-66.187 Y-44.013 Z-3.327 I1.419 J0.512
X-69.024 Y-45.037 Z-3.493 I-1.419 J-0.512
X-66.187 Y-44.013 Z-3.658 I1.419 J0.512
X-69.024 Y-45.037 Z-3.824 I-1.419 J-0.512
X-66.187 Y-44.013 Z-3.989 I1.419 J0.512
X-69.024 Y-45.037 Z-4.155 I-1.419 J-0.512
X-66.187 Y-44.013 Z-4.32 I1.419 J0.512
X-69.024 Y-45.037 Z-4.485 I-1.419 J-0.512
X-66.187 Y-44.013 Z-4.651 I1.419 J0.512
X-69.024 Y-45.037 Z-4.816 I-1.419 J-0.512
X-66.187 Y-44.013 Z-4.982 I1.419 J0.512
X-66.097 Y-44.525 Z-5 I-1.419 J-0.512
G1 Y-44.978 F2032
G2 X-66.422 Y-45.303 I-0.324 J0
G1 X-67.328
G2 X-67.653 Y-44.978 I0 J0.324
G1 Y-44.072
G2 X-67.328 Y-43.747 I0.324 J0
G1 X-66.422
G2 X-66.097 Y-44.072 I0 J-0.324
G1 Y-44.525
G3 X-65.487 Y-45.658 I1.357 J0
G2 X-65.856 Y-46.892 I-0.37 J-0.561
G1 X-68.917
G2 X-69.242 Y-46.567 I0 J0.324
G1 Y-42.483
G2 X-68.917 Y-42.158 I0.324 J0
G1 X-64.833
G2 X-64.508 Y-42.483 I0 J-0.324
G1 Y-46.567
G2 X-64.833 Y-46.892 I-0.324 J0
G1 X-65.856
G3 X-67.766 Y-48.165 I0 J-2.068
G2 X-69.675 Y-49.438 I-1.909 J0.796
G1 X-71.787
Y-39.612
X-61.963
Y-49.438
X-69.675
G2 X-69.793 Y-49.415 Z-4.976 I0 J0.318
X-69.881 Y-49.361 Z-4.907 I0.119 J0.295
X-69.928 Y-49.311 Z-4.804 I0.206 J0.241
G1 X-69.942 Y-49.292 Z-4.683
G0 Z1
X-64.858 Y-62.738
Z-2.182
G1 Z-2.183 F2032
X-64.846 Y-62.757 Z-2.302 F762
X-64.814 Y-62.815 Z-2.403
X-64.77 Y-62.904 Z-2.473
X-64.726 Y-63.013 Z-2.5
G2 X-67.563 Y-64.037 Z-2.665 I-1.419 J-0.512
X-64.726 Y-63.013 Z-2.831 I1.419 J0.512
X-67.563 Y-64.037 Z-2.996 I-1.419 J-0.512
X-64.726 Y-63.013 Z-3.162 I1.419 J0.512
X-67.563 Y-64.037 Z-3.327 I-1.419 J-0.512
X-64.726 Y-63.013 Z-3.493 I1.419 J0.512
X-67.563 Y-64.037 Z-3.658 I-1.419 J-0.512
X-64.726 Y-63.013 Z-3.824 I1.419 J0.512
X-67.563 Y-64.037 Z-3.989 I-1.419 J-0.512
X-64.726 Y-63.013 Z-4.155 I1.419 J0.512
X-67.563 Y-64.037 Z-4.32 I-1.419 J-0.512
X-64.726 Y-63.013 Z-4.485 I1.419 J0.512
X-67.563 Y-64.037 Z-4.651 I-1.419 J-0.512
X-64.726 Y-63.013 Z-4.816 I1.419 J0.512
X-67.563 Y-64.037 Z-4.982 I-1.419 J-0.512
X-67.653 Y-63.525 Z-5 I1.419 J0.512
G1 Y-63.072 F2032
G2 X-67.328 Y-62.747 I0.324 J0
G1 X-66.422
G2 X-66.097 Y-63.072 I0 J-0.324
G1 Y-63.978
G2 X-66.422 Y-64.303 I-0.324 J0
G1 X-67.332
G2 X-67.653 Y-63.982 I0 J0.32
G1 Y-63.525
G3 X-68.263 Y-62.392 I-1.357 J0
G2 X-67.894 Y-61.158 I0.37 J0.561
G1 X-64.833
G2 X-64.508 Y-61.483 I0 J-0.324
G1 Y-65.567
G2 X-64.833 Y-65.892 I-0.324 J0
G1 X-68.921
G2 X-69.242 Y-65.571 I0 J0.32
G1 Y-61.483
G2 X-68.917 Y-61.158 I0.324 J0
G1 X-67.894
G3 X-65.984 Y-59.885 I0 J2.068
G2 X-64.075 Y-58.612 I1.909 J-0.796
G1 X-61.963
Y-68.438
X-71.787
Y-58.612
X-64.075
G2 X-63.957 Y-58.635 Z-4.976 I0 J-0.318
X-63.869 Y-58.689 Z-4.907 I-0.119 J-0.295
X-63.822 Y-58.739 Z-4.804 I-0.206 J-0.241
G1 X-63.808 Y-58.758 Z-4.683
G0 Z1
X-48.662 Y-61.508
Z-2.182
G1 Z-2.183 F2032
X-48.643 Y-61.496 Z-2.302 F762
X-48.585 Y-61.464 Z-2.403
X-48.496 Y-61.42 Z-2.473
X-48.387 Y-61.376 Z-2.5
G2 X-47.363 Y-64.213 Z-2.665 I0.512 J-1.419
X-48.387 Y-61.376 Z-2.831 I-0.512 J1.419
X-47.363 Y-64.213 Z-2.996 I0.512 J-1.419
X-48.387 Y-61.376 Z-3.162 I-0.512 J1.419
X-47.363 Y-64.213 Z-3.327 I0.512 J-1.419
X-48.387 Y-61.376 Z-3.493 I-0.512 J1.419
X-47.363 Y-64.213 Z-3.658 I0.512 J-1.419
X-48.387 Y-61.376 Z-3.824 I-0.512 J1.419
X-47.363 Y-64.213 Z-3.989 I0.512 J-1.419
X-48.387 Y-61.376 Z-4.155 I-0.512 J1.419
X-47.363 Y-64.213 Z-4.32 I0.512 J-1.419
X-48.387 Y-61.376 Z-4.485 I-0.512 J1.419
X-47.363 Y-64.213 Z-4.651 I0.512 J-1.419
X-48.387 Y-61.376 Z-4.816 I-0.512 J1.419
X-47.363 Y-64.213 Z-4.982 I0.512 J-1.419
X-47.875 Y-64.303 Z-5 I-0.512 J1.419
G1 X-48.328 F2032
G2 X-48.653 Y-63.978 I0 J0.324
G1 Y-63.072
G2 X-48.328 Y-62.747 I0.324 J0
G1 X-47.422
G2 X-47.097 Y-63.072 I0 J-0.324
G1 Y-63.978
G2 X-47.422 Y-64.303 I-0.324 J0
G1 X-47.875
G3 X-49.008 Y-64.913 I0 J-1.357
G2 X-50.242 Y-64.544 I-0.561 J0.37
G1 Y-61.483
G2 X-49.917 Y-61.158 I0.324 J0
G1 X-45.833
G2 X-45.508 Y-61.483 I0 J-0.324
G1 Y-65.567
G2 X-45.833 Y-65.892 I-0.324 J0
G1 X-49.917
G2 X-50.242 Y-65.567 I0 J0.324
G1 Y-64.544
G3 X-51.515 Y-62.634 I-2.068 J0
G2 X-52.787 Y-60.725 I0.796 J1.909
G1 Y-58.612
X-42.963
Y-68.438
X-52.787
Y-60.725
G2 X-52.765 Y-60.607 Z-4.976 I0.317 J0
X-52.711 Y-60.519 Z-4.907 I0.295 J-0.119
X-52.661 Y-60.472 Z-4.804 I0.241 J-0.206
G1 X-52.642 Y-60.458 Z-4.683
G0 Z1
X-45.858 Y-43.738
Z-2.182
G1 Z-2.183 F2032
X-45.846 Y-43.757 Z-2.302 F762
X-45.814 Y-43.815 Z-2.403
X-45.77 Y-43.904 Z-2.473
X-45.726 Y-44.013 Z-2.5
G2 X-48.563 Y-45.037 Z-2.665 I-1.419 J-0.512
X-45.726 Y-44.013 Z-2.831 I1.419 J0.512
X-48.563 Y-45.037 Z-2.996 I-1.419 J-0.512
X-45.726 Y-44.013 Z-3.162 I1.419 J0.512
X-48.563 Y-45.037 Z-3.327 I-1.419 J-0.512
X-45.726 Y-44.013 Z-3.493 I1.419 J0.512
X-48.563 Y-45.037 Z-3.658 I-1.419 J-0.512
X-45.726 Y-44.013 Z-3.824 I1.419 J0.512
X-48.563 Y-45.037 Z-3.989 I-1.419 J-0.512
X-45.726 Y-44.013 Z-4.155 I1.419 J0.512
X-48.563 Y-45.037 Z-4.32 I-1.419 J-0.512
X-45.726 Y-44.013 Z-4.485 I1.419 J0.512
X-48.563 Y-45.037 Z-4.651 I-1.419 J-0.512
X-45.726 Y-44.013 Z-4.816 I1.419 J0.512
X-48.563 Y-45.037 Z-4.982 I-1.419 J-0.512
X-48.653 Y-44.525 Z-5 I1.419 J0.512
G1 Y-44.072 F2032
G2 X-48.328 Y-43.747 I0.324 J0
G1 X-47.422
G2 X-47.097 Y-44.072 I0 J-0.324
G1 Y-44.978
G2 X-47.422 Y-45.303 I-0.324 J0
G1 X-48.332
G2 X-48.653 Y-44.982 I0 J0.32
G1 Y-44.525
G3 X-49.263 Y-43.392 I-1.357 J0
G2 X-48.894 Y-42.158 I0.37 J0.561
G1 X-45.833
G2 X-45.508 Y-42.483 I0 J-0.324
G1 Y-46.567
G2 X-45.833 Y-46.892 I-0.324 J0
G1 X-49.921
G2 X-50.242 Y-46.571 I0 J0.32
G1 Y-42.483
G2 X-49.917 Y-42.158 I0.324 J0
G1 X-48.894
G3 X-46.984 Y-40.885 I0 J2.068
G2 X-45.075 Y-39.612 I1.909 J-0.796
G1 X-42.963
Y-49.438
X-52.787
Y-39.612
X-45.075
G2 X-44.957 Y-39.635 Z-4.976 I0 J-0.318
X-44.869 Y-39.689 Z-4.907 I-0.119 J-0.295
X-44.822 Y-39.739 Z-4.804 I-0.206 J-0.241
G1 X-44.808 Y-39.758 Z-4.683
G0 Z1
X-48.662 Y-23.508
Z-2.182
G1 Z-2.183 F2032
X-48.643 Y-23.496 Z-2.302 F762
X-48.585 Y-23.464 Z-2.403
X-48.496 Y-23.42 Z-2.473
X-48.387 Y-23.376 Z-2.5
G2 X-47.363 Y-26.213 Z-2.665 I0.512 J-1.419
X-48.387 Y-23.376 Z-2.831 I-0.512 J1.419
X-47.363 Y-26.213 Z-2.996 I0.512 J-1.419
X-48.387 Y-23.376 Z-3.162 I-0.512 J1.419
X-47.363 Y-26.213 Z-3.327 I0.512 J-1.419
X-48.387 Y-23.376 Z-3.493 I-0.512 J1.419
X-47.363 Y-26.213 Z-3.658 I0.512 J-1.419
X-48.387 Y-23.376 Z-3.824 I-0.512 J1.419
X-47.363 Y-26.213 Z-3.989 I0.512 J-1.419
X-48.387 Y-23.376 Z-4.155 I-0.512 J1.419
X-47.363 Y-26.213 Z-4.32 I0.512 J-1.419
X-48.387 Y-23.376 Z-4.485 I-0.512 J1.419
X-47.363 Y-26.213 Z-4.651 I0.512 J-1.419
X-48.387 Y-23.376 Z-4.816 I-0.512 J1.419
X-47.363 Y-26.213 Z-4.982 I0.512 J-1.419
X-47.875 Y-26.303 Z-5 I-0.512 J1.419
G1 X-48.328 F2032
G2 X-48.653 Y-25.978 I0 J0.324
G1 Y-25.072
G2 X-48.328 Y-24.747 I0.324 J0
G1 X-47.422
G2 X-47.097 Y-25.072 I0 J-0.324
G1 Y-25.978
G2 X-47.422 Y-26.303 I-0.324 J0
G1 X-47.875
G3 X-49.008 Y-26.913 I0 J-1.357
G2 X-50.242 Y-26.544 I-0.561 J0.37
G1 Y-23.483
G2 X-49.917 Y-23.158 I0.324 J0
G1 X-45.833
G2 X-45.508 Y-23.483 I0 J-0.324
G1 Y-27.567
G2 X-45.833 Y-27.892 I-0.324 J0
G1 X-49.917
G2 X-50.242 Y-27.567 I0 J0.324
G1 Y-26.544
G3 X-51.515 Y-24.634 I-2.068 J0
G2 X-52.787 Y-22.725 I0.796 J1.909
G1 Y-20.612
X-42.963
Y-30.438
X-52.787
Y-22.725
G2 X-52.765 Y-22.607 Z-4.976 I0.317 J0
X-52.711 Y-22.519 Z-4.907 I0.295 J-0.119
X-52.661 Y-22.472 Z-4.804 I0.241 J-0.206
G1 X-52.642 Y-22.458 Z-4.683
G0 Z1
X-68.892 Y-26.312
Z-2.182
G1 Z-2.183 F2032
X-68.904 Y-26.293 Z-2.302 F762
X-68.936 Y-26.235 Z-2.403
X-68.98 Y-26.146 Z-2.473
X-69.024 Y-26.037 Z-2.5
G2 X-66.187 Y-25.013 Z-2.665 I1.419 J0.512
X-69.024 Y-26.037 Z-2.831 I-1.419 J-0.512
X-66.187 Y-25.013 Z-2.996 I1.419 J0.512
X-69.024 Y-26.037 Z-3.162 I-1.419 J-0.512
X-66.187 Y-25.013 Z-3.327 I1.419 J0.512
X-69.024 Y-26.037 Z-3.493 I-1.419 J-0.512
X-66.187 Y-25.013 Z-3.658 I1.419 J0.512
X-69.024 Y-26.037 Z-3.824 I-1.419 J-0.512
X-66.187 Y-25.013 Z-3.989 I1.419 J0.512
X-69.024 Y-26.037 Z-4.155 I-1.419 J-0.512
X-66.187 Y-25.013 Z-4.32 I1.419 J0.512
X-69.024 Y-26.037 Z-4.485 I-1.419 J-0.512
X-66.187 Y-25.013 Z-4.651 I1.419 J0.512
X-69.024 Y-26.037 Z-4.816 I-1.419 J-0.512
X-66.187 Y-25.013 Z-4.982 I1.419 J0.512
X-66.097 Y-25.525 Z-5 I-1.419 J-0.512
G1 Y-25.978 F2032
G2 X-66.422 Y-26.303 I-0.324 J0
G1 X-67.332
G2 X-67.653 Y-25.982 I0 J0.32
G1 Y-25.072
G2 X-67.328 Y-24.747 I0.324 J0
G1 X-66.422
G2 X-66.097 Y-25.072 I0 J-0.324
G1 Y-25.525
G3 X-65.487 Y-26.658 I1.357 J0
G2 X-65.856 Y-27.892 I-0.37 J-0.561
G1 X-68.921
G2 X-69.242 Y-27.571 I0 J0.32
G1 Y-23.483
G2 X-68.917 Y-23.158 I0.324 J0
G1 X-64.833
G2 X-64.508 Y-23.483 I0 J-0.324
G1 Y-27.567
G2 X-64.833 Y-27.892 I-0.324 J0
G1 X-65.856
G3 X-67.766 Y-29.165 I0 J-2.068
G2 X-69.675 Y-30.438 I-1.909 J0.796
G1 X-71.787
Y-20.612
X-61.963
Y-30.438
X-69.675
G2 X-69.793 Y-30.415 Z-4.976 I0 J0.317
X-69.881 Y-30.361 Z-4.907 I0.119 J0.295
X-69.928 Y-30.311 Z-4.804 I0.206 J0.241
G1 X-69.942 Y-30.292 Z-4.683
G0 Z1
X-87.892 Y-26.312
Z-2.182
G1 Z-2.183 F2032
X-87.904 Y-26.293 Z-2.302 F762
X-87.936 Y-26.235 Z-2.403
X-87.98 Y-26.146 Z-2.473
X-88.024 Y-26.037 Z-2.5
G2 X-85.187 Y-25.013 Z-2.665 I1.419 J0.512
X-88.024 Y-26.037 Z-2.831 I-1.419 J-0.512
X-85.187 Y-25.013 Z-2.996 I1.419 J0.512
X-88.024 Y-26.037 Z-3.162 I-1.419 J-0.512
X-85.187 Y-25.013 Z-3.327 I1.419 J0.512
X-88.024 Y-26.037 Z-3.493 I-1.419 J-0.512
X-85.187 Y-25.013 Z-3.658 I1.419 J0.512
X-88.024 Y-26.037 Z-3.824 I-1.419 J-0.512
X-85.187 Y-25.013 Z-3.989 I1.419 J0.512
X-88.024 Y-26.037 Z-4.155 I-1.419 J-0.512
X-85.187 Y-25.013 Z-4.32 I1.419 J0.512
X-88.024 Y-26.037 Z-4.485 I-1.419 J-0.512
X-85.187 Y-25.013 Z-4.651 I1.419 J0.512
X-88.024 Y-26.037 Z-4.816 I-1.419 J-0.512
X-85.187 Y-25.013 Z-4.982 I1.419 J0.512
X-85.097 Y-25.525 Z-5 I-1.419 J-0.512
G1 Y-25.978 F2032
G2 X-85.422 Y-26.303 I-0.324 J0
G1 X-86.328
G2 X-86.653 Y-25.978 I0 J0.324
G1 Y-25.072
G2 X-86.328 Y-24.747 I0.324 J0
G1 X-85.422
G2 X-85.097 Y-25.072 I0 J-0.324
G1 Y-25.525
G3 X-84.487 Y-26.658 I1.357 J0
G2 X-84.856 Y-27.892 I-0.37 J-0.561
G1 X-87.917
G2 X-88.242 Y-27.567 I0 J0.324
G1 Y-23.483
G2 X-87.917 Y-23.158 I0.324 J0
G1 X-83.833
G2 X-83.508 Y-23.483 I0 J-0.324
G1 Y-27.567
G2 X-83.833 Y-27.892 I-0.324 J0
G1 X-84.856
G3 X-86.766 Y-29.165 I0 J-2.068
G2 X-88.675 Y-30.438 I-1.909 J0.796
G1 X-90.787
Y-20.612
X-80.963
Y-30.438
X-88.675
G2 X-88.793 Y-30.415 Z-4.976 I0 J0.317
X-88.881 Y-30.361 Z-4.907 I0.119 J0.295
X-88.928 Y-30.311 Z-4.804 I0.206 J0.241
G1 X-88.942 Y-30.292 Z-4.683
G0 Z1
X-29.662 Y-23.508
Z-2.182
G1 Z-2.183 F2032
X-29.643 Y-23.496 Z-2.302 F762
X-29.585 Y-23.464 Z-2.403
X-29.496 Y-23.42 Z-2.473
X-29.387 Y-23.376 Z-2.5
G2 X-28.363 Y-26.213 Z-2.665 I0.512 J-1.419
X-29.387 Y-23.376 Z-2.831 I-0.512 J1.419
X-28.363 Y-26.213 Z-2.996 I0.512 J-1.419
X-29.387 Y-23.376 Z-3.162 I-0.512 J1.419
X-28.363 Y-26.213 Z-3.327 I0.512 J-1.419
X-29.387 Y-23.376 Z-3.493 I-0.512 J1.419
X-28.363 Y-26.213 Z-3.658 I0.512 J-1.419
X-29.387 Y-23.376 Z-3.824 I-0.512 J1.419
X-28.363 Y-26.213 Z-3.989 I0.512 J-1.419
X-29.387 Y-23.376 Z-4.155 I-0.512 J1.419
X-28.363 Y-26.213 Z-4.32 I0.512 J-1.419
X-29.387 Y-23.376 Z-4.485 I-0.512 J1.419
X-28.363 Y-26.213 Z-4.651 I0.512 J-1.419
X-29.387 Y-23.376 Z-4.816 I-0.512 J1.419
X-28.363 Y-26.213 Z-4.982 I0.512 J-1.419
X-28.875 Y-26.303 Z-5 I-0.512 J1.419
G1 X-29.332 F2032
G2 X-29.653 Y-25.982 I0 J0.32
G1 Y-25.072
G2 X-29.328 Y-24.747 I0.324 J0
G1 X-28.422
G2 X-28.097 Y-25.072 I0 J-0.324
G1 Y-25.978
G2 X-28.422 Y-26.303 I-0.324 J0
G1 X-28.875
G3 X-30.008 Y-26.914 I0 J-1.355
G2 X-31.242 Y-26.545 I-0.562 J0.369
G1 Y-23.483
G2 X-30.917 Y-23.158 I0.324 J0
G1 X-26.833
G2 X-26.508 Y-23.483 I0 J-0.324
G1 Y-27.567
G2 X-26.833 Y-27.892 I-0.324 J0
G1 X-30.921
G2 X-31.242 Y-27.571 I0 J0.32
G1 Y-26.545
G3 X-32.515 Y-24.636 I-2.068 J0
G2 X-33.787 Y-22.727 I0.796 J1.909
G1 Y-20.612
X-23.962
Y-30.438
X-33.787
Y-22.727
G2 X-33.765 Y-22.608 Z-4.976 I0.317 J0
X-33.711 Y-22.521 Z-4.907 I0.295 J-0.119
X-33.661 Y-22.473 Z-4.804 I0.241 J-0.206
G1 X-33.642 Y-22.46 Z-4.683
G0 Z1
X-26.858 Y-43.738
Z-2.182
G1 Z-2.183 F2032
X-26.846 Y-43.757 Z-2.302 F762
X-26.814 Y-43.815 Z-2.403
X-26.77 Y-43.904 Z-2.473
X-26.726 Y-44.013 Z-2.5
G2 X-29.563 Y-45.037 Z-2.665 I-1.419 J-0.512
X-26.726 Y-44.013 Z-2.831 I1.419 J0.512
X-29.563 Y-45.037 Z-2.996 I-1.419 J-0.512
X-26.726 Y-44.013 Z-3.162 I1.419 J0.512
X-29.563 Y-45.037 Z-3.327 I-1.419 J-0.512
X-26.726 Y-44.013 Z-3.493 I1.419 J0.512
X-29.563 Y-45.037 Z-3.658 I-1.419 J-0.512
X-26.726 Y-44.013 Z-3.824 I1.419 J0.512
X-29.563 Y-45.037 Z-3.989 I-1.419 J-0.512
X-26.726 Y-44.013 Z-4.155 I1.419 J0.512
X-29.563 Y-45.037 Z-4.32 I-1.419 J-0.512
X-26.726 Y-44.013 Z-4.485 I1.419 J0.512
X-29.563 Y-45.037 Z-4.651 I-1.419 J-0.512
X-26.726 Y-44.013 Z-4.816 I1.419 J0.512
X-29.563 Y-45.037 Z-4.982 I-1.419 J-0.512
X-29.653 Y-44.525 Z-5 I1.419 J0.512
G1 Y-44.072 F2032
G2 X-29.328 Y-43.747 I0.324 J0
G1 X-28.422
G2 X-28.097 Y-44.072 I0 J-0.324
G1 Y-44.978
G2 X-28.422 Y-45.303 I-0.324 J0
G1 X-29.328
G2 X-29.653 Y-44.978 I0 J0.324
G1 Y-44.525
G3 X-30.263 Y-43.392 I-1.357 J0
G2 X-29.894 Y-42.158 I0.37 J0.561
G1 X-26.833
G2 X-26.508 Y-42.483 I0 J-0.324
G1 Y-46.567
G2 X-26.833 Y-46.892 I-0.324 J0
G1 X-30.917
G2 X-31.242 Y-46.567 I0 J0.324
G1 Y-42.483
G2 X-30.917 Y-42.158 I0.324 J0
G1 X-29.894
G3 X-27.984 Y-40.885 I0 J2.068
G2 X-26.075 Y-39.612 I1.909 J-0.796
G1 X-23.962
Y-49.438
X-33.787
Y-39.612
X-26.075
G2 X-25.957 Y-39.635 Z-4.976 I0 J-0.318
X-25.869 Y-39.689 Z-4.907 I-0.119 J-0.295
X-25.822 Y-39.739 Z-4.804 I-0.206 J-0.241
G1 X-25.808 Y-39.758 Z-4.683
G0 Z1
X-29.662 Y-61.508
Z-2.182
G1 Z-2.183 F2032
X-29.643 Y-61.496 Z-2.302 F762
X-29.585 Y-61.464 Z-2.403
X-29.496 Y-61.42 Z-2.473
X-29.387 Y-61.376 Z-2.5
G2 X-28.363 Y-64.213 Z-2.665 I0.512 J-1.419
X-29.387 Y-61.376 Z-2.831 I-0.512 J1.419
X-28.363 Y-64.213 Z-2.996 I0.512 J-1.419
X-29.387 Y-61.376 Z-3.162 I-0.512 J1.419
X-28.363 Y-64.213 Z-3.327 I0.512 J-1.419
X-29.387 Y-61.376 Z-3.493 I-0.512 J1.419
X-28.363 Y-64.213 Z-3.658 I0.512 J-1.419
X-29.387 Y-61.376 Z-3.824 I-0.512 J1.419
X-28.363 Y-64.213 Z-3.989 I0.512 J-1.419
X-29.387 Y-61.376 Z-4.155 I-0.512 J1.419
X-28.363 Y-64.213 Z-4.32 I0.512 J-1.419
X-29.387 Y-61.376 Z-4.485 I-0.512 J1.419
X-28.363 Y-64.213 Z-4.651 I0.512 J-1.419
X-29.387 Y-61.376 Z-4.816 I-0.512 J1.419
X-28.363 Y-64.213 Z-4.982 I0.512 J-1.419
X-28.875 Y-64.303 Z-5 I-0.512 J1.419
G1 X-29.328 F2032
G2 X-29.653 Y-63.978 I0 J0.324
G1 Y-63.072
G2 X-29.328 Y-62.747 I0.324 J0
G1 X-28.422
G2 X-28.097 Y-63.072 I0 J-0.324
G1 Y-63.978
G2 X-28.422 Y-64.303 I-0.324 J0
G1 X-28.875
G3 X-30.008 Y-64.913 I0 J-1.357
G2 X-31.242 Y-64.544 I-0.561 J0.37
G1 Y-61.483
G2 X-30.917 Y-61.158 I0.324 J0
G1 X-26.833
G2 X-26.508 Y-61.483 I0 J-0.324
G1 Y-65.567
G2 X-26.833 Y-65.892 I-0.324 J0
G1 X-30.917
G2 X-31.242 Y-65.567 I0 J0.324
G1 Y-64.544
G3 X-32.515 Y-62.634 I-2.068 J0
G2 X-33.787 Y-60.725 I0.796 J1.909
G1 Y-58.612
X-23.962
Y-68.438
X-33.787
Y-60.725
G2 X-33.765 Y-60.607 Z-4.976 I0.317 J0
X-33.711 Y-60.519 Z-4.907 I0.295 J-0.119
X-33.661 Y-60.472 Z-4.804 I0.241 J-0.206
G1 X-33.642 Y-60.458 Z-4.683
G0 Z1
X-29.662 Y-80.508
Z-2.182
G1 Z-2.183 F2032
X-29.643 Y-80.496 Z-2.302 F762
X-29.585 Y-80.464 Z-2.403
X-29.496 Y-80.42 Z-2.473
X-29.387 Y-80.376 Z-2.5
G2 X-28.363 Y-83.213 Z-2.665 I0.512 J-1.419
X-29.387 Y-80.376 Z-2.831 I-0.512 J1.419
X-28.363 Y-83.213 Z-2.996 I0.512 J-1.419
X-29.387 Y-80.376 Z-3.162 I-0.512 J1.419
X-28.363 Y-83.213 Z-3.327 I0.512 J-1.419
X-29.387 Y-80.376 Z-3.493 I-0.512 J1.419
X-28.363 Y-83.213 Z-3.658 I0.512 J-1.419
X-29.387 Y-80.376 Z-3.824 I-0.512 J1.419
X-28.363 Y-83.213 Z-3.989 I0.512 J-1.419
X-29.387 Y-80.376 Z-4.155 I-0.512 J1.419
X-28.363 Y-83.213 Z-4.32 I0.512 J-1.419
X-29.387 Y-80.376 Z-4.485 I-0.512 J1.419
X-28.363 Y-83.213 Z-4.651 I0.512 J-1.419
X-29.387 Y-80.376 Z-4.816 I-0.512 J1.419
X-28.363 Y-83.213 Z-4.982 I0.512 J-1.419
X-28.875 Y-83.303 Z-5 I-0.512 J1.419
G1 X-29.332 F2032
G2 X-29.653 Y-82.982 I0 J0.32
G1 Y-82.072
G2 X-29.328 Y-81.747 I0.324 J0
G1 X-28.422
G2 X-28.097 Y-82.072 I0 J-0.324
G1 Y-82.978
G2 X-28.422 Y-83.303 I-0.324 J0
G1 X-28.875
G3 X-30.008 Y-83.914 I0 J-1.355
G2 X-31.242 Y-83.545 I-0.562 J0.369
G1 Y-80.483
G2 X-30.917 Y-80.158 I0.324 J0
G1 X-26.833
G2 X-26.508 Y-80.483 I0 J-0.324
G1 Y-84.567
G2 X-26.833 Y-84.892 I-0.324 J0
G1 X-30.921
G2 X-31.242 Y-84.571 I0 J0.32
G1 Y-83.545
G3 X-32.515 Y-81.636 I-2.068 J0
G2 X-33.787 Y-79.727 I0.796 J1.909
G1 Y-77.613
X-23.962
Y-87.438
X-33.787
Y-79.727
G2 X-33.765 Y-79.608 Z-4.976 I0.317 J0
X-33.711 Y-79.521 Z-4.907 I0.295 J-0.119
X-33.661 Y-79.473 Z-4.804 I0.241 J-0.206
G1 X-33.642 Y-79.46 Z-4.683
G0 Z1
X-29.662 Y-99.508
Z-2.182
G1 Z-2.183 F2032
X-29.643 Y-99.496 Z-2.302 F762
X-29.585 Y-99.464 Z-2.403
X-29.496 Y-99.42 Z-2.473
X-29.387 Y-99.376 Z-2.5
G2 X-28.363 Y-102.213 Z-2.665 I0.512 J-1.419
X-29.387 Y-99.376 Z-2.831 I-0.512 J1.419
X-28.363 Y-102.213 Z-2.996 I0.512 J-1.419
X-29.387 Y-99.376 Z-3.162 I-0.512 J1.419
X-28.363 Y-102.213 Z-3.327 I0.512 J-1.419
X-29.387 Y-99.376 Z-3.493 I-0.512 J1.419
X-28.363 Y-102.213 Z-3.658 I0.512 J-1.419
X-29.387 Y-99.376 Z-3.824 I-0.512 J1.419
X-28.363 Y-102.213 Z-3.989 I0.512 J-1.419
X-29.387 Y-99.376 Z-4.155 I-0.512 J1.419
X-28.363 Y-102.213 Z-4.32 I0.512 J-1.419
X-29.387 Y-99.376 Z-4.485 I-0.512 J1.419
X-28.363 Y-102.213 Z-4.651 I0.512 J-1.419
X-29.387 Y-99.376 Z-4.816 I-0.512 J1.419
X-28.363 Y-102.213 Z-4.982 I0.512 J-1.419
X-28.875 Y-102.303 Z-5 I-0.512 J1.419
G1 X-29.332 F2032
G2 X-29.653 Y-101.982 I0 J0.32
G1 Y-101.072
G2 X-29.328 Y-100.747 I0.324 J0
G1 X-28.422
G2 X-28.097 Y-101.072 I0 J-0.324
G1 Y-101.978
G2 X-28.422 Y-102.303 I-0.324 J0
G1 X-28.875
G3 X-30.008 Y-102.914 I0 J-1.355
G2 X-31.242 Y-102.545 I-0.562 J0.369
G1 Y-99.483
G2 X-30.917 Y-99.158 I0.324 J0
G1 X-26.833
G2 X-26.508 Y-99.483 I0 J-0.324
G1 Y-103.567
G2 X-26.833 Y-103.892 I-0.324 J0
G1 X-30.921
G2 X-31.242 Y-103.571 I0 J0.32
G1 Y-102.545
G3 X-32.515 Y-100.636 I-2.068 J0
G2 X-33.787 Y-98.727 I0.796 J1.909
G1 Y-96.613
X-23.962
Y-106.438
X-33.787
Y-98.727
G2 X-33.765 Y-98.608 Z-4.976 I0.317 J0
X-33.711 Y-98.521 Z-4.907 I0.295 J-0.119
X-33.661 Y-98.473 Z-4.804 I0.241 J-0.206
G1 X-33.642 Y-98.46 Z-4.683
G0 Z1
X-30.892 Y-121.312
Z-2.182
G1 Z-2.183 F2032
X-30.904 Y-121.293 Z-2.302 F762
X-30.936 Y-121.235 Z-2.403
X-30.98 Y-121.146 Z-2.473
X-31.024 Y-121.037 Z-2.5
G2 X-28.187 Y-120.013 Z-2.665 I1.419 J0.512
X-31.024 Y-121.037 Z-2.831 I-1.419 J-0.512
X-28.187 Y-120.013 Z-2.996 I1.419 J0.512
X-31.024 Y-121.037 Z-3.162 I-1.419 J-0.512
X-28.187 Y-120.013 Z-3.327 I1.419 J0.512
X-31.024 Y-121.037 Z-3.493 I-1.419 J-0.512
X-28.187 Y-120.013 Z-3.658 I1.419 J0.512
X-31.024 Y-121.037 Z-3.824 I-1.419 J-0.512
X-28.187 Y-120.013 Z-3.989 I1.419 J0.512
X-31.024 Y-121.037 Z-4.155 I-1.419 J-0.512
X-28.187 Y-120.013 Z-4.32 I1.419 J0.512
X-31.024 Y-121.037 Z-4.485 I-1.419 J-0.512
X-28.187 Y-120.013 Z-4.651 I1.419 J0.512
X-31.024 Y-121.037 Z-4.816 I-1.419 J-0.512
X-28.187 Y-120.013 Z-4.982 I1.419 J0.512
X-28.097 Y-120.525 Z-5 I-1.419 J-0.512
G1 Y-120.978 F2032
G2 X-28.422 Y-121.303 I-0.324 J0
G1 X-29.328
G2 X-29.653 Y-120.978 I0 J0.324
G1 Y-120.072
G2 X-29.328 Y-119.747 I0.324 J0
G1 X-28.422
G2 X-28.097 Y-120.072 I0 J-0.324
G1 Y-120.525
G3 X-27.487 Y-121.658 I1.357 J0
G2 X-27.856 Y-122.892 I-0.37 J-0.561
G1 X-30.917
G2 X-31.242 Y-122.567 I0 J0.324
G1 Y-118.483
G2 X-30.917 Y-118.158 I0.324 J0
G1 X-26.833
G2 X-26.508 Y-118.483 I0 J-0.324
G1 Y-122.567
G2 X-26.833 Y-122.892 I-0.324 J0
G1 X-27.856
G3 X-29.766 Y-124.165 I0 J-2.068
G2 X-31.675 Y-125.438 I-1.909 J0.796
G1 X-33.787
Y-115.613
X-23.962
Y-125.438
X-31.675
G2 X-31.793 Y-125.415 Z-4.976 I0 J0.317
X-31.881 Y-125.361 Z-4.907 I0.119 J0.295
X-31.928 Y-125.311 Z-4.804 I0.206 J0.241
G1 X-31.942 Y-125.292 Z-4.683
G0 Z1
X-47.088 Y-122.542
Z-2.182
G1 Z-2.183 F2032
X-47.107 Y-122.554 Z-2.302 F762
X-47.165 Y-122.586 Z-2.403
X-47.254 Y-122.63 Z-2.473
X-47.363 Y-122.674 Z-2.5
G2 X-48.387 Y-119.837 Z-2.665 I-0.512 J1.419
X-47.363 Y-122.674 Z-2.831 I0.512 J-1.419
X-48.387 Y-119.837 Z-2.996 I-0.512 J1.419
X-47.363 Y-122.674 Z-3.162 I0.512 J-1.419
X-48.387 Y-119.837 Z-3.327 I-0.512 J1.419
X-47.363 Y-122.674 Z-3.493 I0.512 J-1.419
X-48.387 Y-119.837 Z-3.658 I-0.512 J1.419
X-47.363 Y-122.674 Z-3.824 I0.512 J-1.419
X-48.387 Y-119.837 Z-3.989 I-0.512 J1.419
X-47.363 Y-122.674 Z-4.155 I0.512 J-1.419
X-48.387 Y-119.837 Z-4.32 I-0.512 J1.419
X-47.363 Y-122.674 Z-4.485 I0.512 J-1.419
X-48.387 Y-119.837 Z-4.651 I-0.512 J1.419
X-47.363 Y-122.674 Z-4.816 I0.512 J-1.419
X-48.387 Y-119.837 Z-4.982 I-0.512 J1.419
X-47.875 Y-119.747 Z-5 I0.512 J-1.419
G1 X-47.422 F2032
G2 X-47.097 Y-120.072 I0 J-0.324
G1 Y-120.978
G2 X-47.422 Y-121.303 I-0.324 J0
G1 X-48.328
G2 X-48.653 Y-120.978 I0 J0.324
G1 Y-120.072
G2 X-48.328 Y-119.747 I0.324 J0
G1 X-47.875
G3 X-46.742 Y-119.137 I0 J1.357
G2 X-45.508 Y-119.506 I0.561 J-0.37
G1 Y-122.567
G2 X-45.833 Y-122.892 I-0.324 J0
G1 X-49.917
G2 X-50.242 Y-122.567 I0 J0.324
G1 Y-118.483
G2 X-49.917 Y-118.158 I0.324 J0
G1 X-45.833
G2 X-45.508 Y-118.483 I0 J-0.324
G1 Y-119.506
G3 X-44.235 Y-121.416 I2.068 J0
G2 X-42.963 Y-123.325 I-0.796 J-1.909
G1 Y-125.438
X-52.787
Y-115.613
X-42.963
Y-123.325
G2 X-42.985 Y-123.443 Z-4.976 I-0.317 J0
X-43.039 Y-123.531 Z-4.907 I-0.295 J0.119
X-43.089 Y-123.578 Z-4.804 I-0.241 J0.206
G1 X-43.108 Y-123.592 Z-4.683
G0 Z1
X-68.892 Y-121.312
Z-2.182
G1 Z-2.183 F2032
X-68.904 Y-121.293 Z-2.302 F762
X-68.936 Y-121.235 Z-2.403
X-68.98 Y-121.146 Z-2.473
X-69.024 Y-121.037 Z-2.5
G2 X-66.187 Y-120.013 Z-2.665 I1.419 J0.512
X-69.024 Y-121.037 Z-2.831 I-1.419 J-0.512
X-66.187 Y-120.013 Z-2.996 I1.419 J0.512
X-69.024 Y-121.037 Z-3.162 I-1.419 J-0.512
X-66.187 Y-120.013 Z-3.327 I1.419 J0.512
X-69.024 Y-121.037 Z-3.493 I-1.419 J-0.512
X-66.187 Y-120.013 Z-3.658 I1.419 J0.512
X-69.024 Y-121.037 Z-3.824 I-1.419 J-0.512
X-66.187 Y-120.013 Z-3.989 I1.419 J0.512
X-69.024 Y-121.037 Z-4.155 I-1.419 J-0.512
X-66.187 Y-120.013 Z-4.32 I1.419 J0.512
X-69.024 Y-121.037 Z-4.485 I-1.419 J-0.512
X-66.187 Y-120.013 Z-4.651 I1.419 J0.512
X-69.024 Y-121.037 Z-4.816 I-1.419 J-0.512
X-66.187 Y-120.013 Z-4.982 I1.419 J0.512
X-66.097 Y-120.525 Z-5 I-1.419 J-0.512
G1 Y-120.978 F2032
G2 X-66.422 Y-121.303 I-0.324 J0
G1 X-67.328
G2 X-67.653 Y-120.978 I0 J0.324
G1 Y-120.072
G2 X-67.328 Y-119.747 I0.324 J0
G1 X-66.422
G2 X-66.097 Y-120.072 I0 J-0.324
G1 Y-120.525
G3 X-65.487 Y-121.658 I1.357 J0
G2 X-65.856 Y-122.892 I-0.37 J-0.561
G1 X-68.917
G2 X-69.242 Y-122.567 I0 J0.324
G1 Y-118.483
G2 X-68.917 Y-118.158 I0.324 J0
G1 X-64.833
G2 X-64.508 Y-118.483 I0 J-0.324
G1 Y-122.567
G2 X-64.833 Y-122.892 I-0.324 J0
G1 X-65.856
G3 X-67.766 Y-124.165 I0 J-2.068
G2 X-69.675 Y-125.438 I-1.909 J0.796
G1 X-71.787
Y-115.613
X-61.963
Y-125.438
X-69.675
G2 X-69.793 Y-125.415 Z-4.976 I0 J0.317
X-69.881 Y-125.361 Z-4.907 I0.119 J0.295
X-69.928 Y-125.311 Z-4.804 I0.206 J0.241
G1 X-69.942 Y-125.292 Z-4.683
G0 Z1
X-86.662 Y-118.508
Z-2.182
G1 Z-2.183 F2032
X-86.643 Y-118.496 Z-2.302 F762
X-86.585 Y-118.464 Z-2.403
X-86.496 Y-118.42 Z-2.473
X-86.387 Y-118.376 Z-2.5
G2 X-85.363 Y-121.213 Z-2.665 I0.512 J-1.419
X-86.387 Y-118.376 Z-2.831 I-0.512 J1.419
X-85.363 Y-121.213 Z-2.996 I0.512 J-1.419
X-86.387 Y-118.376 Z-3.162 I-0.512 J1.419
X-85.363 Y-121.213 Z-3.327 I0.512 J-1.419
X-86.387 Y-118.376 Z-3.493 I-0.512 J1.419
X-85.363 Y-121.213 Z-3.658 I0.512 J-1.419
X-86.387 Y-118.376 Z-3.824 I-0.512 J1.419
X-85.363 Y-121.213 Z-3.989 I0.512 J-1.419
X-86.387 Y-118.376 Z-4.155 I-0.512 J1.419
X-85.363 Y-121.213 Z-4.32 I0.512 J-1.419
X-86.387 Y-118.376 Z-4.485 I-0.512 J1.419
X-85.363 Y-121.213 Z-4.651 I0.512 J-1.419
X-86.387 Y-118.376 Z-4.816 I-0.512 J1.419
X-85.363 Y-121.213 Z-4.982 I0.512 J-1.419
X-85.875 Y-121.303 Z-5 I-0.512 J1.419
G1 X-86.332 F2032
G2 X-86.653 Y-120.982 I0 J0.32
G1 Y-120.072
G2 X-86.328 Y-119.747 I0.324 J0
G1 X-85.422
G2 X-85.097 Y-120.072 I0 J-0.324
G1 Y-120.978
G2 X-85.422 Y-121.303 I-0.324 J0
G1 X-85.875
G3 X-87.008 Y-121.914 I0 J-1.355
G2 X-88.242 Y-121.545 I-0.562 J0.369
G1 Y-118.483
G2 X-87.917 Y-118.158 I0.324 J0
G1 X-83.833
G2 X-83.508 Y-118.483 I0 J-0.324
G1 Y-122.567
G2 X-83.833 Y-122.892 I-0.324 J0
G1 X-87.921
G2 X-88.242 Y-122.571 I0 J0.32
G1 Y-121.545
G3 X-89.515 Y-119.636 I-2.068 J0
G2 X-90.787 Y-117.727 I0.796 J1.909
G1 Y-115.613
X-80.963
Y-125.438
X-90.787
Y-117.727
G2 X-90.765 Y-117.608 Z-4.976 I0.317 J0
X-90.711 Y-117.521 Z-4.907 I0.295 J-0.119
X-90.661 Y-117.473 Z-4.804 I0.241 J-0.206
G1 X-90.642 Y-117.46 Z-4.683
G0 Z11.16

(2D Contour2 2)
M7
Z15.24
X-43.005 Y-81.851
Z1.58
G1 Z-2.5 F762
Z-4.683
X-42.999 Y-81.857 Z-4.753
X-42.982 Y-81.874 Z-4.82
X-42.956 Y-81.9 Z-4.88
X-42.92 Y-81.936 Z-4.931
X-42.877 Y-81.979 Z-4.969
X-42.83 Y-82.026 Z-4.992
X-42.78 Y-82.076 Z-5
X-42.555 Y-82.3
G2 X-42.463 Y-82.525 I-0.225 J-0.225
G1 Y-87.938
X-53.287
Y-77.113
X-42.463
Y-82.525
G2 X-42.555 Y-82.75 I-0.317 J0
G1 X-42.78 Y-82.974
X-42.83 Y-83.024 Z-4.992
X-42.877 Y-83.071 Z-4.969
X-42.92 Y-83.114 Z-4.931
X-42.956 Y-83.15 Z-4.88
X-42.982 Y-83.176 Z-4.82
X-42.999 Y-83.193 Z-4.753
X-43.005 Y-83.199 Z-4.683
G0 Z5.08
X-24.005 Y-81.851
Z1.58
G1 Z-2.5 F762
Z-4.683
X-23.999 Y-81.857 Z-4.753
X-23.982 Y-81.874 Z-4.82
X-23.956 Y-81.9 Z-4.88
X-23.92 Y-81.936 Z-4.931
X-23.877 Y-81.979 Z-4.969
X-23.83 Y-82.026 Z-4.992
X-23.78 Y-82.076 Z-5
X-23.555 Y-82.3
G2 X-23.462 Y-82.525 I-0.225 J-0.225
G1 Y-87.938
X-34.287
Y-77.113
X-23.462
Y-82.525
G2 X-23.555 Y-82.75 I-0.318 J0
G1 X-23.78 Y-82.974
X-23.83 Y-83.024 Z-4.992
X-23.877 Y-83.071 Z-4.969
X-23.92 Y-83.114 Z-4.931
X-23.956 Y-83.15 Z-4.88
X-23.982 Y-83.176 Z-4.82
X-23.999 Y-83.193 Z-4.753
X-24.005 Y-83.199 Z-4.683
G0 Z5.08
Y-100.851
Z1.58
G1 Z-2.5 F762
Z-4.683
X-23.999 Y-100.857 Z-4.753
X-23.982 Y-100.874 Z-4.82
X-23.956 Y-100.9 Z-4.88
X-23.92 Y-100.936 Z-4.931
X-23.877 Y-100.979 Z-4.969
X-23.83 Y-101.026 Z-4.992
X-23.78 Y-101.076 Z-5
X-23.555 Y-101.3
G2 X-23.462 Y-101.525 I-0.225 J-0.225
G1 Y-106.938
X-34.287
Y-96.113
X-23.462
Y-101.525
G2 X-23.555 Y-101.75 I-0.318 J0
G1 X-23.78 Y-101.974
X-23.83 Y-102.024 Z-4.992
X-23.877 Y-102.071 Z-4.969
X-23.92 Y-102.114 Z-4.931
