%
(1)
(split-top-plate-acrylic-cutout)
(T1  D=3.175 CR=0 - ZMIN=-5 - flat end mill)
G90
G17
G21
G28 G91 Z0
G90

(2D Contour1)
M9
T1 M6
S10000 M3
G54
M7
G0 X-72.177 Y-11.985
Z15.24
Z5.08
G1 Z2.858 F2032
G19 G2 Y-12.302 Z2.54 J-0.318 K0 F762
G1 Y-12.62 F2032
G17 G3 X-71.859 Y-12.938 I0.317 J0
G1 X-18.875 Z0.69 F762
G2 X-14.288 Y-17.525 Z0.438 I0 J-4.587
G1 Y-73.025 Z-1.5
Y-128.525 F2032
G2 X-18.875 Y-133.113 I-4.587 J0
G1 X-93.875
G2 X-98.463 Y-128.525 I0 J4.588
G1 Y-17.525
G2 X-93.875 Y-12.938 I4.588 J0
G1 X-18.875
G2 X-14.288 Y-17.525 I0 J-4.587
G1 Y-73.025
Y-120.366 Z-3 F762
Y-128.525 F2032
G2 X-18.875 Y-133.113 I-4.587 J0
G1 X-93.875
G2 X-98.463 Y-128.525 I0 J4.588
G1 Y-17.525
G2 X-93.875 Y-12.938 I4.588 J0
G1 X-18.875
G2 X-14.288 Y-17.525 I0 J-4.587
G1 Y-73.025
Y-120.366
Y-128.525 Z-3.259 F762
G2 X-18.875 Y-133.113 Z-3.487 I-4.587 J0
G1 X-50.852 Z-4.5
X-93.875 F2032
G2 X-98.463 Y-128.525 I0 J4.588
G1 Y-76.613
Y-74.613 Z-3.5
Y-71.438
Y-69.438 Z-4.5 F762
Y-17.525 F2032
G2 X-93.875 Y-12.938 I4.588 J0
G1 X-18.875
G2 X-14.288 Y-17.525 I0 J-4.587
G1 Y-69.438
Y-71.438 Z-3.5
Y-74.613
Y-76.613 Z-4.5 F762
Y-128.525 F2032
G2 X-18.875 Y-133.113 I-4.587 J0
G1 X-50.852
X-66.632 Z-5 F762
X-93.875 F2032
G2 X-98.463 Y-128.525 I0 J4.588
G1 Y-77.613
Y-74.613 Z-3.5
Y-71.438
Y-68.438 Z-5 F762
Y-17.525 F2032
G2 X-93.875 Y-12.938 I4.588 J0
G1 X-18.875
G2 X-14.288 Y-17.525 I0 J-4.587
G1 Y-68.438
Y-71.438 Z-3.5
Y-74.613
Y-77.613 Z-5 F762
Y-128.525 F2032
G2 X-18.875 Y-133.113 I-4.587 J0
G1 X-66.632
G3 X-66.95 Y-133.43 I0 J-0.317
G1 Y-133.747
G19 G2 Y-134.065 Z-4.683 J0 K0.318
G0 Z15.24
G17
M9
G28 G91 Z0
G28 X0 Y0
M30
%
