%
(1)
(split-top-plate-acrylic-small-contour)
(T1  D=3.175 CR=0 - ZMIN=-5 - flat end mill)
G90
G17
G21
G28 G91 Z0
G90

(2D Contour2 2)
M9
T1 M6
S10000 M3
G54
M7
G0 X-43.005 Y-81.851
Z15.24
Z1.58
G1 Z-2.5 F762
Z-4.683
X-42.999 Y-81.857 Z-4.753
X-42.982 Y-81.874 Z-4.82
X-42.956 Y-81.9 Z-4.88
X-42.92 Y-81.936 Z-4.931
X-42.877 Y-81.979 Z-4.969
X-42.83 Y-82.026 Z-4.992
X-42.78 Y-82.076 Z-5
X-42.555 Y-82.3
G2 X-42.463 Y-82.525 I-0.225 J-0.225
G1 Y-87.938
X-53.287
Y-77.113
X-42.463
Y-82.525
G2 X-42.555 Y-82.75 I-0.317 J0
G1 X-42.78 Y-82.974
X-42.83 Y-83.024 Z-4.992
X-42.877 Y-83.071 Z-4.969
X-42.92 Y-83.114 Z-4.931
X-42.956 Y-83.15 Z-4.88
X-42.982 Y-83.176 Z-4.82
X-42.999 Y-83.193 Z-4.753
X-43.005 Y-83.199 Z-4.683
G0 Z5.08
X-24.005 Y-81.851
Z1.58
G1 Z-2.5 F762
Z-4.683
X-23.999 Y-81.857 Z-4.753
X-23.982 Y-81.874 Z-4.82
X-23.956 Y-81.9 Z-4.88
X-23.92 Y-81.936 Z-4.931
X-23.877 Y-81.979 Z-4.969
X-23.83 Y-82.026 Z-4.992
X-23.78 Y-82.076 Z-5
X-23.555 Y-82.3
G2 X-23.462 Y-82.525 I-0.225 J-0.225
G1 Y-87.938
X-34.287
Y-77.113
X-23.462
Y-82.525
G2 X-23.555 Y-82.75 I-0.318 J0
G1 X-23.78 Y-82.974
X-23.83 Y-83.024 Z-4.992
X-23.877 Y-83.071 Z-4.969
X-23.92 Y-83.114 Z-4.931
X-23.956 Y-83.15 Z-4.88
X-23.982 Y-83.176 Z-4.82
X-23.999 Y-83.193 Z-4.753
X-24.005 Y-83.199 Z-4.683
G0 Z5.08
Y-100.851
Z1.58
G1 Z-2.5 F762
Z-4.683
X-23.999 Y-100.857 Z-4.753
X-23.982 Y-100.874 Z-4.82
X-23.956 Y-100.9 Z-4.88
X-23.92 Y-100.936 Z-4.931
X-23.877 Y-100.979 Z-4.969
X-23.83 Y-101.026 Z-4.992
X-23.78 Y-101.076 Z-5
X-23.555 Y-101.3
G2 X-23.462 Y-101.525 I-0.225 J-0.225
G1 Y-106.938
X-34.287
Y-96.113
X-23.462
Y-101.525
G2 X-23.555 Y-101.75 I-0.318 J0
G1 X-23.78 Y-101.974
X-23.83 Y-102.024 Z-4.992
X-23.877 Y-102.071 Z-4.969
X-23.92 Y-102.114 Z-4.931
X-23.956 Y-102.15 Z-4.88
X-23.982 Y-102.176 Z-4.82
X-23.999 Y-102.193 Z-4.753
X-24.005 Y-102.199 Z-4.683
G0 Z5.08
Y-119.851
Z1.58
G1 Z-2.5 F762
Z-4.683
X-23.999 Y-119.857 Z-4.753
X-23.982 Y-119.874 Z-4.82
X-23.956 Y-119.9 Z-4.88
X-23.92 Y-119.936 Z-4.931
X-23.877 Y-119.979 Z-4.969
X-23.83 Y-120.026 Z-4.992
X-23.78 Y-120.076 Z-5
X-23.555 Y-120.3
G2 X-23.462 Y-120.525 I-0.225 J-0.225
G1 Y-125.938
X-34.287
Y-115.113
X-23.462
Y-120.525
G2 X-23.555 Y-120.75 I-0.318 J0
G1 X-23.78 Y-120.974
X-23.83 Y-121.024 Z-4.992
X-23.877 Y-121.071 Z-4.969
X-23.92 Y-121.114 Z-4.931
X-23.956 Y-121.15 Z-4.88
X-23.982 Y-121.176 Z-4.82
X-23.999 Y-121.193 Z-4.753
X-24.005 Y-121.199 Z-4.683
G0 Z5.08
X-43.005 Y-119.851
Z1.58
G1 Z-2.5 F762
Z-4.683
X-42.999 Y-119.857 Z-4.753
X-42.982 Y-119.874 Z-4.82
X-42.956 Y-119.9 Z-4.88
X-42.92 Y-119.936 Z-4.931
X-42.877 Y-119.979 Z-4.969
X-42.83 Y-120.026 Z-4.992
X-42.78 Y-120.076 Z-5
X-42.555 Y-120.3
G2 X-42.463 Y-120.525 I-0.225 J-0.225
G1 Y-125.938
X-53.287
Y-115.113
X-42.463
Y-120.525
G2 X-42.555 Y-120.75 I-0.317 J0
G1 X-42.78 Y-120.974
X-42.83 Y-121.024 Z-4.992
X-42.877 Y-121.071 Z-4.969
X-42.92 Y-121.114 Z-4.931
X-42.956 Y-121.15 Z-4.88
X-42.982 Y-121.176 Z-4.82
X-42.999 Y-121.193 Z-4.753
X-43.005 Y-121.199 Z-4.683
G0 Z5.08
Y-100.851
Z1.58
G1 Z-2.5 F762
Z-4.683
X-42.999 Y-100.857 Z-4.753
X-42.982 Y-100.874 Z-4.82
X-42.956 Y-100.9 Z-4.88
X-42.92 Y-100.936 Z-4.931
X-42.877 Y-100.979 Z-4.969
X-42.83 Y-101.026 Z-4.992
X-42.78 Y-101.076 Z-5
X-42.555 Y-101.3
G2 X-42.463 Y-101.525 I-0.225 J-0.225
G1 Y-106.938
X-53.287
Y-96.113
X-42.463
Y-101.525
G2 X-42.555 Y-101.75 I-0.317 J0
G1 X-42.78 Y-101.974
X-42.83 Y-102.024 Z-4.992
X-42.877 Y-102.071 Z-4.969
X-42.92 Y-102.114 Z-4.931
X-42.956 Y-102.15 Z-4.88
X-42.982 Y-102.176 Z-4.82
X-42.999 Y-102.193 Z-4.753
X-43.005 Y-102.199 Z-4.683
G0 Z5.08
X-62.005 Y-100.851
Z1.58
G1 Z-2.5 F762
Z-4.683
X-61.999 Y-100.857 Z-4.753
X-61.982 Y-100.874 Z-4.82
X-61.956 Y-100.9 Z-4.88
X-61.92 Y-100.936 Z-4.931
X-61.877 Y-100.979 Z-4.969
X-61.83 Y-101.026 Z-4.992
X-61.78 Y-101.076 Z-5
X-61.555 Y-101.3
G2 X-61.463 Y-101.525 I-0.225 J-0.225
G1 Y-106.938
X-72.287
Y-96.113
X-61.463
Y-101.525
G2 X-61.555 Y-101.75 I-0.317 J0
G1 X-61.78 Y-101.974
X-61.83 Y-102.024 Z-4.992
X-61.877 Y-102.071 Z-4.969
X-61.92 Y-102.114 Z-4.931
X-61.956 Y-102.15 Z-4.88
X-61.982 Y-102.176 Z-4.82
X-61.999 Y-102.193 Z-4.753
X-62.005 Y-102.199 Z-4.683
G0 Z5.08
Y-119.851
Z1.58
G1 Z-2.5 F762
Z-4.683
X-61.999 Y-119.857 Z-4.753
X-61.982 Y-119.874 Z-4.82
X-61.956 Y-119.9 Z-4.88
X-61.92 Y-119.936 Z-4.931
X-61.877 Y-119.979 Z-4.969
X-61.83 Y-120.026 Z-4.992
X-61.78 Y-120.076 Z-5
X-61.555 Y-120.3
G2 X-61.463 Y-120.525 I-0.225 J-0.225
G1 Y-125.938
X-72.287
Y-115.113
X-61.463
Y-120.525
G2 X-61.555 Y-120.75 I-0.317 J0
G1 X-61.78 Y-120.974
X-61.83 Y-121.024 Z-4.992
X-61.877 Y-121.071 Z-4.969
X-61.92 Y-121.114 Z-4.931
X-61.956 Y-121.15 Z-4.88
X-61.982 Y-121.176 Z-4.82
X-61.999 Y-121.193 Z-4.753
X-62.005 Y-121.199 Z-4.683
G0 Z5.08
X-81.005 Y-119.851
Z1.58
G1 Z-2.5 F762
Z-4.683
X-80.999 Y-119.857 Z-4.753
X-80.982 Y-119.874 Z-4.82
X-80.956 Y-119.9 Z-4.88
X-80.92 Y-119.936 Z-4.931
X-80.877 Y-119.979 Z-4.969
X-80.83 Y-120.026 Z-4.992
X-80.78 Y-120.076 Z-5
X-80.555 Y-120.3
G2 X-80.463 Y-120.525 I-0.225 J-0.225
G1 Y-125.938
X-91.287
Y-115.113
X-80.463
Y-120.525
G2 X-80.555 Y-120.75 I-0.317 J0
G1 X-80.78 Y-120.974
X-80.83 Y-121.024 Z-4.992
X-80.877 Y-121.071 Z-4.969
X-80.92 Y-121.114 Z-4.931
X-80.956 Y-121.15 Z-4.88
X-80.982 Y-121.176 Z-4.82
X-80.999 Y-121.193 Z-4.753
X-81.005 Y-121.199 Z-4.683
G0 Z5.08
Y-100.851
Z1.58
G1 Z-2.5 F762
Z-4.683
X-80.999 Y-100.857 Z-4.753
X-80.982 Y-100.874 Z-4.82
X-80.956 Y-100.9 Z-4.88
X-80.92 Y-100.936 Z-4.931
X-80.877 Y-100.979 Z-4.969
X-80.83 Y-101.026 Z-4.992
X-80.78 Y-101.076 Z-5
X-80.555 Y-101.3
G2 X-80.463 Y-101.525 I-0.225 J-0.225
G1 Y-106.938
X-91.287
Y-96.113
X-80.463
Y-101.525
G2 X-80.555 Y-101.75 I-0.317 J0
G1 X-80.78 Y-101.974
X-80.83 Y-102.024 Z-4.992
X-80.877 Y-102.071 Z-4.969
X-80.92 Y-102.114 Z-4.931
X-80.956 Y-102.15 Z-4.88
X-80.982 Y-102.176 Z-4.82
X-80.999 Y-102.193 Z-4.753
X-81.005 Y-102.199 Z-4.683
G0 Z5.08
Y-81.851
Z1.58
G1 Z-2.5 F762
Z-4.683
X-80.999 Y-81.857 Z-4.753
X-80.982 Y-81.874 Z-4.82
X-80.956 Y-81.9 Z-4.88
X-80.92 Y-81.936 Z-4.931
X-80.877 Y-81.979 Z-4.969
X-80.83 Y-82.026 Z-4.992
X-80.78 Y-82.076 Z-5
X-80.555 Y-82.3
G2 X-80.463 Y-82.525 I-0.225 J-0.225
G1 Y-87.938
X-91.287
Y-77.113
X-80.463
Y-82.525
G2 X-80.555 Y-82.75 I-0.317 J0
G1 X-80.78 Y-82.974
X-80.83 Y-83.024 Z-4.992
X-80.877 Y-83.071 Z-4.969
X-80.92 Y-83.114 Z-4.931
X-80.956 Y-83.15 Z-4.88
X-80.982 Y-83.176 Z-4.82
X-80.999 Y-83.193 Z-4.753
X-81.005 Y-83.199 Z-4.683
G0 Z5.08
X-62.005 Y-81.851
Z1.58
G1 Z-2.5 F762
Z-4.683
X-61.999 Y-81.857 Z-4.753
X-61.982 Y-81.874 Z-4.82
X-61.956 Y-81.9 Z-4.88
X-61.92 Y-81.936 Z-4.931
X-61.877 Y-81.979 Z-4.969
X-61.83 Y-82.026 Z-4.992
X-61.78 Y-82.076 Z-5
X-61.555 Y-82.3
G2 X-61.463 Y-82.525 I-0.225 J-0.225
G1 Y-87.938
X-72.287
Y-77.113
X-61.463
Y-82.525
G2 X-61.555 Y-82.75 I-0.317 J0
G1 X-61.78 Y-82.974
X-61.83 Y-83.024 Z-4.992
X-61.877 Y-83.071 Z-4.969
X-61.92 Y-83.114 Z-4.931
X-61.956 Y-83.15 Z-4.88
X-61.982 Y-83.176 Z-4.82
X-61.999 Y-83.193 Z-4.753
X-62.005 Y-83.199 Z-4.683
G0 Z5.08
Y-62.851
Z1.58
G1 Z-2.5 F762
Z-4.683
X-61.999 Y-62.857 Z-4.753
X-61.982 Y-62.874 Z-4.82
X-61.956 Y-62.9 Z-4.88
X-61.92 Y-62.936 Z-4.931
X-61.877 Y-62.979 Z-4.969
X-61.83 Y-63.026 Z-4.992
X-61.78 Y-63.076 Z-5
X-61.555 Y-63.3
G2 X-61.463 Y-63.525 I-0.225 J-0.225
G1 Y-68.938
X-72.287
Y-58.112
X-61.463
Y-63.525
G2 X-61.555 Y-63.75 I-0.317 J0
G1 X-61.78 Y-63.974
X-61.83 Y-64.024 Z-4.992
X-61.877 Y-64.071 Z-4.969
X-61.92 Y-64.114 Z-4.931
X-61.956 Y-64.15 Z-4.88
X-61.982 Y-64.176 Z-4.82
X-61.999 Y-64.193 Z-4.753
X-62.005 Y-64.199 Z-4.683
G0 Z5.08
X-43.005 Y-62.851
Z1.58
G1 Z-2.5 F762
Z-4.683
X-42.999 Y-62.857 Z-4.753
X-42.982 Y-62.874 Z-4.82
X-42.956 Y-62.9 Z-4.88
X-42.92 Y-62.936 Z-4.931
X-42.877 Y-62.979 Z-4.969
X-42.83 Y-63.026 Z-4.992
X-42.78 Y-63.076 Z-5
X-42.555 Y-63.3
G2 X-42.463 Y-63.525 I-0.225 J-0.225
G1 Y-68.938
X-53.287
Y-58.112
X-42.463
Y-63.525
G2 X-42.555 Y-63.75 I-0.317 J0
G1 X-42.78 Y-63.974
X-42.83 Y-64.024 Z-4.992
X-42.877 Y-64.071 Z-4.969
X-42.92 Y-64.114 Z-4.931
X-42.956 Y-64.15 Z-4.88
X-42.982 Y-64.176 Z-4.82
X-42.999 Y-64.193 Z-4.753
X-43.005 Y-64.199 Z-4.683
G0 Z5.08
X-24.005 Y-62.851
Z1.58
G1 Z-2.5 F762
Z-4.683
X-23.999 Y-62.857 Z-4.753
X-23.982 Y-62.874 Z-4.82
X-23.956 Y-62.9 Z-4.88
X-23.92 Y-62.936 Z-4.931
X-23.877 Y-62.979 Z-4.969
X-23.83 Y-63.026 Z-4.992
X-23.78 Y-63.076 Z-5
X-23.555 Y-63.3
G2 X-23.462 Y-63.525 I-0.225 J-0.225
G1 Y-68.938
X-34.287
Y-58.112
X-23.462
Y-63.525
G2 X-23.555 Y-63.75 I-0.318 J0
G1 X-23.78 Y-63.974
X-23.83 Y-64.024 Z-4.992
X-23.877 Y-64.071 Z-4.969
X-23.92 Y-64.114 Z-4.931
X-23.956 Y-64.15 Z-4.88
X-23.982 Y-64.176 Z-4.82
X-23.999 Y-64.193 Z-4.753
X-24.005 Y-64.199 Z-4.683
G0 Z5.08
Y-43.851
Z1.58
G1 Z-2.5 F762
Z-4.683
X-23.999 Y-43.857 Z-4.753
X-23.982 Y-43.874 Z-4.82
X-23.956 Y-43.9 Z-4.88
X-23.92 Y-43.936 Z-4.931
X-23.877 Y-43.979 Z-4.969
X-23.83 Y-44.026 Z-4.992
X-23.78 Y-44.076 Z-5
X-23.555 Y-44.3
G2 X-23.462 Y-44.525 I-0.225 J-0.225
G1 Y-49.938
X-34.287
Y-39.112
X-23.462
Y-44.525
G2 X-23.555 Y-44.75 I-0.318 J0
G1 X-23.78 Y-44.974
X-23.83 Y-45.024 Z-4.992
X-23.877 Y-45.071 Z-4.969
X-23.92 Y-45.114 Z-4.931
X-23.956 Y-45.15 Z-4.88
X-23.982 Y-45.176 Z-4.82
X-23.999 Y-45.193 Z-4.753
X-24.005 Y-45.199 Z-4.683
G0 Z5.08
Y-24.851
Z1.58
G1 Z-2.5 F762
Z-4.683
X-23.999 Y-24.857 Z-4.753
X-23.982 Y-24.874 Z-4.82
X-23.956 Y-24.9 Z-4.88
X-23.92 Y-24.936 Z-4.931
X-23.877 Y-24.979 Z-4.969
X-23.83 Y-25.026 Z-4.992
X-23.78 Y-25.076 Z-5
X-23.555 Y-25.3
G2 X-23.462 Y-25.525 I-0.225 J-0.225
G1 Y-30.938
X-34.287
Y-20.112
X-23.462
Y-25.525
G2 X-23.555 Y-25.75 I-0.318 J0
G1 X-23.78 Y-25.974
X-23.83 Y-26.024 Z-4.992
X-23.877 Y-26.071 Z-4.969
X-23.92 Y-26.114 Z-4.931
X-23.956 Y-26.15 Z-4.88
X-23.982 Y-26.176 Z-4.82
X-23.999 Y-26.193 Z-4.753
X-24.005 Y-26.199 Z-4.683
G0 Z5.08
X-43.005 Y-24.851
Z1.58
G1 Z-2.5 F762
Z-4.683
X-42.999 Y-24.857 Z-4.753
X-42.982 Y-24.874 Z-4.82
X-42.956 Y-24.9 Z-4.88
X-42.92 Y-24.936 Z-4.931
X-42.877 Y-24.979 Z-4.969
X-42.83 Y-25.026 Z-4.992
X-42.78 Y-25.076 Z-5
X-42.555 Y-25.3
G2 X-42.463 Y-25.525 I-0.225 J-0.225
G1 Y-30.938
X-53.287
Y-20.112
X-42.463
Y-25.525
G2 X-42.555 Y-25.75 I-0.317 J0
G1 X-42.78 Y-25.974
X-42.83 Y-26.024 Z-4.992
X-42.877 Y-26.071 Z-4.969
X-42.92 Y-26.114 Z-4.931
X-42.956 Y-26.15 Z-4.88
X-42.982 Y-26.176 Z-4.82
X-42.999 Y-26.193 Z-4.753
X-43.005 Y-26.199 Z-4.683
G0 Z5.08
Y-43.851
Z1.58
G1 Z-2.5 F762
Z-4.683
X-42.999 Y-43.857 Z-4.753
X-42.982 Y-43.874 Z-4.82
X-42.956 Y-43.9 Z-4.88
X-42.92 Y-43.936 Z-4.931
X-42.877 Y-43.979 Z-4.969
X-42.83 Y-44.026 Z-4.992
X-42.78 Y-44.076 Z-5
X-42.555 Y-44.3
G2 X-42.463 Y-44.525 I-0.225 J-0.225
G1 Y-49.938
X-53.287
Y-39.112
X-42.463
Y-44.525
G2 X-42.555 Y-44.75 I-0.317 J0
G1 X-42.78 Y-44.974
X-42.83 Y-45.024 Z-4.992
X-42.877 Y-45.071 Z-4.969
X-42.92 Y-45.114 Z-4.931
X-42.956 Y-45.15 Z-4.88
X-42.982 Y-45.176 Z-4.82
X-42.999 Y-45.193 Z-4.753
X-43.005 Y-45.199 Z-4.683
G0 Z5.08
X-62.005 Y-43.851
Z1.58
G1 Z-2.5 F762
Z-4.683
X-61.999 Y-43.857 Z-4.753
X-61.982 Y-43.874 Z-4.82
X-61.956 Y-43.9 Z-4.88
X-61.92 Y-43.936 Z-4.931
X-61.877 Y-43.979 Z-4.969
X-61.83 Y-44.026 Z-4.992
X-61.78 Y-44.076 Z-5
X-61.555 Y-44.3
G2 X-61.463 Y-44.525 I-0.225 J-0.225
G1 Y-49.938
X-72.287
Y-39.112
X-61.463
Y-44.525
G2 X-61.555 Y-44.75 I-0.317 J0
G1 X-61.78 Y-44.974
X-61.83 Y-45.024 Z-4.992
X-61.877 Y-45.071 Z-4.969
X-61.92 Y-45.114 Z-4.931
X-61.956 Y-45.15 Z-4.88
X-61.982 Y-45.176 Z-4.82
X-61.999 Y-45.193 Z-4.753
X-62.005 Y-45.199 Z-4.683
G0 Z5.08
Y-24.851
Z1.58
G1 Z-2.5 F762
Z-4.683
X-61.999 Y-24.857 Z-4.753
X-61.982 Y-24.874 Z-4.82
X-61.956 Y-24.9 Z-4.88
X-61.92 Y-24.936 Z-4.931
X-61.877 Y-24.979 Z-4.969
X-61.83 Y-25.026 Z-4.992
X-61.78 Y-25.076 Z-5
X-61.555 Y-25.3
G2 X-61.463 Y-25.525 I-0.225 J-0.225
G1 Y-30.938
X-72.287
Y-20.112
X-61.463
Y-25.525
G2 X-61.555 Y-25.75 I-0.317 J0
G1 X-61.78 Y-25.974
X-61.83 Y-26.024 Z-4.992
X-61.877 Y-26.071 Z-4.969
X-61.92 Y-26.114 Z-4.931
X-61.956 Y-26.15 Z-4.88
X-61.982 Y-26.176 Z-4.82
X-61.999 Y-26.193 Z-4.753
X-62.005 Y-26.199 Z-4.683
G0 Z5.08
X-81.005 Y-24.851
Z1.58
G1 Z-2.5 F762
Z-4.683
X-80.999 Y-24.857 Z-4.753
X-80.982 Y-24.874 Z-4.82
X-80.956 Y-24.9 Z-4.88
X-80.92 Y-24.936 Z-4.931
X-80.877 Y-24.979 Z-4.969
X-80.83 Y-25.026 Z-4.992
X-80.78 Y-25.076 Z-5
X-80.555 Y-25.3
G2 X-80.463 Y-25.525 I-0.225 J-0.225
G1 Y-30.938
X-91.287
Y-20.112
X-80.463
Y-25.525
G2 X-80.555 Y-25.75 I-0.317 J0
G1 X-80.78 Y-25.974
X-80.83 Y-26.024 Z-4.992
X-80.877 Y-26.071 Z-4.969
X-80.92 Y-26.114 Z-4.931
X-80.956 Y-26.15 Z-4.88
X-80.982 Y-26.176 Z-4.82
X-80.999 Y-26.193 Z-4.753
X-81.005 Y-26.199 Z-4.683
G0 Z5.08
Y-43.851
Z1.58
G1 Z-2.5 F762
Z-4.683
X-80.999 Y-43.857 Z-4.753
X-80.982 Y-43.874 Z-4.82
X-80.956 Y-43.9 Z-4.88
X-80.92 Y-43.936 Z-4.931
X-80.877 Y-43.979 Z-4.969
X-80.83 Y-44.026 Z-4.992
X-80.78 Y-44.076 Z-5
X-80.555 Y-44.3
G2 X-80.463 Y-44.525 I-0.225 J-0.225
G1 Y-49.938
X-91.287
Y-39.112
X-80.463
Y-44.525
G2 X-80.555 Y-44.75 I-0.317 J0
G1 X-80.78 Y-44.974
X-80.83 Y-45.024 Z-4.992
X-80.877 Y-45.071 Z-4.969
X-80.92 Y-45.114 Z-4.931
X-80.956 Y-45.15 Z-4.88
X-80.982 Y-45.176 Z-4.82
X-80.999 Y-45.193 Z-4.753
X-81.005 Y-45.199 Z-4.683
G0 Z5.08
Y-62.851
Z1.58
G1 Z-2.5 F762
Z-4.683
X-80.999 Y-62.857 Z-4.753
X-80.982 Y-62.874 Z-4.82
X-80.956 Y-62.9 Z-4.88
X-80.92 Y-62.936 Z-4.931
X-80.877 Y-62.979 Z-4.969
X-80.83 Y-63.026 Z-4.992
X-80.78 Y-63.076 Z-5
X-80.555 Y-63.3
G2 X-80.463 Y-63.525 I-0.225 J-0.225
G1 Y-68.938
X-91.287
Y-58.112
X-80.463
Y-63.525
G2 X-80.555 Y-63.75 I-0.317 J0
G1 X-80.78 Y-63.974
X-80.83 Y-64.024 Z-4.992
X-80.877 Y-64.071 Z-4.969
X-80.92 Y-64.114 Z-4.931
X-80.956 Y-64.15 Z-4.88
X-80.982 Y-64.176 Z-4.82
X-80.999 Y-64.193 Z-4.753
X-81.005 Y-64.199 Z-4.683
G0 Z15.24
M9
G28 G91 Z0
G28 X0 Y0
M30
%
